;FLAVOR:Marlin
;TIME:4502
;Filament used: 5.40748m
;Layer height: 0.2
;MINX:73.61
;MINY:73.615
;MINZ:0.2
;MAXX:146.389
;MAXY:146.393
;MAXZ:30
;Generated with Cura_SteamEngine 4.6.2
M104 S200
M105
M109 S200
M82 ;absolute extrusion mode
G21 ;metric values
G90 ;absolute positioning
M82 ;set extruder to absolute mode
M107 ;start with the fan off
G28 X0 Y0 ;move X/Y to min endstops
G28 Z0 ;move Z to min endstops
G1 Z15.0 F100 ;move the platform down 15mm
G92 E0 ;zero the extruded length
G1 F200 E3 ;extrude 3mm of feed stock
G92 E0 ;zero the extruded length again
G1 F100
G0 Y20 F100
M117 Printing...
G5
G92 E0
G92 E0
G1 F2400 E-6
;LAYER_COUNT:150
;LAYER:0
M106 S255
M204 S3000
M205 X10 Y10
G1 F600 Z0.275
G0 F3000 X110.863 Y74.769 Z0.275
M204 S1800
M205 X8 Y8
;TYPE:SKIRT
G1 F600 Z0.2
G1 F2400 E0
G1 X111.509 Y74.832 E0.03022
G1 X112.143 Y74.974 E0.06048
G1 X112.755 Y75.193 E0.09074
G1 X113.335 Y75.485 E0.12098
G1 X113.875 Y75.846 E0.15123
G1 X114.318 Y76.224 E0.17834
G1 X114.746 Y76.632 E0.20588
G1 X143.216 Y105.099 E2.08058
G1 X143.734 Y105.631 E2.11515
G1 X144.158 Y106.123 E2.14539
G1 X144.519 Y106.663 E2.17564
G1 X144.81 Y107.244 E2.2059
G1 X145.028 Y107.856 E2.23615
G1 X145.181 Y108.567 E2.27001
G1 X145.269 Y109.499 E2.3136
G1 X145.264 Y110.67 E2.36813
G1 X145.215 Y111.318 E2.39839
G1 X145.088 Y111.955 E2.42864
G1 X144.883 Y112.571 E2.45887
G1 X144.578 Y113.205 E2.49163
G1 X144.155 Y113.87 E2.52833
G1 X143.703 Y114.402 E2.56083
G1 X143.29 Y114.827 E2.58843
G1 X114.904 Y143.214 E4.45773
G1 X114.37 Y143.733 E4.4924
G1 X113.878 Y144.157 E4.52264
G1 X113.337 Y144.517 E4.5529
G1 X112.756 Y144.807 E4.58314
G1 X112.144 Y145.024 E4.61337
G1 X111.51 Y145.168 E4.64365
G1 X110.551 Y145.268 E4.68855
G1 X109.98 Y145.272 E4.71513
G1 X109.322 Y145.262 E4.74578
G1 X108.674 Y145.213 E4.77604
G1 X108.037 Y145.084 E4.8063
G1 X107.346 Y144.846 E4.84033
G1 X106.668 Y144.516 E4.87544
G1 X106.126 Y144.158 E4.90569
G1 X105.622 Y143.725 E4.93663
G1 X105.17 Y143.285 E4.966
G1 X76.784 Y114.901 E6.8352
G1 X76.262 Y114.363 E6.87011
G1 X75.839 Y113.87 E6.90036
G1 X75.48 Y113.329 E6.93059
G1 X75.19 Y112.748 E6.96083
G1 X74.973 Y112.135 E6.9911
G1 X74.819 Y111.399 E7.02612
G1 X74.73 Y110.446 E7.07069
G1 X74.736 Y109.326 E7.12284
G1 X74.785 Y108.678 E7.1531
G1 X74.912 Y108.041 E7.18334
G1 X75.117 Y107.424 E7.21362
G1 X75.468 Y106.711 E7.25062
G1 X75.901 Y106.056 E7.28719
G1 X76.298 Y105.597 E7.31544
G1 X76.709 Y105.174 E7.34291
G1 X105.097 Y76.786 E9.21231
G1 X105.633 Y76.265 E9.24711
G1 X106.126 Y75.842 E9.27736
G1 X106.667 Y75.483 E9.30759
G1 X107.468 Y75.105 E9.34884
G1 X108.191 Y74.878 E9.38412
G1 X108.831 Y74.767 E9.41437
G1 X109.437 Y74.735 E9.44262
G1 X110.863 Y74.769 E9.50904
M204 S3000
M205 X10 Y10
G0 F3000 X110.883 Y74.21
M204 S1800
M205 X8 Y8
G1 F2400 X111.563 Y74.274 E9.54085
G1 X112.231 Y74.417 E9.57266
G1 X112.878 Y74.637 E9.60448
G1 X113.494 Y74.932 E9.63628
G1 X114.072 Y75.296 E9.66809
G1 X114.705 Y75.819 E9.70632
G1 X115.133 Y76.227 E9.73386
G1 X143.612 Y104.703 E11.60915
G1 X144.135 Y105.24 E11.64405
G1 X144.583 Y105.756 E11.67587
G1 X144.967 Y106.321 E11.70768
G1 X145.282 Y106.927 E11.73948
G1 X145.525 Y107.565 E11.77127
G1 X145.735 Y108.488 E11.81535
G1 X145.829 Y109.493 E11.86235
G1 X145.824 Y110.677 E11.91748
G1 X145.775 Y111.359 E11.94932
G1 X145.647 Y112.03 E11.98113
G1 X145.441 Y112.681 E12.01293
G1 X145.065 Y113.481 E12.05409
G1 X144.626 Y114.175 E12.09232
G1 X144.104 Y114.792 E12.12996
G1 X143.691 Y115.217 E12.15755
G1 X115.3 Y143.61 E14.02721
G1 X114.761 Y144.135 E14.06225
G1 X114.244 Y144.582 E14.09407
G1 X113.679 Y144.965 E14.12586
G1 X113.072 Y145.28 E14.1577
G1 X112.433 Y145.522 E14.18952
G1 X111.817 Y145.679 E14.21912
G1 X110.942 Y145.811 E14.26032
G1 X110.128 Y145.833 E14.29824
G1 X109.313 Y145.822 E14.33619
G1 X108.632 Y145.772 E14.36799
G1 X107.961 Y145.642 E14.39982
G1 X107.128 Y145.362 E14.44074
G1 X106.419 Y145.019 E14.47741
G1 X105.845 Y144.647 E14.50926
G1 X105.231 Y144.127 E14.54673
G1 X104.779 Y143.687 E14.5761
G1 X76.388 Y115.297 E16.44566
G1 X75.86 Y114.753 E16.48096
G1 X75.414 Y114.236 E16.51276
G1 X75.031 Y113.67 E16.54458
G1 X74.716 Y113.064 E16.57638
G1 X74.475 Y112.424 E16.60822
G1 X74.264 Y111.475 E16.65349
G1 X74.17 Y110.452 E16.70133
G1 X74.176 Y109.318 E16.75413
G1 X74.225 Y108.637 E16.78593
G1 X74.353 Y107.966 E16.81773
G1 X74.559 Y107.314 E16.84957
G1 X74.986 Y106.426 E16.89545
G1 X75.436 Y105.742 E16.93358
G1 X75.897 Y105.206 E16.9665
G1 X76.308 Y104.783 E16.99396
G1 X104.701 Y76.39 E18.86369
G1 X105.243 Y75.863 E18.89889
G1 X105.76 Y75.417 E18.93068
G1 X106.326 Y75.034 E18.96251
G1 X106.933 Y74.719 E18.99435
G1 X108.027 Y74.342 E19.04823
G1 X108.699 Y74.219 E19.08004
G1 X109.439 Y74.175 E19.11456
G1 X110.883 Y74.21 E19.18182
M204 S3000
M205 X10 Y10
G0 F3000 X110.903 Y73.65
M204 S1800
M205 X8 Y8
G1 F2400 X111.615 Y73.715 E19.21511
G1 X112.315 Y73.86 E19.2484
G1 X112.995 Y74.081 E19.28169
G1 X113.646 Y74.378 E19.31501
G1 X114.26 Y74.745 E19.34832
G1 X115.091 Y75.414 E19.39799
G1 X115.519 Y75.822 E19.42553
G1 X144.064 Y104.365 E21.3052
G1 X144.536 Y104.849 E21.33668
G1 X145.006 Y105.388 E21.36998
G1 X145.413 Y105.976 E21.40328
G1 X145.751 Y106.606 E21.43657
G1 X146.018 Y107.27 E21.46989
G1 X146.208 Y107.959 E21.50317
G1 X146.324 Y108.652 E21.53589
G1 X146.389 Y109.486 E21.57484
G1 X146.383 Y110.684 E21.63063
G1 X146.334 Y111.398 E21.66395
G1 X146.206 Y112.101 E21.69723
G1 X146 Y112.786 E21.73053
G1 X145.552 Y113.757 E21.78033
G1 X145.097 Y114.479 E21.82007
G1 X144.506 Y115.182 E21.86283
G1 X144.093 Y115.607 E21.89043
G1 X115.633 Y144.067 E23.76457
G1 X115.151 Y144.536 E23.79588
G1 X114.611 Y145.005 E23.82918
G1 X114.023 Y145.412 E23.86248
G1 X113.392 Y145.75 E23.89582
G1 X112.728 Y146.015 E23.92911
G1 X111.925 Y146.228 E23.96779
G1 X111.018 Y146.366 E24.01051
G1 X110.134 Y146.393 E24.05169
G1 X109.305 Y146.382 E24.0903
G1 X108.591 Y146.331 E24.12363
G1 X107.888 Y146.201 E24.15692
G1 X106.91 Y145.878 E24.20488
G1 X106.171 Y145.522 E24.24307
G1 X105.568 Y145.138 E24.27636
G1 X104.841 Y144.528 E24.32055
G1 X104.389 Y144.088 E24.34992
G1 X75.926 Y115.625 E26.22426
G1 X75.458 Y115.143 E26.25554
G1 X74.99 Y114.603 E26.28882
G1 X74.584 Y114.014 E26.32213
G1 X74.247 Y113.383 E26.35544
G1 X73.982 Y112.719 E26.38873
G1 X73.793 Y112.029 E26.42204
G1 X73.669 Y111.258 E26.4584
G1 X73.61 Y110.457 E26.4958
G1 X73.617 Y109.311 E26.54917
G1 X73.666 Y108.598 E26.58244
G1 X73.794 Y107.894 E26.61576
G1 X74 Y107.209 E26.64907
G1 X74.281 Y106.552 E26.68234
G1 X74.572 Y106.025 E26.71038
G1 X74.969 Y105.43 E26.74368
G1 X75.495 Y104.816 E26.78133
G1 X75.906 Y104.393 E26.80879
G1 X104.305 Y75.994 E28.67891
G1 X104.853 Y75.461 E28.71451
G1 X105.393 Y74.992 E28.74782
G1 X105.982 Y74.587 E28.7811
G1 X106.613 Y74.25 E28.81441
G1 X107.077 Y74.056 E28.83783
G1 X107.862 Y73.806 E28.87619
G1 X108.564 Y73.672 E28.90947
G1 X109.442 Y73.615 E28.95044
G1 X110.903 Y73.65 E29.01849
M204 S3000
M205 X10 Y10
G0 F3000 X110.574 Y80.207
M204 S1800
M205 X8 Y8
;TYPE:SUPPORT-INTERFACE
G1 F1500 X139.793 Y109.426 E30.94261
G1 X139.793 Y109.427 E30.94265
G1 X139.794 Y110.569 E30.99583
G1 X139.791 Y110.577 E30.99623
G1 X110.577 Y139.791 E32.92002
G1 X110.569 Y139.794 E32.92042
G1 X109.427 Y139.793 E32.97359
G1 X109.426 Y139.793 E32.97364
G1 X80.207 Y110.574 E34.89776
G1 X80.207 Y110.573 E34.89781
G1 X80.206 Y109.431 E34.95099
G1 X80.209 Y109.423 E34.95138
G1 X109.423 Y80.209 E36.87518
G1 X109.431 Y80.206 E36.87557
G1 X110.573 Y80.207 E36.92875
G1 X110.574 Y80.207 E36.9288
M204 S3000
M205 X10 Y10
G0 F3000 X110.001 Y110.386
M204 S1800
M205 X8 Y8
G1 F1500 X109.615 Y110 E36.95421
G1 X110 Y109.615 E36.97957
G1 X110.386 Y110.001 E37.00499
G1 X110.001 Y110.386 E37.03034
M204 S3000
M205 X10 Y10
G0 F3000 X110.001 Y111.178
M204 S1800
M205 X8 Y8
G1 F1500 X108.823 Y110 E37.10791
G1 X110 Y108.823 E37.18542
G1 X111.178 Y110.001 E37.26299
G1 X110.001 Y111.178 E37.3405
M204 S3000
M205 X10 Y10
G0 F3000 X110.001 Y111.97
M204 S1800
M205 X8 Y8
G1 F1500 X108.031 Y110 E37.47023
G1 X110 Y108.031 E37.59989
G1 X111.97 Y110.001 E37.72962
G1 X110.001 Y111.97 E37.85928
M204 S3000
M205 X10 Y10
G0 F3000 X110.001 Y112.762
M204 S1800
M205 X8 Y8
G1 F1500 X107.239 Y110 E38.04116
G1 X110 Y107.239 E38.22298
G1 X112.762 Y110.001 E38.40486
G1 X110.001 Y112.762 E38.58668
M204 S3000
M205 X10 Y10
G0 F3000 X110.001 Y113.554
M204 S1800
M205 X8 Y8
G1 F1500 X106.447 Y110 E38.82072
G1 X110 Y106.447 E39.05469
G1 X113.554 Y110.001 E39.28872
G1 X110.001 Y113.554 E39.52269
M204 S3000
M205 X10 Y10
G0 F3000 X110.001 Y114.346
M204 S1800
M205 X8 Y8
G1 F1500 X105.655 Y110 E39.80889
G1 X110 Y105.655 E40.09501
G1 X114.346 Y110.001 E40.3812
G1 X110.001 Y114.346 E40.66733
M204 S3000
M205 X10 Y10
G0 F3000 X110.001 Y115.138
M204 S1800
M205 X8 Y8
G1 F1500 X104.863 Y110 E41.00567
G1 X110 Y104.863 E41.34396
G1 X115.138 Y110.001 E41.6823
G1 X110.001 Y115.138 E42.02058
M204 S3000
M205 X10 Y10
G0 F3000 X110.001 Y115.93
M204 S1800
M205 X8 Y8
G1 F1500 X104.071 Y110 E42.41108
G1 X110 Y104.071 E42.80152
G1 X115.93 Y110.001 E43.19202
G1 X110.001 Y115.93 E43.58245
M204 S3000
M205 X10 Y10
G0 F3000 X110.001 Y116.722
M204 S1800
M205 X8 Y8
G1 F1500 X103.279 Y110 E44.02511
G1 X110 Y103.279 E44.4677
G1 X116.722 Y110.001 E44.91035
G1 X110.001 Y116.722 E45.35294
M204 S3000
M205 X10 Y10
G0 F3000 X110.001 Y117.514
M204 S1800
M205 X8 Y8
G1 F1500 X102.487 Y110 E45.84775
G1 X110 Y102.487 E46.34249
G1 X117.514 Y110.001 E46.8373
G1 X110.001 Y117.514 E47.33205
M204 S3000
M205 X10 Y10
G0 F3000 X110.001 Y118.306
M204 S1800
M205 X8 Y8
G1 F1500 X101.695 Y110 E47.87901
G1 X110 Y101.695 E48.42591
G1 X118.306 Y110.001 E48.97288
G1 X110.001 Y118.306 E49.51977
M204 S3000
M205 X10 Y10
G0 F3000 X110.001 Y119.098
M204 S1800
M205 X8 Y8
G1 F1500 X100.903 Y110 E50.11889
G1 X110 Y100.903 E50.71795
G1 X119.098 Y110.001 E51.31706
G1 X110.001 Y119.098 E51.91612
M204 S3000
M205 X10 Y10
G0 F3000 X110.001 Y119.89
M204 S1800
M205 X8 Y8
G1 F1500 X100.111 Y110 E52.56739
G1 X110 Y100.111 E53.2186
G1 X119.89 Y110.001 E53.86987
G1 X110.001 Y119.89 E54.52108
M204 S3000
M205 X10 Y10
G0 F3000 X110.001 Y120.682
M204 S1800
M205 X8 Y8
G1 F1500 X99.319 Y110 E55.22451
G1 X110 Y99.319 E55.92787
G1 X120.682 Y110.001 E56.6313
G1 X110.001 Y120.682 E57.33466
M204 S3000
M205 X10 Y10
G0 F3000 X110.001 Y121.474
M204 S1800
M205 X8 Y8
G1 F1500 X98.527 Y110 E58.09024
G1 X110 Y98.527 E58.84576
G1 X121.474 Y110.001 E59.60134
G1 X110.001 Y121.474 E60.35686
M204 S3000
M205 X10 Y10
G0 F3000 X110.001 Y122.266
M204 S1800
M205 X8 Y8
G1 F1500 X97.735 Y110 E61.16459
G1 X110 Y97.735 E61.97227
G1 X122.266 Y110.001 E62.78
G1 X110.001 Y122.266 E63.58767
M204 S3000
M205 X10 Y10
G0 F3000 X110.001 Y123.058
M204 S1800
M205 X8 Y8
G1 F1500 X96.943 Y110 E64.44757
G1 X110 Y96.943 E65.30739
G1 X123.058 Y110.001 E66.16728
G1 X110.001 Y123.058 E67.02711
M204 S3000
M205 X10 Y10
G0 F3000 X110.001 Y123.85
M204 S1800
M205 X8 Y8
G1 F1500 X96.151 Y110 E67.93916
G1 X110 Y96.151 E68.85114
G1 X123.85 Y110.001 E69.76318
G1 X110.001 Y123.85 E70.67516
M204 S3000
M205 X10 Y10
G0 F3000 X110.001 Y124.642
M204 S1800
M205 X8 Y8
G1 F1500 X95.359 Y110 E71.63936
G1 X110 Y95.359 E72.6035
G1 X124.642 Y110.001 E73.5677
G1 X110.001 Y124.642 E74.53183
M204 S3000
M205 X10 Y10
G0 F3000 X110.001 Y125.434
M204 S1800
M205 X8 Y8
G1 F1500 X94.567 Y110 E75.54819
G1 X110 Y94.567 E76.56448
G1 X125.434 Y110.001 E77.58083
G1 X110.001 Y125.434 E78.59712
M204 S3000
M205 X10 Y10
G0 F3000 X110.001 Y126.226
M204 S1800
M205 X8 Y8
G1 F1500 X93.775 Y110 E79.66563
G1 X110 Y93.775 E80.73408
G1 X126.226 Y110.001 E81.80259
G1 X110.001 Y126.226 E82.87103
M204 S3000
M205 X10 Y10
G0 F3000 X110.001 Y127.018
M204 S1800
M205 X8 Y8
G1 F1500 X92.983 Y110 E83.99169
G1 X110 Y92.983 E85.11229
G1 X127.018 Y110.001 E86.23296
G1 X110.001 Y127.018 E87.35356
M204 S3000
M205 X10 Y10
G0 F3000 X110.001 Y127.81
M204 S1800
M205 X8 Y8
G1 F1500 X92.191 Y110 E88.52637
G1 X110 Y92.191 E89.69913
G1 X127.81 Y110.001 E90.87195
G1 X110.001 Y127.81 E92.0447
M204 S3000
M205 X10 Y10
G0 F3000 X110.001 Y128.602
M204 S1800
M205 X8 Y8
G1 F1500 X91.399 Y110 E93.26967
G1 X110 Y91.399 E94.49458
G1 X128.602 Y110.001 E95.71955
G1 X110.001 Y128.602 E96.94446
M204 S3000
M205 X10 Y10
G0 F3000 X110.001 Y129.394
M204 S1800
M205 X8 Y8
G1 F1500 X90.607 Y110 E98.22159
G1 X110 Y90.607 E99.49865
G1 X129.394 Y110.001 E100.77578
G1 X110.001 Y129.394 E102.05284
M204 S3000
M205 X10 Y10
G0 F3000 X110.001 Y130.186
M204 S1800
M205 X8 Y8
G1 F1500 X89.815 Y110 E103.38212
G1 X110 Y89.815 E104.71134
G1 X130.186 Y110.001 E106.04062
G1 X110.001 Y130.186 E107.36984
M204 S3000
M205 X10 Y10
G0 F3000 X110.001 Y130.978
M204 S1800
M205 X8 Y8
G1 F1500 X89.023 Y110 E108.75128
G1 X110 Y89.023 E110.13265
G1 X130.978 Y110.001 E111.51409
G1 X110.001 Y130.978 E112.89546
M204 S3000
M205 X10 Y10
G0 F3000 X110.001 Y131.77
M204 S1800
M205 X8 Y8
G1 F1500 X88.231 Y110 E114.32905
G1 X110 Y88.231 E115.76257
G1 X131.77 Y110.001 E117.19617
G1 X110.001 Y131.77 E118.62969
M204 S3000
M205 X10 Y10
G0 F3000 X110.001 Y132.562
M204 S1800
M205 X8 Y8
G1 F1500 X87.439 Y110 E120.11544
G1 X110 Y87.439 E121.60112
G1 X132.562 Y110.001 E123.08687
G1 X110.001 Y132.562 E124.57255
M204 S3000
M205 X10 Y10
G0 F3000 X110.001 Y133.354
M204 S1800
M205 X8 Y8
G1 F1500 X86.647 Y110 E126.11045
G1 X110 Y86.647 E127.64828
G1 X133.354 Y110.001 E129.18618
G1 X110.001 Y133.354 E130.72402
M204 S3000
M205 X10 Y10
G0 F3000 X110.001 Y134.146
M204 S1800
M205 X8 Y8
G1 F1500 X85.855 Y110 E132.31407
G1 X110 Y85.855 E133.90406
G1 X134.146 Y110.001 E135.49412
G1 X110.001 Y134.146 E137.08411
M204 S3000
M205 X10 Y10
G0 F3000 X110.001 Y134.938
M204 S1800
M205 X8 Y8
G1 F1500 X85.063 Y110 E138.72632
G1 X110 Y85.063 E140.36846
G1 X134.938 Y110.001 E142.01067
G1 X110.001 Y134.938 E143.65281
M204 S3000
M205 X10 Y10
G0 F3000 X110.001 Y135.73
M204 S1800
M205 X8 Y8
G1 F1500 X84.271 Y110 E145.34718
G1 X110 Y84.271 E147.04148
G1 X135.73 Y110.001 E148.73584
G1 X110.001 Y135.73 E150.43014
M204 S3000
M205 X10 Y10
G0 F3000 X110.001 Y136.522
M204 S1800
M205 X8 Y8
G1 F1500 X83.479 Y110 E152.17666
G1 X110 Y83.479 E153.92311
G1 X136.522 Y110.001 E155.66963
G1 X110.001 Y136.522 E157.41608
M204 S3000
M205 X10 Y10
G0 F3000 X110.001 Y137.314
M204 S1800
M205 X8 Y8
G1 F1500 X82.687 Y110 E159.21476
G1 X110 Y82.687 E161.01337
G1 X137.314 Y110.001 E162.81204
G1 X110.001 Y137.314 E164.61065
M204 S3000
M205 X10 Y10
G0 F3000 X110.001 Y138.106
M204 S1800
M205 X8 Y8
G1 F1500 X81.895 Y110 E166.46148
G1 X110 Y81.895 E168.31224
G1 X138.106 Y110.001 E170.16307
G1 X110.001 Y138.106 E172.01383
M204 S3000
M205 X10 Y10
G0 F3000 X109.856 Y138.753
M204 S1800
M205 X8 Y8
G1 F1500 X81.247 Y110.144 E173.89778
G1 X81.246 Y109.856 E173.91119
G1 X109.856 Y81.246 E175.79521
G1 X110.144 Y81.247 E175.80862
G1 X138.753 Y109.856 E177.69257
G1 X138.754 Y110.144 E177.70598
G1 X110.144 Y138.754 E179.59
G1 X109.856 Y138.753 E179.60341
M204 S3000
M205 X10 Y10
G0 F3000 X109.624 Y139.313
M204 S1800
M205 X8 Y8
G1 F1500 X80.687 Y110.376 E181.50896
G1 X80.686 Y109.624 E181.54398
G1 X109.624 Y80.686 E183.44959
G1 X110.376 Y80.687 E183.48461
G1 X139.313 Y109.624 E185.39016
G1 X139.314 Y110.376 E185.42518
G1 X110.376 Y139.314 E187.33079
G1 X109.624 Y139.313 E187.36581
M204 S3000
M205 X10 Y10
G0 F600 X109.624 Y139.313 Z0.4
G0 F3000 X110.001 Y110.369
;TIME_ELAPSED:159.548803
;LAYER:1
M204 S1800
M205 X8 Y8
;TYPE:SUPPORT-INTERFACE
G1 F1350 X109.632 Y110 E187.38317
G1 X110 Y109.632 E187.40047
G1 X110.369 Y110.001 E187.41783
G1 X110.001 Y110.369 E187.43514
M204 S3000
M205 X10 Y10
G0 F4500 X110.001 Y110.935
M204 S1800
M205 X8 Y8
G1 F1350 X109.066 Y110 E187.47912
G1 X110 Y109.066 E187.52305
G1 X110.935 Y110.001 E187.56703
G1 X110.001 Y110.935 E187.61096
M204 S3000
M205 X10 Y10
G0 F4500 X110.001 Y111.501
M204 S1800
M205 X8 Y8
G1 F1350 X108.5 Y110 E187.68157
G1 X110 Y108.5 E187.75212
G1 X111.501 Y110.001 E187.82273
G1 X110.001 Y111.501 E187.89328
M204 S3000
M205 X10 Y10
G0 F4500 X110.001 Y112.067
M204 S1800
M205 X8 Y8
G1 F1350 X107.934 Y110 E187.99051
G1 X110 Y107.934 E188.08768
G1 X112.067 Y110.001 E188.18491
