;FLAVOR:Marlin
;TIME:4925
;Filament used: 1.14543m
;Layer height: 0.1
;MINX:92.306
;MINY:93.52
;MINZ:0.2
;MAXX:125.299
;MAXY:126.48
;MAXZ:47.4
;Generated with Cura_SteamEngine master
M104 S190
M105
M109 S190
M82 ;absolute extrusion mode
G21 ;metric values
G90 ;absolute positioning
M82 ;set extruder to absolute mode
M107 ;start with the fan off
G28 X0 Y0 ;move X/Y to min endstops
G28 Z0 ;move Z to min endstops
G1 Z15.0 F120 ;move the platform down 15mm
G92 E0 ;zero the extruded length
G1 F200 E3 ;extrude 3mm of feed stock
G92 E0 ;zero the extruded length again
G1 F120
G0 Y20 F120
M117 Printing...
G5
G92 E0
G92 E0
G1 F2400 E-5
;LAYER_COUNT:474
;LAYER:0
M107
M204 S3000
M205 X10 Y10
G0 F3600 X96.96 Y98.513 Z0.2
M204 S300
M205 X5 Y5
;TYPE:SKIRT
G1 F2400 E0
G1 F1350 X98.089 Y97.455 E0.07205
G1 X98.49 Y97.124 E0.09626
G1 X99.738 Y96.216 E0.16812
G1 X100.187 Y95.931 E0.19289
G1 X101.543 Y95.186 E0.26493
G1 X102.016 Y94.963 E0.28928
G1 X103.453 Y94.393 E0.36126
G1 X103.956 Y94.229 E0.3859
G1 X105.45 Y93.845 E0.45773
G1 X105.972 Y93.746 E0.48247
G1 X107.508 Y93.553 E0.55455
G1 X108.032 Y93.52 E0.579
G1 X109.573 Y93.52 E0.65076
G1 X110.097 Y93.553 E0.6752
G1 X111.633 Y93.746 E0.74729
G1 X112.155 Y93.845 E0.77203
G1 X113.649 Y94.229 E0.84386
G1 X114.152 Y94.393 E0.86849
G1 X115.589 Y94.963 E0.94048
G1 X116.062 Y95.186 E0.96483
G1 X117.418 Y95.931 E1.03687
G1 X117.867 Y96.216 E1.06163
G1 X119.115 Y97.124 E1.1335
G1 X119.517 Y97.457 E1.15781
G1 X120.645 Y98.515 E1.22982
G1 X121.008 Y98.9 E1.25446
G1 X121.992 Y100.089 E1.32632
G1 X122.301 Y100.514 E1.35079
G1 X123.131 Y101.82 E1.42285
G1 X123.388 Y102.288 E1.44771
G1 X124.044 Y103.685 E1.51957
G1 X124.237 Y104.173 E1.54401
G1 X124.714 Y105.642 E1.61593
G1 X124.844 Y106.15 E1.64034
G1 X125.135 Y107.671 E1.71245
G1 X125.202 Y108.196 E1.7371
G1 X125.299 Y109.735 E1.8089
G1 X125.299 Y110.263 E1.83349
G1 X125.202 Y111.804 E1.90538
G1 X125.135 Y112.329 E1.93003
G1 X124.844 Y113.85 E2.00214
G1 X124.714 Y114.357 E2.02651
G1 X124.238 Y115.824 E2.09833
G1 X124.045 Y116.313 E2.1228
G1 X123.388 Y117.712 E2.19477
G1 X123.131 Y118.18 E2.21964
G1 X122.301 Y119.486 E2.29169
G1 X121.992 Y119.911 E2.31616
G1 X121.008 Y121.1 E2.38802
G1 X120.645 Y121.485 E2.41266
G1 X119.517 Y122.543 E2.48468
G1 X119.115 Y122.876 E2.50898
G1 X117.867 Y123.784 E2.58085
G1 X117.418 Y124.069 E2.60561
G1 X116.062 Y124.814 E2.67765
G1 X115.589 Y125.037 E2.702
G1 X114.152 Y125.607 E2.77399
G1 X113.649 Y125.771 E2.79862
G1 X112.155 Y126.155 E2.87045
G1 X111.633 Y126.254 E2.89519
G1 X110.097 Y126.447 E2.96728
G1 X109.573 Y126.48 E2.99172
G1 X108.032 Y126.48 E3.06348
G1 X107.508 Y126.447 E3.08793
G1 X105.972 Y126.254 E3.16001
G1 X105.45 Y126.155 E3.18475
G1 X103.956 Y125.771 E3.25658
G1 X103.453 Y125.607 E3.28122
G1 X102.016 Y125.037 E3.3532
G1 X101.543 Y124.814 E3.37755
G1 X100.187 Y124.069 E3.44959
G1 X99.738 Y123.784 E3.47436
G1 X98.49 Y122.876 E3.54622
G1 X98.089 Y122.545 E3.57043
G1 X96.96 Y121.487 E3.64248
G1 X96.595 Y121.098 E3.66732
G1 X95.612 Y119.909 E3.73916
G1 X95.304 Y119.486 E3.76352
G1 X94.474 Y118.18 E3.83558
G1 X94.218 Y117.714 E3.86033
G1 X93.56 Y116.314 E3.93236
G1 X93.365 Y115.822 E3.95701
G1 X92.89 Y114.356 E4.02876
G1 X92.761 Y113.853 E4.05294
G1 X92.469 Y112.332 E4.12506
G1 X92.402 Y111.801 E4.14998
G1 X92.306 Y110.262 E4.22178
G1 X92.306 Y109.74 E4.24609
G1 X92.402 Y108.199 E4.31799
G1 X92.469 Y107.668 E4.34291
G1 X92.761 Y106.147 E4.41502
G1 X92.89 Y105.644 E4.4392
G1 X93.365 Y104.178 E4.51096
G1 X93.56 Y103.686 E4.5356
G1 X94.218 Y102.286 E4.60764
G1 X94.474 Y101.82 E4.63239
G1 X95.304 Y100.514 E4.70445
G1 X95.612 Y100.091 E4.72881
G1 X96.595 Y98.902 E4.80065
G1 X96.96 Y98.513 E4.82549
M204 S3000
M205 X10 Y10
G0 F3600 X97.027 Y99.259
M204 S300
M205 X5 Y5
G1 F1350 X98.472 Y97.864 E4.91901
G1 X100.067 Y96.669 E5.01181
G1 X101.812 Y95.677 E5.10528
G1 X103.66 Y94.913 E5.19839
G1 X105.59 Y94.388 E5.29153
G1 X107.578 Y94.108 E5.38501
G1 X109.573 Y94.08 E5.47792
G1 X111.563 Y94.301 E5.57115
G1 X113.509 Y94.772 E5.66438
G1 X115.382 Y95.483 E5.75767
G1 X117.149 Y96.422 E5.85084
G1 X118.786 Y97.577 E5.94413
G1 X120.262 Y98.923 E6.03715
G1 X121.56 Y100.446 E6.13033
G1 X122.658 Y102.121 E6.22358
G1 X123.537 Y103.923 E6.31694
G1 X124.181 Y105.815 E6.41001
G1 X124.585 Y107.776 E6.50324
G1 X124.74 Y109.77 E6.59637
G1 X124.643 Y111.769 E6.68956
G1 X124.294 Y113.745 E6.78299
G1 X123.705 Y115.651 E6.87588
G1 X122.881 Y117.474 E6.96904
G1 X121.828 Y119.185 E7.06259
G1 X120.576 Y120.743 E7.15566
G1 X119.134 Y122.135 E7.24898
G1 X117.538 Y123.331 E7.34185
G1 X115.793 Y124.323 E7.43532
G1 X113.945 Y125.087 E7.52843
G1 X112.015 Y125.612 E7.62157
G1 X110.027 Y125.892 E7.71505
G1 X108.032 Y125.92 E7.80796
G1 X106.042 Y125.699 E7.90119
G1 X104.096 Y125.228 E7.99442
G1 X102.223 Y124.517 E8.08771
G1 X100.456 Y123.578 E8.18088
G1 X98.819 Y122.423 E8.27417
G1 X97.343 Y121.078 E8.36715
G1 X96.044 Y119.552 E8.46047
G1 X94.947 Y117.879 E8.55362
G1 X94.067 Y116.075 E8.64709
G1 X93.423 Y114.183 E8.74015
G1 X93.019 Y112.226 E8.8332
G1 X92.865 Y110.228 E8.92651
G1 X92.961 Y108.234 E9.01947
G1 X93.311 Y106.253 E9.11314
G1 X93.898 Y104.351 E9.20583
G1 X94.725 Y102.525 E9.29917
G1 X95.777 Y100.815 E9.39265
G1 X97.027 Y99.259 E9.48559
M204 S3000
M205 X10 Y10
G0 F3600 X97.458 Y99.615
M204 S300
M205 X5 Y5
G1 F1350 X98.855 Y98.273 E9.57579
G1 X100.397 Y97.121 E9.66542
G1 X102.082 Y96.168 E9.75556
G1 X103.866 Y95.434 E9.84539
G1 X105.729 Y94.93 E9.93525
G1 X107.648 Y94.664 E10.02546
G1 X109.573 Y94.64 E10.11511
G1 X111.493 Y94.857 E10.20508
G1 X113.37 Y95.314 E10.29503
G1 X115.176 Y96.004 E10.38506
G1 X116.879 Y96.913 E10.47495
G1 X118.456 Y98.029 E10.5649
G1 X119.879 Y99.332 E10.65475
G1 X121.129 Y100.803 E10.74463
G1 X122.185 Y102.421 E10.8346
G1 X123.03 Y104.161 E10.92467
G1 X123.648 Y105.988 E11.01448
G1 X124.035 Y107.881 E11.10445
G1 X124.181 Y109.805 E11.1943
G1 X124.084 Y111.733 E11.28418
G1 X123.744 Y113.64 E11.37438
G1 X123.173 Y115.479 E11.46405
G1 X122.374 Y117.236 E11.55392
G1 X121.355 Y118.885 E11.64418
G1 X120.145 Y120.386 E11.73396
G1 X118.751 Y121.726 E11.824
G1 X117.208 Y122.879 E11.91369
G1 X115.523 Y123.832 E12.00383
G1 X113.739 Y124.566 E12.09366
G1 X111.876 Y125.07 E12.18352
G1 X109.957 Y125.336 E12.27373
G1 X108.032 Y125.36 E12.36338
G1 X106.112 Y125.143 E12.45335
G1 X104.235 Y124.686 E12.5433
G1 X102.429 Y123.996 E12.63333
G1 X100.726 Y123.087 E12.72322
G1 X99.149 Y121.971 E12.81317
G1 X97.726 Y120.669 E12.90299
G1 X96.475 Y119.196 E12.99297
G1 X95.42 Y117.579 E13.08288
G1 X94.574 Y115.837 E13.17305
G1 X93.956 Y114.01 E13.26286
G1 X93.569 Y112.121 E13.35265
G1 X93.424 Y110.193 E13.44267
G1 X93.52 Y108.268 E13.53242
G1 X93.861 Y106.358 E13.62277
G1 X94.431 Y104.524 E13.71219
G1 X95.232 Y102.763 E13.80228
G1 X96.25 Y101.115 E13.89248
G1 X97.458 Y99.615 E13.98216
M204 S3000
M205 X10 Y10
G0 F3600 X97.89 Y99.972
M204 S300
M205 X5 Y5
G1 F1350 X99.238 Y98.681 E14.06907
G1 X100.726 Y97.574 E14.15543
G1 X102.352 Y96.658 E14.24233
G1 X104.073 Y95.955 E14.32889
G1 X105.869 Y95.472 E14.41549
G1 X107.718 Y95.22 E14.50239
G1 X109.573 Y95.2 E14.58877
G1 X111.423 Y95.413 E14.67548
G1 X113.23 Y95.856 E14.76211
G1 X114.969 Y96.525 E14.84887
G1 X116.609 Y97.403 E14.93549
G1 X118.127 Y98.482 E15.02222
G1 X119.496 Y99.74 E15.10879
G1 X120.697 Y101.16 E15.19539
G1 X121.713 Y102.721 E15.28212
G1 X122.523 Y104.399 E15.36888
G1 X123.116 Y106.161 E15.45544
G1 X123.485 Y107.986 E15.54214
G1 X123.622 Y109.84 E15.62871
G1 X123.525 Y111.698 E15.71534
G1 X123.194 Y113.535 E15.80226
G1 X122.64 Y115.306 E15.88867
G1 X121.867 Y116.998 E15.97528
G1 X120.883 Y118.585 E16.06223
G1 X119.713 Y120.029 E16.14877
G1 X118.368 Y121.318 E16.23552
G1 X116.879 Y122.426 E16.32194
G1 X115.253 Y123.342 E16.40884
G1 X113.532 Y124.045 E16.49541
G1 X111.736 Y124.528 E16.58201
G1 X109.887 Y124.78 E16.6689
G1 X108.032 Y124.8 E16.75529
G1 X106.182 Y124.587 E16.842
G1 X104.375 Y124.144 E16.92863
G1 X102.636 Y123.475 E17.01539
G1 X100.996 Y122.597 E17.10201
G1 X99.478 Y121.518 E17.18873
G1 X98.109 Y120.261 E17.27528
G1 X96.907 Y118.839 E17.36198
G1 X95.892 Y117.279 E17.44864
G1 X95.08 Y115.599 E17.53552
G1 X94.489 Y113.838 E17.62202
G1 X94.119 Y112.015 E17.70864
G1 X93.983 Y110.158 E17.79534
G1 X94.079 Y108.303 E17.88183
G1 X94.411 Y106.464 E17.96885
G1 X94.964 Y104.696 E18.0551
G1 X95.738 Y103.001 E18.14187
G1 X96.722 Y101.415 E18.22878
G1 X97.89 Y99.972 E18.31522
M204 S3000
M205 X10 Y10
G0 F3600 X98.321 Y100.329
M204 S300
M205 X5 Y5
G1 F1350 X99.621 Y99.09 E18.39885
G1 X101.056 Y98.027 E18.482
G1 X102.621 Y97.149 E18.56556
G1 X104.279 Y96.475 E18.6489
G1 X106.008 Y96.015 E18.73221
G1 X107.788 Y95.775 E18.81584
G1 X109.573 Y95.76 E18.89896
G1 X111.353 Y95.968 E18.98241
G1 X113.091 Y96.399 E19.06579
G1 X114.763 Y97.045 E19.14926
G1 X116.34 Y97.894 E19.23265
G1 X117.797 Y98.935 E19.31604
G1 X119.113 Y100.148 E19.39937
G1 X120.266 Y101.517 E19.48272
G1 X121.24 Y103.022 E19.56619
G1 X122.016 Y104.637 E19.64962
G1 X122.583 Y106.334 E19.73294
G1 X122.935 Y108.092 E19.81642
G1 X123.063 Y109.876 E19.89971
G1 X122.966 Y111.663 E19.98304
G1 X122.644 Y113.429 E20.06663
G1 X122.107 Y115.133 E20.14982
G1 X121.36 Y116.76 E20.23318
G1 X120.41 Y118.284 E20.3168
G1 X119.282 Y119.672 E20.40009
G1 X117.985 Y120.91 E20.48358
G1 X116.549 Y121.973 E20.56677
G1 X114.984 Y122.851 E20.65033
G1 X113.326 Y123.525 E20.73367
G1 X111.597 Y123.985 E20.81698
G1 X109.817 Y124.225 E20.90061
G1 X108.032 Y124.24 E20.98373
G1 X106.252 Y124.032 E21.06718
G1 X104.514 Y123.601 E21.15056
G1 X102.842 Y122.955 E21.23402
G1 X101.265 Y122.106 E21.31742
G1 X99.808 Y121.065 E21.4008
G1 X98.492 Y119.852 E21.48414
G1 X97.338 Y118.482 E21.56755
G1 X96.365 Y116.978 E21.65096
G1 X95.587 Y115.361 E21.73451
G1 X95.021 Y113.665 E21.81777
G1 X94.669 Y111.91 E21.90112
G1 X94.542 Y110.123 E21.98454
G1 X94.638 Y108.338 E22.06777
G1 X94.961 Y106.569 E22.15151
G1 X95.496 Y104.869 E22.23449
G1 X96.245 Y103.239 E22.31802
G1 X97.195 Y101.716 E22.40161
G1 X98.321 Y100.329 E22.48479
M204 S3000
M205 X10 Y10
G0 F3600 X98.753 Y100.686
M204 S300
M205 X5 Y5
G1 F1350 X100.004 Y99.498 E22.56513
G1 X101.385 Y98.48 E22.64502
G1 X102.891 Y97.64 E22.72531
G1 X104.486 Y96.996 E22.80541
G1 X106.147 Y96.557 E22.88541
G1 X107.857 Y96.331 E22.96572
G1 X109.573 Y96.32 E23.04563
G1 X111.284 Y96.524 E23.12586
G1 X112.952 Y96.941 E23.20592
G1 X114.556 Y97.566 E23.28608
G1 X116.07 Y98.385 E23.36623
G1 X117.468 Y99.388 E23.44635
G1 X118.73 Y100.557 E23.52645
G1 X119.835 Y101.874 E23.60651
G1 X120.768 Y103.322 E23.68671
G1 X121.509 Y104.875 E23.76684
G1 X122.051 Y106.507 E23.84691
G1 X122.385 Y108.197 E23.92713
G1 X122.504 Y109.911 E24.00713
G1 X122.407 Y111.628 E24.08721
G1 X122.094 Y113.324 E24.16752
G1 X121.575 Y114.96 E24.24744
G1 X120.853 Y116.522 E24.32756
G1 X119.938 Y117.984 E24.40787
G1 X118.851 Y119.315 E24.48789
G1 X117.602 Y120.501 E24.56809
G1 X116.22 Y121.52 E24.64805
G1 X114.714 Y122.36 E24.72834
G1 X113.119 Y123.004 E24.80844
G1 X111.458 Y123.443 E24.88844
G1 X109.748 Y123.669 E24.96876
G1 X108.032 Y123.68 E25.04866
G1 X106.321 Y123.476 E25.1289
G1 X104.653 Y123.059 E25.20896
G1 X103.049 Y122.434 E25.28911
G1 X101.535 Y121.615 E25.36927
G1 X100.137 Y120.612 E25.44938
G1 X98.875 Y119.444 E25.52945
G1 X97.77 Y118.125 E25.60958
G1 X96.837 Y116.678 E25.68975
G1 X96.094 Y115.123 E25.77
G1 X95.554 Y113.493 E25.84995
G1 X95.219 Y111.804 E25.93013
G1 X95.101 Y110.088 E26.01022
G1 X95.197 Y108.373 E26.09021
G1 X95.511 Y106.675 E26.17061
G1 X96.029 Y105.041 E26.25043
G1 X96.752 Y103.477 E26.33066
G1 X97.667 Y102.016 E26.41093
G1 X98.753 Y100.686 E26.49089
M204 S3000
M205 X10 Y10
G0 F3600 X99.185 Y101.043
M204 S300
M205 X5 Y5
G1 F1350 X100.387 Y99.907 E26.5679
G1 X101.715 Y98.933 E26.64458
G1 X103.161 Y98.131 E26.72158
G1 X104.692 Y97.516 E26.7984
G1 X106.287 Y97.099 E26.87517
G1 X107.927 Y96.887 E26.95217
G1 X109.573 Y96.88 E27.02882
G1 X111.214 Y97.08 E27.10579
G1 X112.812 Y97.483 E27.18253
G1 X114.35 Y98.086 E27.25946
G1 X115.8 Y98.876 E27.33635
G1 X117.138 Y99.841 E27.41316
G1 X118.347 Y100.965 E27.49003
G1 X119.403 Y102.231 E27.56679
G1 X120.295 Y103.622 E27.64374
G1 X121.002 Y105.113 E27.72058
G1 X121.518 Y106.68 E27.7974
G1 X121.835 Y108.302 E27.87435
G1 X121.945 Y109.946 E27.95108
G1 X121.848 Y111.593 E28.0279
G1 X121.544 Y113.219 E28.10492
G1 X121.042 Y114.787 E28.18159
G1 X120.346 Y116.284 E28.25846
G1 X119.465 Y117.684 E28.33548
G1 X118.419 Y118.958 E28.41224
G1 X117.219 Y120.093 E28.48915
G1 X115.89 Y121.067 E28.56587
G1 X114.444 Y121.869 E28.64287
G1 X112.913 Y122.484 E28.7197
G1 X111.318 Y122.901 E28.79646
G1 X109.678 Y123.113 E28.87346
G1 X108.032 Y123.12 E28.95011
G1 X106.391 Y122.92 E29.02709
G1 X104.793 Y122.517 E29.10382
G1 X103.255 Y121.914 E29.18075
G1 X101.805 Y121.124 E29.25764
G1 X100.467 Y120.159 E29.33445
G1 X99.258 Y119.035 E29.41132
G1 X98.202 Y117.768 E29.48812
G1 X97.31 Y116.378 E29.56503
G1 X96.601 Y114.884 E29.64203
G1 X96.087 Y113.32 E29.71869
G1 X95.769 Y111.698 E29.79565
G1 X95.66 Y110.053 E29.87242
G1 X95.756 Y108.408 E29.94915
G1 X96.061 Y106.781 E30.02623
G1 X96.562 Y105.214 E30.10283
G1 X97.259 Y103.716 E30.17977
G1 X98.14 Y102.316 E30.25679
G1 X99.185 Y101.043 E30.33348
M204 S3000
M205 X10 Y10
G0 F3600 X99.616 Y101.4
M204 S300
M205 X5 Y5
G1 F1350 X100.77 Y100.316 E30.4072
G1 X102.044 Y99.386 E30.48065
G1 X103.43 Y98.622 E30.55434
G1 X104.899 Y98.037 E30.62797
G1 X106.426 Y97.642 E30.70142
G1 X107.997 Y97.442 E30.77516
G1 X109.573 Y97.44 E30.84854
G1 X111.144 Y97.635 E30.92226
G1 X112.673 Y98.026 E30.99575
G1 X114.143 Y98.607 E31.06935
G1 X115.531 Y99.367 E31.14303
G1 X116.809 Y100.294 E31.21655
G1 X117.964 Y101.374 E31.29018
G1 X118.972 Y102.588 E31.36365
G1 X119.822 Y103.923 E31.43735
G1 X120.495 Y105.351 E31.51086
G1 X120.985 Y106.853 E31.58442
G1 X121.285 Y108.407 E31.65812
G1 X121.386 Y109.981 E31.73156
G1 X121.289 Y111.558 E31.80513
G1 X120.994 Y113.114 E31.87888
G1 X120.509 Y114.614 E31.95228
G1 X119.839 Y116.046 E32.0259
G1 X118.992 Y117.383 E32.0996
G1 X117.988 Y118.601 E32.1731
G1 X116.836 Y119.684 E32.24672
G1 X115.561 Y120.614 E32.32021
G1 X114.175 Y121.378 E32.3939
G1 X112.706 Y121.963 E32.46753
G1 X111.179 Y122.358 E32.54097
G1 X109.608 Y122.558 E32.61472
G1 X108.032 Y122.56 E32.6881
G1 X106.461 Y122.365 E32.76181
G1 X104.932 Y121.974 E32.8353
G1 X103.462 Y121.393 E32.9089
G1 X102.074 Y120.633 E32.98259
G1 X100.796 Y119.706 E33.05611
G1 X99.641 Y118.626 E33.12974
G1 X98.633 Y117.411 E33.20325
G1 X97.783 Y116.077 E33.2769
G1 X97.108 Y114.646 E33.35058
G1 X96.62 Y113.147 E33.42398
G1 X96.319 Y111.593 E33.49769
G1 X96.219 Y110.018 E33.57117
G1 X96.315 Y108.443 E33.64465
G1 X96.611 Y106.886 E33.71845
G1 X97.095 Y105.387 E33.79179
G1 X97.766 Y103.954 E33.86547
G1 X98.613 Y102.617 E33.93917
G1 X99.616 Y101.4 E34.01261
M204 S3000
M205 X10 Y10
G1 F2400 E29.01261
;MESH:elf_archer_rb.stl
G0 F3600 X101.28 Y100.906
G0 X106.776 Y99.46
G0 X112.428 Y98.85
G0 X112.519 Y98.564
M204 S300
M205 X5 Y5
;TYPE:WALL-OUTER
G1 F2400 E34.01261
G1 F1350 X113.921 Y99.12 E34.08284
G1 X115.244 Y99.847 E34.15313
G1 X116.464 Y100.734 E34.22336
G1 X117.564 Y101.767 E34.29363
G1 X118.534 Y102.939 E34.36447
G1 X119.34 Y104.207 E34.43443
G1 X119.981 Y105.572 E34.50465
G1 X120.448 Y107.008 E34.57496
G1 X120.732 Y108.498 E34.64559
G1 X120.827 Y110 E34.71567
G1 X120.732 Y111.502 E34.78575
G1 X120.448 Y112.992 E34.85638
G1 X119.981 Y114.428 E34.9267
G1 X119.34 Y115.793 E34.99691
G1 X118.534 Y117.061 E35.06688
G1 X117.564 Y118.233 E35.13772
G1 X116.464 Y119.266 E35.20798
G1 X115.244 Y120.153 E35.27822
G1 X113.921 Y120.88 E35.34851
G1 X112.519 Y121.436 E35.41874
G1 X111.057 Y121.811 E35.48902
G1 X109.555 Y122 E35.55951
G1 X108.05 Y122 E35.62959
G1 X106.548 Y121.811 E35.70008
G1 X105.086 Y121.436 E35.77036
G1 X103.684 Y120.88 E35.84059
G1 X102.361 Y120.153 E35.91088
G1 X101.141 Y119.265 E35.98115
G1 X100.036 Y118.229 E36.05168
G1 X99.074 Y117.066 E36.12196
G1 X98.265 Y115.793 E36.19219
G1 X97.622 Y114.426 E36.26253
G1 X97.158 Y112.994 E36.33263
G1 X96.872 Y111.502 E36.40337
G1 X96.778 Y110 E36.47344
