;FLAVOR:Marlin
;TIME:1689
;Filament used: 0.94166m
;Layer height: 0.2
;MINX:95.164
;MINY:82.45
;MINZ:0.2
;MAXX:151.402
;MAXY:136.462
;MAXZ:14.075
;Generated with Cura_SteamEngine 4.6.2
M104 S200
M105
M109 S200
M82 ;absolute extrusion mode
G21 ;metric values
G90 ;absolute positioning
M82 ;set extruder to absolute mode
M107 ;start with the fan off
G28 X0 Y0 ;move X/Y to min endstops
G28 Z0 ;move Z to min endstops
G1 Z15.0 F100 ;move the platform down 15mm
G92 E0 ;zero the extruded length
G1 F200 E3 ;extrude 3mm of feed stock
G92 E0 ;zero the extruded length again
G1 F100
G0 Y20 F100
M117 Printing...
G5
G92 E0
G92 E0
G1 F2400 E-6
;LAYER_COUNT:70
;LAYER:0
M106 S255
M204 S3000
M205 X10 Y10
G1 F600 Z0.275
G0 F3000 X143.928 Y83.62 Z0.275
M204 S1800
M205 X8 Y8
;TYPE:SKIRT
G1 F600 Z0.2
G1 F2400 E0
G1 X144.565 Y83.748 E0.03025
G1 X145.181 Y83.952 E0.06047
G1 X145.768 Y84.231 E0.09073
G1 X146.316 Y84.58 E0.12099
G1 X146.911 Y85.084 E0.1573
G1 X147.457 Y85.677 E0.19483
G1 X147.829 Y86.209 E0.22506
G1 X148.133 Y86.784 E0.25534
G1 X148.364 Y87.391 E0.28559
G1 X148.519 Y88.022 E0.31584
G1 X148.595 Y88.667 E0.34608
G1 X148.59 Y90.518 E0.43227
G1 X148.562 Y91.542 E0.47997
G1 X148.567 Y94.606 E0.62265
G1 X148.603 Y96.671 E0.71882
G1 X148.582 Y98.328 E0.79598
G1 X148.582 Y101.079 E0.92408
G1 X148.658 Y103.746 E1.04831
G1 X148.811 Y106.455 E1.17466
G1 X149.036 Y109.104 E1.29845
G1 X149.34 Y111.776 E1.42367
G1 X149.713 Y114.402 E1.54718
G1 X150.068 Y116.513 E1.64685
G1 X150.195 Y117.219 E1.68026
G1 X150.27 Y117.864 E1.71049
G1 X150.266 Y119.684 E1.79524
G1 X150.233 Y120.895 E1.85165
G1 X150.235 Y123.583 E1.97681
G1 X150.274 Y125.052 E2.04524
G1 X150.283 Y125.677 E2.07435
G1 X150.277 Y126.18 E2.09777
G1 X150.229 Y126.827 E2.12798
G1 X150.101 Y127.464 E2.15823
G1 X149.895 Y128.081 E2.18852
G1 X149.616 Y128.667 E2.21874
G1 X149.266 Y129.215 E2.24902
G1 X148.796 Y129.774 E2.28303
G1 X148.205 Y130.329 E2.32078
G1 X147.676 Y130.706 E2.35103
G1 X147.104 Y131.014 E2.38128
G1 X146.499 Y131.251 E2.41154
G1 X145.87 Y131.411 E2.44176
G1 X144.967 Y131.502 E2.48402
G1 X143.985 Y131.517 E2.52975
G1 X142.764 Y131.516 E2.5866
G1 X140.09 Y131.588 E2.71116
G1 X137.431 Y131.734 E2.83516
G1 X134.727 Y131.96 E2.96151
G1 X132.103 Y132.255 E3.08446
G1 X129.427 Y132.631 E3.21029
G1 X126.772 Y133.081 E3.33569
G1 X124.162 Y133.601 E3.45961
G1 X121.591 Y134.189 E3.58241
G1 X118.939 Y134.874 E3.70996
G1 X117.919 Y135.15 E3.75916
G1 X117.282 Y135.28 E3.78943
G1 X116.632 Y135.335 E3.81981
G1 X115.85 Y135.336 E3.85622
G1 X115.332 Y135.303 E3.88039
G1 X112.598 Y134.993 E4.00851
G1 X109.902 Y134.763 E4.1345
G1 X107.262 Y134.612 E4.25763
G1 X104.57 Y134.535 E4.38304
G1 X103.712 Y134.538 E4.42299
G1 X102.305 Y134.525 E4.48851
G1 X101.657 Y134.478 E4.51876
G1 X101.019 Y134.353 E4.54903
G1 X100.402 Y134.15 E4.57928
G1 X99.707 Y133.812 E4.61526
G1 X98.797 Y133.239 E4.66534
G1 X98.016 Y132.527 E4.71455
G1 X97.611 Y132.019 E4.7448
G1 X97.27 Y131.466 E4.77505
G1 X97 Y130.875 E4.80531
G1 X96.805 Y130.255 E4.83557
G1 X96.69 Y129.636 E4.86489
G1 X96.324 Y126.708 E5.00229
G1 X96.283 Y126.06 E5.03252
G1 X96.34 Y125.279 E5.06899
G1 X96.543 Y123.909 E5.13348
G1 X96.904 Y121.25 E5.25843
G1 X97.192 Y118.578 E5.38357
G1 X97.404 Y115.887 E5.50926
G1 X97.537 Y113.251 E5.63216
G1 X97.598 Y110.545 E5.75819
G1 X97.581 Y107.878 E5.88238
G1 X97.489 Y105.203 E6.00702
G1 X97.321 Y102.528 E6.13182
G1 X97.084 Y99.909 E6.25427
G1 X96.841 Y97.579 E6.36335
G1 X96.782 Y97.076 E6.38694
G1 X96.652 Y95.831 E6.44522
G1 X96.624 Y95.182 E6.47547
G1 X96.676 Y94.535 E6.5057
G1 X96.845 Y93.77 E6.54218
G1 X96.991 Y93.282 E6.56589
G1 X97.215 Y92.672 E6.59615
G1 X97.512 Y92.094 E6.62641
G1 X97.878 Y91.558 E6.65663
G1 X98.307 Y91.07 E6.68689
G1 X98.793 Y90.639 E6.71714
G1 X99.514 Y90.163 E6.75737
G1 X100.248 Y89.761 E6.79633
G1 X103.526 Y87.912 E6.97158
G1 X104.148 Y87.6 E7.00398
G1 X104.75 Y87.354 E7.03426
G1 X105.376 Y87.183 E7.06448
G1 X105.978 Y87.095 E7.09281
G1 X108.521 Y86.869 E7.21169
G1 X111.152 Y86.562 E7.33503
G1 X114.174 Y86.117 E7.47727
G1 X115.368 Y85.922 E7.5336
G1 X116.127 Y85.854 E7.56908
G1 X116.636 Y85.845 E7.59279
G1 X119.589 Y85.846 E7.73029
G1 X122.259 Y85.769 E7.85467
G1 X124.953 Y85.617 E7.98031
G1 X127.605 Y85.39 E8.10425
G1 X131.047 Y84.985 E8.26563
G1 X132.044 Y84.85 E8.31248
G1 X135.377 Y84.539 E8.46835
G1 X138.037 Y84.213 E8.59314
G1 X140.526 Y83.841 E8.71033
G1 X141.718 Y83.646 E8.76657
G1 X142.483 Y83.578 E8.80233
G1 X143.127 Y83.569 E8.83232
G1 X143.928 Y83.62 E8.8697
M204 S3000
M205 X10 Y10
G0 F3000 X143.969 Y83.06
M204 S1800
M205 X8 Y8
G1 F2400 X144.64 Y83.189 E8.90151
G1 X145.291 Y83.394 E8.93329
G1 X145.915 Y83.674 E8.96514
G1 X146.501 Y84.026 E8.99697
G1 X147.042 Y84.443 E9.02878
G1 X147.415 Y84.794 E9.05263
G1 X147.874 Y85.301 E9.08447
G1 X148.27 Y85.857 E9.11626
G1 X148.599 Y86.456 E9.14808
G1 X148.855 Y87.09 E9.17992
G1 X149.036 Y87.749 E9.21174
G1 X149.138 Y88.424 E9.24353
G1 X149.163 Y89.011 E9.27089
G1 X149.15 Y90.523 E9.34129
G1 X149.122 Y91.557 E9.38946
G1 X149.127 Y94.595 E9.53092
G1 X149.163 Y96.661 E9.62714
G1 X149.142 Y98.328 E9.70477
G1 X149.142 Y101.063 E9.83212
G1 X149.218 Y103.735 E9.95659
G1 X149.369 Y106.411 E10.08139
G1 X149.594 Y109.059 E10.20514
G1 X149.891 Y111.672 E10.32759
G1 X150.272 Y114.348 E10.45346
G1 X150.619 Y116.413 E10.55096
G1 X150.746 Y117.12 E10.58441
G1 X150.827 Y117.798 E10.6162
G1 X150.826 Y119.688 E10.70421
G1 X150.793 Y120.91 E10.76113
G1 X150.795 Y123.567 E10.88485
G1 X150.834 Y125.037 E10.95333
G1 X150.843 Y125.67 E10.9828
G1 X150.837 Y126.187 E11.00688
G1 X150.788 Y126.869 E11.03872
G1 X150.659 Y127.54 E11.07053
G1 X150.453 Y128.191 E11.10233
G1 X150.173 Y128.814 E11.13413
G1 X149.821 Y129.4 E11.16596
G1 X149.199 Y130.163 E11.2118
G1 X148.585 Y130.742 E11.2511
G1 X148.032 Y131.143 E11.28291
G1 X147.435 Y131.477 E11.31476
G1 X146.804 Y131.739 E11.34658
G1 X146.147 Y131.925 E11.37837
G1 X145.472 Y132.033 E11.4102
G1 X143.993 Y132.077 E11.4791
G1 X142.778 Y132.076 E11.53568
G1 X140.101 Y132.148 E11.66037
G1 X137.473 Y132.292 E11.78293
G1 X134.802 Y132.516 E11.90774
G1 X132.134 Y132.815 E12.03275
G1 X129.529 Y133.181 E12.15524
G1 X126.866 Y133.633 E12.28101
G1 X124.294 Y134.146 E12.40313
G1 X121.712 Y134.736 E12.52646
G1 X119.079 Y135.416 E12.65309
G1 X118.064 Y135.691 E12.70205
G1 X117.395 Y135.83 E12.73387
G1 X116.877 Y135.882 E12.75811
G1 X116.25 Y135.902 E12.78732
G1 X115.269 Y135.86 E12.83305
G1 X112.526 Y135.548 E12.96159
G1 X109.89 Y135.324 E13.08478
G1 X107.216 Y135.172 E13.20949
G1 X104.555 Y135.095 E13.33345
G1 X103.714 Y135.098 E13.37261
G1 X102.299 Y135.085 E13.4385
G1 X101.618 Y135.038 E13.47029
G1 X100.946 Y134.912 E13.50213
G1 X100.294 Y134.709 E13.53392
G1 X99.426 Y134.297 E13.57866
G1 X98.487 Y133.706 E13.63033
G1 X97.625 Y132.929 E13.68436
G1 X97.194 Y132.399 E13.71617
G1 X96.827 Y131.823 E13.74798
G1 X96.53 Y131.207 E13.77982
G1 X96.307 Y130.561 E13.81164
G1 X96.134 Y129.705 E13.85231
G1 X95.768 Y126.777 E13.98971
G1 X95.723 Y126.096 E14.02149
G1 X95.786 Y125.197 E14.06345
G1 X95.981 Y123.878 E14.12554
G1 X96.353 Y121.148 E14.25383
G1 X96.633 Y118.54 E14.37597
G1 X96.842 Y115.888 E14.49984
G1 X96.978 Y113.21 E14.6247
G1 X97.037 Y110.536 E14.74924
G1 X97.021 Y107.865 E14.87362
G1 X96.931 Y105.258 E14.99508
G1 X96.761 Y102.54 E15.12189
G1 X96.534 Y100.038 E15.23887
G1 X96.284 Y97.637 E15.35128
G1 X96.225 Y97.135 E15.37482
G1 X96.095 Y95.89 E15.4331
G1 X96.063 Y95.207 E15.46494
G1 X96.112 Y94.526 E15.49673
G1 X96.308 Y93.609 E15.5404
G1 X96.454 Y93.121 E15.56412
G1 X96.688 Y92.479 E15.59593
G1 X96.995 Y91.869 E15.62773
G1 X97.371 Y91.299 E15.65953
G1 X97.812 Y90.776 E15.69138
G1 X98.31 Y90.309 E15.72317
G1 X98.86 Y89.903 E15.75501
G1 X103.25 Y87.425 E15.98974
G1 X103.905 Y87.095 E16.02389
G1 X104.536 Y86.835 E16.05567
G1 X105.194 Y86.65 E16.0875
G1 X105.928 Y86.537 E16.12208
G1 X108.444 Y86.314 E16.23969
G1 X111.108 Y86.002 E16.36459
G1 X114.064 Y85.567 E16.50371
G1 X115.278 Y85.369 E16.56099
G1 X116.117 Y85.294 E16.60021
G1 X116.626 Y85.285 E16.62392
G1 X119.573 Y85.286 E16.76114
G1 X122.248 Y85.209 E16.88575
G1 X124.909 Y85.058 E17.00986
G1 X127.554 Y84.832 E17.13347
G1 X130.962 Y84.431 E17.29326
G1 X131.969 Y84.295 E17.34057
G1 X135.327 Y83.98 E17.49762
G1 X137.96 Y83.658 E17.62114
G1 X140.432 Y83.288 E17.73753
G1 X141.628 Y83.093 E17.79395
G1 X142.474 Y83.018 E17.8335
G1 X143.134 Y83.009 E17.86424
G1 X143.969 Y83.06 E17.90319
M204 S3000
M205 X10 Y10
G0 F3000 X140.339 Y82.737
M204 S1800
M205 X8 Y8
G1 F2400 X141.538 Y82.541 E17.95976
G1 X142.465 Y82.458 E18.0031
G1 X143.142 Y82.45 E18.03462
G1 X144.008 Y82.501 E18.07502
G1 X144.712 Y82.629 E18.10834
G1 X145.397 Y82.836 E18.14166
G1 X146.054 Y83.117 E18.17493
G1 X146.676 Y83.47 E18.20823
G1 X147.255 Y83.891 E18.24157
G1 X147.696 Y84.285 E18.26911
G1 X148.289 Y84.924 E18.3097
G1 X148.709 Y85.503 E18.34301
G1 X149.061 Y86.126 E18.37632
G1 X149.341 Y86.784 E18.40962
G1 X149.547 Y87.469 E18.44293
G1 X149.674 Y88.173 E18.47624
G1 X149.723 Y89.016 E18.51556
G1 X149.71 Y90.528 E18.58597
G1 X149.682 Y91.539 E18.63306
G1 X149.687 Y94.584 E18.77485
G1 X149.723 Y96.651 E18.87111
G1 X149.702 Y98.328 E18.94921
G1 X149.702 Y101.082 E19.07745
G1 X149.776 Y103.687 E19.19879
G1 X149.928 Y106.367 E19.32379
G1 X150.15 Y108.986 E19.44618
G1 X150.452 Y111.64 E19.57055
G1 X150.823 Y114.25 E19.69331
G1 X151.17 Y116.313 E19.79072
G1 X151.297 Y117.021 E19.82421
G1 X151.384 Y117.731 E19.85752
G1 X151.386 Y119.693 E19.94888
G1 X151.353 Y120.891 E20.00469
G1 X151.355 Y123.552 E20.12859
G1 X151.394 Y125.022 E20.19707
G1 X151.402 Y125.663 E20.22692
G1 X151.397 Y126.195 E20.25169
G1 X151.348 Y126.909 E20.28501
G1 X151.218 Y127.612 E20.3183
G1 X151.012 Y128.297 E20.35161
G1 X150.73 Y128.954 E20.3849
G1 X150.376 Y129.576 E20.41823
G1 X149.956 Y130.155 E20.45154
G1 X149.602 Y130.552 E20.4763
G1 X148.965 Y131.154 E20.51712
G1 X148.39 Y131.579 E20.55041
G1 X147.77 Y131.936 E20.58372
G1 X147.115 Y132.222 E20.617
G1 X146.431 Y132.434 E20.65035
G1 X145.729 Y132.567 E20.68362
G1 X144.984 Y132.622 E20.7184
G1 X144.002 Y132.637 E20.76413
G1 X142.792 Y132.636 E20.82048
G1 X140.111 Y132.708 E20.94536
G1 X137.516 Y132.851 E21.06638
G1 X134.838 Y133.075 E21.19151
G1 X132.24 Y133.366 E21.31324
G1 X129.598 Y133.738 E21.43748
G1 X127 Y134.179 E21.56018
G1 X124.384 Y134.7 E21.68439
G1 X121.832 Y135.283 E21.80628
G1 X119.255 Y135.949 E21.93022
G1 X118.209 Y136.232 E21.98068
G1 X117.509 Y136.379 E22.01398
G1 X116.908 Y136.441 E22.04211
G1 X116.242 Y136.462 E22.07314
G1 X115.206 Y136.416 E22.12143
G1 X112.485 Y136.107 E22.24895
G1 X109.848 Y135.882 E22.37218
G1 X107.168 Y135.73 E22.49717
G1 X104.572 Y135.655 E22.61811
G1 X103.715 Y135.658 E22.65801
G1 X102.294 Y135.645 E22.72418
G1 X101.58 Y135.598 E22.7575
G1 X100.876 Y135.472 E22.7908
G1 X100.191 Y135.268 E22.82408
G1 X99.532 Y134.988 E22.85742
G1 X98.776 Y134.567 E22.89772
G1 X98.179 Y134.174 E22.931
G1 X97.75 Y133.828 E22.95666
G1 X97.235 Y133.332 E22.98996
G1 X96.779 Y132.781 E23.02326
G1 X96.387 Y132.183 E23.05655
G1 X96.065 Y131.544 E23.08987
G1 X95.815 Y130.874 E23.12317
G1 X95.642 Y130.18 E23.15648
G1 X95.212 Y126.847 E23.31296
G1 X95.164 Y126.133 E23.34628
G1 X95.232 Y125.115 E23.39379
G1 X95.427 Y123.8 E23.45569
G1 X95.796 Y121.087 E23.58318
G1 X96.077 Y118.471 E23.7057
G1 X96.284 Y115.852 E23.82803
G1 X96.419 Y113.168 E23.95316
G1 X96.478 Y110.562 E24.07454
G1 X96.461 Y107.889 E24.19901
G1 X96.37 Y105.24 E24.32243
G1 X96.206 Y102.627 E24.44434
G1 X95.977 Y100.096 E24.56268
G1 X95.727 Y97.695 E24.67508
G1 X95.668 Y97.193 E24.69862
G1 X95.538 Y95.948 E24.75691
G1 X95.503 Y95.233 E24.79024
G1 X95.549 Y94.519 E24.82356
G1 X95.674 Y93.815 E24.85685
G1 X95.918 Y92.961 E24.89821
G1 X96.161 Y92.288 E24.93153
G1 X96.477 Y91.646 E24.96485
G1 X96.863 Y91.044 E24.99814
G1 X97.314 Y90.489 E25.03144
G1 X97.824 Y89.988 E25.06473
G1 X98.387 Y89.546 E25.09806
G1 X98.976 Y89.181 E25.13033
G1 X99.69 Y88.79 E25.16823
G1 X102.975 Y86.937 E25.34385
G1 X103.661 Y86.591 E25.37963
G1 X104.322 Y86.317 E25.41295
G1 X105.009 Y86.117 E25.44627
G1 X105.879 Y85.979 E25.48728
G1 X108.4 Y85.755 E25.60514
G1 X111.027 Y85.448 E25.72829
G1 X114.025 Y85.007 E25.86939
G1 X115.188 Y84.817 E25.92427
G1 X116.107 Y84.734 E25.96723
G1 X116.616 Y84.725 E25.99094
G1 X119.592 Y84.726 E26.12951
G1 X122.2 Y84.651 E26.251
G1 X124.864 Y84.5 E26.37525
G1 X127.502 Y84.275 E26.49853
G1 X130.884 Y83.877 E26.6571
G1 X131.894 Y83.74 E26.70456
G1 X135.242 Y83.426 E26.86114
G1 X137.92 Y83.099 E26.98676
G1 X140.339 Y82.737 E27.10066
M204 S3000
M205 X10 Y10
G0 F3000 X142.789 Y89.121
M204 S1800
M205 X8 Y8
;TYPE:SUPPORT
G1 F1500 X143.053 Y89.121 E27.11295
G1 X143.053 Y89.38 E27.12501
G1 X142.754 Y89.503 E27.14006
G1 X142.664 Y89.413 E27.14599
G1 X142.789 Y89.121 E27.16078
M204 S3000
M205 X10 Y10
G0 F3000 X142.759 Y96.371
M204 S1800
M205 X8 Y8
G1 F1500 X143.052 Y96.496 E27.17561
G1 X143.052 Y96.76 E27.18791
G1 X142.793 Y96.76 E27.19997
G1 X142.672 Y96.462 E27.21494
G1 X142.67 Y96.46 E27.21508
G1 X142.759 Y96.371 E27.22094
M204 S3000
M205 X10 Y10
G0 F3000 X144.467 Y118.314
M204 S1800
M205 X8 Y8
G1 F1500 X144.728 Y118.314 E27.23309
G1 X144.728 Y118.573 E27.24515
G1 X144.428 Y118.696 E27.26025
G1 X144.343 Y118.611 E27.26584
G1 X144.467 Y118.314 E27.28083
M204 S3000
M205 X10 Y10
G0 F3000 X144.428 Y125.571
M204 S1800
M205 X8 Y8
G1 F1500 X144.728 Y125.694 E27.29593
G1 X144.728 Y125.953 E27.30799
G1 X144.469 Y125.953 E27.32005
G1 X144.348 Y125.655 E27.33503
G1 X144.346 Y125.653 E27.33516
G1 X144.428 Y125.571 E27.34056
M204 S3000
M205 X10 Y10
G1 F2400 E21.34056
G0 F3000 X134.345 Y125.664
G0 X116.366 Y122.407
M204 S1800
M205 X8 Y8
G1 F2400 E27.34056
G1 F1500 X116.067 Y122.53 E27.35561
G1 X115.977 Y122.44 E27.36154
G1 X116.102 Y122.148 E27.37633
G1 X116.366 Y122.148 E27.38862
G1 X116.366 Y122.407 E27.40068
M204 S3000
M205 X10 Y10
G0 F3000 X116.073 Y129.398
M204 S1800
M205 X8 Y8
G1 F1500 X116.365 Y129.523 E27.41547
G1 X116.365 Y129.787 E27.42776
G1 X116.106 Y129.787 E27.43983
G1 X115.985 Y129.49 E27.45476
G1 X115.983 Y129.488 E27.45489
G1 X116.073 Y129.398 E27.46082
M204 S3000
M205 X10 Y10
G0 F3000 X116.447 Y99.036
M204 S1800
M205 X8 Y8
G1 F1500 X116.326 Y98.738 E27.47579
G1 X116.324 Y98.736 E27.47592
G1 X116.413 Y98.647 E27.48179
G1 X116.706 Y98.772 E27.49662
G1 X116.706 Y99.036 E27.50891
G1 X116.447 Y99.036 E27.52097
M204 S3000
M205 X10 Y10
G0 F3000 X116.407 Y91.779
M204 S1800
M205 X8 Y8
G1 F1500 X116.318 Y91.69 E27.52683
G1 X116.443 Y91.397 E27.54167
G1 X116.707 Y91.397 E27.55396
G1 X116.707 Y91.656 E27.56602
G1 X116.407 Y91.779 E27.58112
M204 S3000
M205 X10 Y10
G1 F2400 E21.58112
;MESH:boat.STL
G0 F3000 X114.901 Y93.203
G0 X114.075 Y93.749
M204 S1800
M205 X8 Y8
;TYPE:WALL-INNER
G1 F2400 E27.58112
G1 F1500 X114.355 Y93.749 E27.59415
G1 X114.355 Y94.029 E27.60259
G1 X114.354 Y96.684 E27.72622
G1 X106.844 Y96.684 E28.07592
G1 X106.619 Y96.549 E28.08814
G1 X106.237 Y96.247 E28.11081
G1 X105.903 Y95.914 E28.13277
G1 X105.619 Y95.555 E28.15409
G1 X105.374 Y95.163 E28.17561
G1 X105.473 Y94.971 E28.18567
G1 X105.695 Y94.641 E28.20419
G1 X105.951 Y94.349 E28.22227
G1 X106.24 Y94.083 E28.24056
G1 X106.581 Y93.842 E28.26001
G1 X106.755 Y93.748 E28.26922
G1 X114.075 Y93.749 E28.61007
M204 S3000
M205 X10 Y10
G0 F3000 X114.635 Y93.189
M204 S1800
M205 X8 Y8
G1 F1500 X114.915 Y93.189 E28.6231
G1 X114.915 Y93.469 E28.63154
G1 X114.914 Y97.244 E28.80732
G1 X106.689 Y97.244 E29.19031
G1 X106.301 Y97.011 E29.21139
G1 X105.862 Y96.664 E29.23744
G1 X105.483 Y96.286 E29.26237
G1 X105.16 Y95.878 E29.2866
G1 X104.851 Y95.384 E29.31373
G1 X104.752 Y95.174 E29.32454
G1 X104.788 Y95.078 E29.32932
G1 X104.993 Y94.682 E29.35008
G1 X105.253 Y94.295 E29.37179
G1 X105.545 Y93.961 E29.39245
G1 X105.89 Y93.645 E29.41423
G1 X106.282 Y93.367 E29.43661
G1 X106.615 Y93.188 E29.45422
G1 X114.635 Y93.189 E29.82766
M204 S3000
M205 X10 Y10
G0 F3000 X115.195 Y92.629
M204 S1800
M205 X8 Y8
;TYPE:WALL-OUTER
G1 F1500 X115.475 Y92.629 E29.8407
G1 X115.475 Y92.909 E29.84914
G1 X115.474 Y97.804 E30.07707
G1 X106.535 Y97.804 E30.49331
