;FLAVOR:Marlin
;TIME:5603
;Filament used: 1.14913m
;Layer height: 0.1
;MINX:69.766
;MINY:89.709
;MINZ:0.2
;MAXX:130.294
;MAXY:130.294
;MAXZ:29.6
;Generated with Cura_SteamEngine 4.7.1
M82 ;absolute extrusion mode
;Sliced at: Tue 06-10-2020 12:50:25
;Basic settings: Layer height: 0.1 Walls: 0.8 Fill: 30
G21 ;metric values
G90 ;absolute positioning
M82 ;set extruder to absolute mode
M107 ;start with the fan off
M117 Start heating ...
M104 S190
M117 Homing X/Y ...
G28 X0 Y0 ;move X/Y to min endstops
M117 Homing Z ...
G28 Z0 ;move Z to min endstops
G1 Z15.0 F120 ;move the platform down 15mm
M117 Heating ...
M109 S190
M117 Start cleaning ...
G92 E0 ;zero the extruded length
G1 F200 E10 ;extrude 10mm of feed stock
G92 E0 ;zero the extruded length again
M117 Intro line ...
G1 Z2.0 F3000 ; Move Z Axis up little to prevent scratching of Heat Bed
G1 X0.1 Y20 Z0.1 F5000.0 ; Move to start position
G1 X0.1 Y200.0 Z0.1 F1500.0 E15 ; Draw the first line
G1 X0.4 Y200.0 Z0.1 F5000.0 ; Move to side a little
G1 X0.4 Y20 Z0.3 F1500.0 E30 ; Draw the second line
G92 E0 ; Reset Extruder
G1 E-1 F500 ; Retract filiment by 1 mm
G1 Z2.0 F3000 ; Move Z Axis up little to prevent scratching of Heat Bed
G1 X5 Y20 Z0.3 F120 ; Move over to prevent blob squish
G1 F120
G92 E0 ; Reset Extruder
M117 Printing...

G92 E0
G92 E0
G1 F1800 E-5
;LAYER_COUNT:296
;LAYER:0
M107
G0 F3600 X73.644 Y100.002 Z0.2
;TYPE:SKIRT
G1 F1800 E0
G1 F1350 X74.535 Y99.354 E0.03664
G1 X75.265 Y98.909 E0.06508
G1 X75.707 Y98.647 E0.08217
G1 X76.068 Y98.407 E0.09659
G1 X76.675 Y98.041 E0.12016
G1 X77.14 Y97.789 E0.13775
G1 X78.157 Y97.329 E0.17488
G1 X78.626 Y97.156 E0.1915
G1 X79.379 Y96.921 E0.21774
G1 X80.153 Y96.763 E0.24401
G1 X80.939 Y96.684 E0.27029
G1 X81.72 Y96.684 E0.29626
G1 X81.996 Y96.698 E0.30546
G1 X82.782 Y96.778 E0.33173
G1 X83.555 Y96.937 E0.35798
G1 X84.309 Y97.173 E0.38426
G1 X84.774 Y97.363 E0.40097
G1 X85.158 Y97.534 E0.41495
G1 X85.862 Y97.891 E0.4412
G1 X86.409 Y98.235 E0.46269
G1 X86.701 Y98.436 E0.47448
G1 X87.14 Y98.714 E0.49177
G1 X87.785 Y99.169 E0.51802
G1 X88.381 Y99.688 E0.54431
G1 X88.921 Y100.264 E0.57057
G1 X89.24 Y100.681 E0.58803
G1 X89.877 Y101.167 E0.61468
G1 X90.544 Y101.803 E0.64533
G1 X91.11 Y102.442 E0.67372
G1 X91.336 Y101.872 E0.69412
G1 X91.61 Y101.247 E0.71681
G1 X91.98 Y100.512 E0.74418
G1 X92.583 Y99.461 E0.78448
G1 X92.808 Y99.062 E0.79972
G1 X93.466 Y98.079 E0.83906
G1 X93.714 Y97.73 E0.8533
G1 X94.163 Y97.11 E0.87876
G1 X94.548 Y96.63 E0.89923
G1 X95.073 Y96.039 E0.92552
G1 X95.655 Y95.505 E0.95179
G1 X95.918 Y95.306 E0.96276
G1 X96.398 Y94.843 E0.98494
G1 X96.841 Y94.464 E1.00433
G1 X97.358 Y94.059 E1.02618
G1 X97.677 Y93.806 E1.03972
G1 X98.596 Y93.124 E1.07778
G1 X99.039 Y92.843 E1.09523
G1 X99.253 Y92.685 E1.10408
G1 X99.891 Y92.261 E1.12956
G1 X100.609 Y91.879 E1.15661
G1 X101.197 Y91.605 E1.17818
G1 X101.483 Y91.479 E1.18858
G1 X102.699 Y90.971 E1.23241
G1 X103.235 Y90.758 E1.25159
G1 X104.046 Y90.487 E1.28003
G1 X104.809 Y90.315 E1.30605
G1 X105.346 Y90.201 E1.32431
G1 X106.383 Y89.993 E1.35948
G1 X106.701 Y89.935 E1.37024
G1 X107.477 Y89.793 E1.39647
G1 X108.124 Y89.732 E1.41809
G1 X108.709 Y89.71 E1.43756
G1 X110.399 Y89.709 E1.49377
G1 X111.033 Y89.718 E1.51486
G1 X111.821 Y89.77 E1.54112
G1 X112.466 Y89.874 E1.56285
G1 X113.047 Y89.952 E1.58235
G1 X113.564 Y90.024 E1.59971
G1 X114.34 Y90.172 E1.62599
G1 X114.874 Y90.322 E1.64444
G1 X114.962 Y90.338 E1.64741
G1 X115.73 Y90.519 E1.67366
G1 X116.376 Y90.736 E1.69632
G1 X116.873 Y90.928 E1.71404
G1 X117.35 Y91.11 E1.73102
G1 X117.903 Y91.338 E1.75092
G1 X118.202 Y91.447 E1.7615
G1 X118.929 Y91.755 E1.78776
G1 X119.728 Y92.202 E1.81821
G1 X120.319 Y92.558 E1.84116
G1 X120.529 Y92.682 E1.84927
G1 X120.997 Y92.967 E1.8675
G1 X121.945 Y93.647 E1.9063
G1 X122.513 Y94.042 E1.92931
G1 X123.223 Y94.644 E1.96027
G1 X123.655 Y95.057 E1.98015
G1 X124.279 Y95.651 E2.00881
G1 X124.864 Y96.239 E2.03639
G1 X125.247 Y96.668 E2.05552
G1 X125.645 Y97.153 E2.07639
G1 X126.158 Y97.812 E2.10416
G1 X126.777 Y98.704 E2.14028
G1 X127.147 Y99.254 E2.16232
G1 X127.393 Y99.623 E2.17707
G1 X127.915 Y100.534 E2.21199
G1 X128.199 Y101.117 E2.23356
G1 X128.359 Y101.467 E2.24636
G1 X128.784 Y102.462 E2.28235
G1 X128.974 Y102.895 E2.29808
G1 X129.312 Y103.821 E2.33086
G1 X129.454 Y104.303 E2.34758
G1 X129.684 Y105.341 E2.38294
G1 X129.713 Y105.48 E2.38766
G1 X129.878 Y106.236 E2.4134
G1 X130.028 Y107.058 E2.44119
G1 X130.126 Y107.699 E2.46276
G1 X130.182 Y108.206 E2.47972
G1 X130.228 Y108.84 E2.50086
G1 X130.24 Y109.255 E2.51467
G1 X130.241 Y109.769 E2.53177
G1 X130.264 Y110.036 E2.54068
G1 X130.294 Y110.739 E2.56408
G1 X130.225 Y111.778 E2.59872
G1 X130.148 Y112.351 E2.61795
G1 X130.079 Y112.804 E2.63319
G1 X129.994 Y113.589 E2.65945
G1 X129.864 Y114.233 E2.6813
G1 X129.657 Y115.107 E2.71117
G1 X129.558 Y115.495 E2.72449
G1 X129.401 Y116.054 E2.7438
G1 X129.191 Y116.696 E2.76627
G1 X128.779 Y117.789 E2.80512
G1 X128.685 Y118.027 E2.81363
G1 X128.473 Y118.538 E2.83203
G1 X128.007 Y119.477 E2.8669
G1 X127.571 Y120.208 E2.89521
G1 X127.166 Y120.834 E2.92001
G1 X126.744 Y121.446 E2.94473
G1 X126.086 Y122.416 E2.98372
G1 X125.61 Y123.046 E3.00998
G1 X125.138 Y123.561 E3.03321
G1 X124.74 Y123.975 E3.05231
G1 X124.289 Y124.497 E3.07526
G1 X123.675 Y125.084 E3.10351
G1 X123.157 Y125.528 E3.1262
G1 X122.443 Y126.09 E3.15642
G1 X122.098 Y126.364 E3.17108
G1 X121.455 Y126.822 E3.19734
G1 X121.052 Y127.064 E3.21297
G1 X120.566 Y127.335 E3.23148
G1 X120.402 Y127.448 E3.2381
G1 X119.889 Y127.773 E3.2583
G1 X119.407 Y128.052 E3.27682
G1 X118.639 Y128.441 E3.30546
G1 X118.1 Y128.678 E3.32504
G1 X117.921 Y128.754 E3.33151
G1 X116.883 Y129.18 E3.36883
G1 X116.139 Y129.442 E3.39506
G1 X115.309 Y129.64 E3.42344
G1 X114.709 Y129.763 E3.44381
G1 X113.914 Y129.934 E3.47086
G1 X113.279 Y130.053 E3.49235
G1 X112.447 Y130.184 E3.52036
G1 X111.814 Y130.225 E3.54146
G1 X111.076 Y130.244 E3.56601
G1 X110.372 Y130.294 E3.58949
G1 X109.791 Y130.291 E3.60881
G1 X108.816 Y130.277 E3.64124
G1 X108.338 Y130.24 E3.65719
G1 X107.581 Y130.144 E3.68257
G1 X107.142 Y130.085 E3.6973
G1 X106.086 Y129.916 E3.73287
G1 X105.584 Y129.8 E3.75001
G1 X104.941 Y129.642 E3.77203
G1 X104.091 Y129.42 E3.80125
G1 X103.113 Y129.076 E3.83573
G1 X102.377 Y128.776 E3.86217
G1 X102.145 Y128.681 E3.8705
G1 X101.668 Y128.477 E3.88776
G1 X100.956 Y128.143 E3.91392
G1 X100.162 Y127.702 E3.94413
G1 X99.977 Y127.597 E3.9512
G1 X99.287 Y127.213 E3.97747
G1 X98.691 Y126.801 E4.00156
G1 X97.967 Y126.259 E4.03164
G1 X97.619 Y126.017 E4.04574
G1 X96.987 Y125.527 E4.07234
G1 X96.701 Y125.281 E4.08489
G1 X95.933 Y124.523 E4.12078
G1 X95.057 Y123.613 E4.16279
G1 X94.607 Y123.096 E4.18559
G1 X94.219 Y122.636 E4.2056
G1 X93.851 Y122.164 E4.22551
G1 X93.663 Y121.912 E4.23596
G1 X93.344 Y121.467 E4.25418
G1 X93.057 Y121.039 E4.27131
G1 X92.948 Y120.881 E4.2777
G1 X92.298 Y119.918 E4.31634
G1 X92.286 Y119.897 E4.31715
G1 X91.94 Y119.216 E4.34255
G1 X91.687 Y118.652 E4.36311
G1 X91.426 Y118.05 E4.38494
G1 X90.919 Y116.839 E4.4286
G1 X90.651 Y116.096 E4.45487
G1 X90.488 Y115.469 E4.47642
G1 X90.466 Y115.506 E4.47785
G1 X90.029 Y116.163 E4.5041
G1 X89.527 Y116.773 E4.53037
G1 X88.967 Y117.33 E4.55664
G1 X88.353 Y117.826 E4.58289
G1 X87.692 Y118.258 E4.60916
G1 X87.209 Y118.518 E4.6274
G1 X86.314 Y118.959 E4.66059
G1 X85.588 Y119.271 E4.68687
G1 X84.91 Y119.489 E4.71056
G1 X84.424 Y119.621 E4.72731
G1 X83.695 Y119.794 E4.75223
G1 X82.917 Y119.929 E4.77849
G1 X82.068 Y119.994 E4.80681
G1 X81.701 Y120.03 E4.81908
G1 X80.912 Y120.066 E4.84534
G1 X80.124 Y120.022 E4.87159
G1 X79.02 Y119.823 E4.90891
G1 X78.515 Y119.694 E4.92624
G1 X77.415 Y119.324 E4.96484
G1 X76.943 Y119.125 E4.98188
G1 X76.232 Y118.782 E5.00813
G1 X75.473 Y118.309 E5.03788
G1 X74.823 Y117.822 E5.06489
G1 X74.302 Y117.504 E5.0852
G1 X73.652 Y117.01 E5.11235
G1 X73.431 Y116.823 E5.12198
G1 X72.854 Y116.283 E5.14826
G1 X72.336 Y115.688 E5.1745
G1 X71.88 Y115.043 E5.20077
G1 X71.492 Y114.356 E5.22702
G1 X71.211 Y113.715 E5.25029
G1 X70.9 Y113.212 E5.26996
G1 X70.484 Y112.33 E5.3024
G1 X70.315 Y111.905 E5.31761
G1 X70.061 Y111.158 E5.34385
G1 X69.883 Y110.388 E5.37014
G1 X69.785 Y109.605 E5.39638
G1 X69.766 Y108.815 E5.42267
G1 X69.827 Y108.028 E5.44892
G1 X69.967 Y107.251 E5.47518
G1 X70.13 Y106.609 E5.49721
G1 X70.473 Y105.507 E5.5356
G1 X70.683 Y104.975 E5.55462
G1 X70.898 Y104.497 E5.57205
G1 X70.909 Y104.448 E5.57372
G1 X71.127 Y103.689 E5.59999
G1 X71.42 Y102.956 E5.62624
G1 X71.93 Y102.023 E5.66161
G1 X72.087 Y101.777 E5.67132
G1 X72.545 Y101.133 E5.6976
G1 X73.066 Y100.54 E5.72385
G1 X73.644 Y100.002 E5.75012
G0 F3600 X73.947 Y100.27
G1 F1350 X74.747 Y99.694 E5.78291
G1 X75.46 Y99.258 E5.8107
G1 X76.289 Y98.74 E5.84321
G1 X76.865 Y98.393 E5.86558
G1 X77.33 Y98.141 E5.88317
G1 X78.295 Y97.704 E5.91841
G1 X78.764 Y97.531 E5.93503
G1 X79.499 Y97.303 E5.96063
G1 X80.253 Y97.152 E5.9862
G1 X81.019 Y97.08 E6.01179
G1 X81.7 Y97.084 E6.03444
G1 X81.976 Y97.098 E6.04363
G1 X82.741 Y97.176 E6.06921
G1 X83.494 Y97.334 E6.0948
G1 X84.226 Y97.569 E6.12037
G1 X84.995 Y97.899 E6.1482
G1 X85.681 Y98.248 E6.1738
G1 X86.182 Y98.565 E6.19352
G1 X86.47 Y98.763 E6.20515
G1 X86.926 Y99.052 E6.2231
G1 X87.554 Y99.496 E6.24868
G1 X88.132 Y100.004 E6.27428
G1 X88.654 Y100.568 E6.29984
G1 X88.964 Y100.982 E6.31704
G1 X89.04 Y101.029 E6.32001
G1 X89.649 Y101.498 E6.34558
G1 X90.251 Y102.076 E6.37333
G1 X90.548 Y102.395 E6.38783
G1 X91.042 Y102.984 E6.4134
G1 X91.228 Y103.26 E6.42447
G1 X91.546 Y102.42 E6.45434
G1 X91.703 Y102.033 E6.46823
G1 X91.977 Y101.408 E6.49093
G1 X92.328 Y100.71 E6.51692
G1 X92.686 Y100.082 E6.54096
G1 X92.945 Y99.633 E6.5582
G1 X93.156 Y99.259 E6.57248
G1 X93.78 Y98.326 E6.60981
G1 X94.049 Y97.948 E6.62525
G1 X94.475 Y97.36 E6.6494
G1 X94.86 Y96.88 E6.66986
G1 X95.372 Y96.306 E6.69544
G1 X95.941 Y95.788 E6.72104
G1 X96.18 Y95.607 E6.73101
G1 X96.658 Y95.147 E6.75307
G1 X97.101 Y94.768 E6.77246
G1 X97.591 Y94.383 E6.79319
G1 X97.939 Y94.109 E6.80792
G1 X98.81 Y93.462 E6.84401
G1 X99.269 Y93.171 E6.86209
G1 X99.491 Y93.007 E6.87127
G1 X100.097 Y92.604 E6.89547
G1 X100.778 Y92.241 E6.92114
G1 X101.366 Y91.967 E6.94271
G1 X101.637 Y91.848 E6.95256
G1 X102.847 Y91.343 E6.99617
G1 X103.383 Y91.13 E7.01535
G1 X104.153 Y90.872 E7.04236
G1 X104.877 Y90.709 E7.06704
G1 X105.451 Y90.587 E7.08656
G1 X106.435 Y90.39 E7.11994
G1 X106.792 Y90.324 E7.13201
G1 X107.93 Y90.148 E7.17031
G1 X108.154 Y90.131 E7.17779
G1 X108.71 Y90.11 E7.19629
G1 X110.4 Y90.109 E7.2525
G1 X111.027 Y90.118 E7.27336
G1 X111.794 Y90.17 E7.29893
G1 X112.386 Y90.266 E7.31887
G1 X112.992 Y90.348 E7.33921
G1 X113.509 Y90.42 E7.35657
G1 X114.264 Y90.565 E7.38214
G1 X114.774 Y90.711 E7.39979
G1 X114.89 Y90.732 E7.40371
G1 X115.638 Y90.908 E7.42927
G1 X116.232 Y91.109 E7.45012
G1 X117.208 Y91.484 E7.4849
G1 X117.766 Y91.714 E7.50497
G1 X118.065 Y91.823 E7.51556
G1 X118.773 Y92.124 E7.54115
G1 X119.513 Y92.539 E7.56937
G1 X120.121 Y92.906 E7.59299
G1 X120.321 Y93.024 E7.60071
G1 X120.789 Y93.309 E7.61893
G1 X121.689 Y93.954 E7.65576
G1 X121.819 Y94.046 E7.66106
G1 X122.273 Y94.362 E7.67946
G1 X122.947 Y94.933 E7.70884
G1 X123.379 Y95.346 E7.72872
G1 X124.01 Y95.947 E7.7577
G1 X124.565 Y96.506 E7.7839
G1 X124.948 Y96.935 E7.80303
G1 X125.326 Y97.394 E7.8228
G1 X125.846 Y98.062 E7.85096
G1 X126.433 Y98.909 E7.88523
G1 X126.814 Y99.476 E7.90796
G1 X127.06 Y99.845 E7.92271
G1 X127.556 Y100.709 E7.95584
G1 X127.84 Y101.292 E7.97741
G1 X127.991 Y101.625 E7.98957
G1 X128.392 Y102.562 E8.02347
G1 X128.608 Y103.055 E8.04137
G1 X128.928 Y103.934 E8.07248
G1 X129.07 Y104.416 E8.0892
G1 X129.289 Y105.401 E8.12276
G1 X129.327 Y105.585 E8.12901
G1 X129.484 Y106.302 E8.15342
G1 X129.635 Y107.135 E8.18158
G1 X129.728 Y107.743 E8.20203
G1 X129.784 Y108.25 E8.219
G1 X129.829 Y108.862 E8.23941
G1 X129.84 Y109.255 E8.25249
G1 X129.841 Y109.782 E8.27001
G1 X129.866 Y110.071 E8.27966
G1 X129.894 Y110.739 E8.3019
G1 X129.828 Y111.725 E8.33477
G1 X129.751 Y112.298 E8.354
G1 X129.68 Y112.781 E8.37023
G1 X129.596 Y113.546 E8.39583
G1 X129.475 Y114.137 E8.4159
G1 X129.267 Y115.019 E8.44604
G1 X129.173 Y115.387 E8.45867
G1 X129.016 Y115.946 E8.47798
G1 X128.816 Y116.555 E8.4993
G1 X128.404 Y117.648 E8.53815
G1 X128.315 Y117.874 E8.54623
G1 X128.103 Y118.385 E8.56463
G1 X127.661 Y119.276 E8.59771
G1 X127.235 Y119.991 E8.62539
G1 X126.83 Y120.617 E8.65019
G1 X126.407 Y121.23 E8.67496
G1 X125.755 Y122.191 E8.71359
G1 X125.291 Y122.804 E8.73916
G1 X124.856 Y123.277 E8.76053
G1 X124.5 Y123.632 E8.77725
G1 X124.425 Y123.727 E8.78128
G1 X123.998 Y124.223 E8.80305
G1 X123.415 Y124.78 E8.82986
G1 X122.897 Y125.224 E8.85256
G1 X122.202 Y125.771 E8.88197
G1 X121.85 Y126.05 E8.89691
G1 X121.223 Y126.496 E8.9225
G1 X120.857 Y126.714 E8.93667
G1 X120.361 Y126.991 E8.95557
G1 X120.176 Y127.118 E8.96303
G1 X119.688 Y127.426 E8.98223
G1 X119.206 Y127.705 E9.00075
G1 X118.478 Y128.075 E9.02791
G1 X117.939 Y128.312 E9.04749
G1 X117.77 Y128.384 E9.0536
G1 X116.732 Y128.81 E9.09092
G1 X116.006 Y129.065 E9.11651
G1 X115.238 Y129.246 E9.14276
G1 X114.605 Y129.377 E9.16426
G1 X113.85 Y129.539 E9.18994
G1 X113.196 Y129.662 E9.21207
G1 X112.405 Y129.786 E9.2387
G1 X111.804 Y129.825 E9.25874
G1 X111.073 Y129.844 E9.28306
G1 X110.344 Y129.895 E9.30736
G1 X109.772 Y129.892 E9.32639
G1 X108.847 Y129.878 E9.35716
G1 X108.369 Y129.841 E9.3731
G1 X107.651 Y129.75 E9.39718
G1 X107.178 Y129.686 E9.41305
G1 X106.176 Y129.526 E9.4468
G1 X105.674 Y129.41 E9.46394
G1 X105.025 Y129.251 E9.48616
G1 X104.199 Y129.035 E9.51456
G1 X103.271 Y128.708 E9.54728
G1 X102.523 Y128.403 E9.57415
G1 X102.302 Y128.313 E9.58209
G1 X101.825 Y128.109 E9.59934
G1 X101.13 Y127.782 E9.62489
G1 X100.376 Y127.364 E9.65356
G1 X100.154 Y127.238 E9.66205
G1 X99.482 Y126.863 E9.68765
G1 X98.934 Y126.483 E9.70983
G1 X98.615 Y126.24 E9.72317
G1 X98.193 Y125.929 E9.7406
G1 X97.848 Y125.689 E9.75458
G1 X97.247 Y125.224 E9.77985
G1 X96.961 Y124.978 E9.7924
G1 X96.234 Y124.259 E9.82641
G1 X96.135 Y124.158 E9.83111
G1 X95.365 Y123.358 E9.86804
G1 X94.903 Y122.827 E9.89145
G1 X94.534 Y122.39 E9.91048
G1 X94.166 Y121.918 E9.93038
G1 X93.988 Y121.679 E9.94029
G1 X93.669 Y121.234 E9.95851
G1 X93.327 Y120.715 E9.97918
G1 X93.262 Y120.633 E9.98266
G1 X92.645 Y119.719 E10.01934
G1 X92.633 Y119.698 E10.02014
G1 X92.305 Y119.053 E10.04421
G1 X92.054 Y118.492 E10.06465
G1 X91.795 Y117.896 E10.08626
G1 X91.288 Y116.685 E10.12993
G1 X91.028 Y115.961 E10.15551
G1 X90.911 Y115.523 E10.17059
G1 X90.766 Y114.906 E10.19167
G1 X90.642 Y114.35 E10.21062
G1 X90.33 Y114.952 E10.23317
G1 X90.122 Y115.302 E10.24671
G1 X89.696 Y115.941 E10.27226
G1 X89.205 Y116.534 E10.29786
G1 X88.655 Y117.072 E10.32345
G1 X88.052 Y117.55 E10.34905
G1 X87.404 Y117.962 E10.37459
G1 X87.032 Y118.159 E10.38859
G1 X86.137 Y118.6 E10.42177
G1 X85.43 Y118.904 E10.44737
G1 X84.806 Y119.103 E10.46915
G1 X84.32 Y119.235 E10.4859
G1 X83.607 Y119.404 E10.51028
G1 X82.849 Y119.535 E10.53586
G1 X82.035 Y119.596 E10.56301
G1 X81.663 Y119.632 E10.57544
G1 X80.894 Y119.666 E10.60104
G1 X80.127 Y119.62 E10.6266
G1 X79.119 Y119.436 E10.66068
G1 X78.614 Y119.307 E10.67801
G1 X77.57 Y118.956 E10.71465
G1 X77.098 Y118.757 E10.73169
G1 X76.406 Y118.422 E10.75726
G1 X75.704 Y117.982 E10.78481
G1 X75.048 Y117.49 E10.81209
G1 X74.51 Y117.162 E10.83304
G1 X73.91 Y116.705 E10.85813
G1 X73.689 Y116.518 E10.86776
G1 X73.128 Y115.991 E10.89336
G1 X72.626 Y115.409 E10.91892
G1 X72.186 Y114.778 E10.94451
G1 X71.814 Y114.105 E10.97008
G1 X71.579 Y113.55 E10.99013
G1 X71.232 Y112.984 E11.01221
G1 X70.856 Y112.182 E11.04167
G1 X70.687 Y111.757 E11.05688
G1 X70.44 Y111.029 E11.08245
G1 X70.27 Y110.279 E11.10803
G1 X70.179 Y109.515 E11.13362
G1 X70.168 Y108.746 E11.1592
G1 X70.237 Y107.98 E11.18478
G1 X70.385 Y107.225 E11.21037
G1 X70.519 Y106.699 E11.22842
G1 X70.845 Y105.654 E11.26483
G1 X71.055 Y105.122 E11.28386
G1 X71.278 Y104.627 E11.30191
G1 X71.298 Y104.539 E11.30491
G1 X71.512 Y103.8 E11.3305
G1 X71.8 Y103.087 E11.35608
G1 X72.267 Y102.238 E11.38831
G1 X72.424 Y101.992 E11.39801
G1 X72.871 Y101.366 E11.4236
