;FLAVOR:Marlin
;TIME:4274
;Filament used: 0.664618m
;Layer height: 0.1
;MINX:95.766
;MINY:96.684
;MINZ:0.2
;MAXX:124.445
;MAXY:123.516
;MAXZ:29.6
;Generated with Cura_SteamEngine 4.7.1
M82 ;absolute extrusion mode
;Sliced at: Thu 08-10-2020 16:11:31
;Basic settings: Layer height: 0.1 Walls: 0.8 Fill: 30
G21 ;metric values
G90 ;absolute positioning
M82 ;set extruder to absolute mode
M107 ;start with the fan off
M117 Start heating ...
M104 S205
M117 Homing X/Y ...
G28 X0 Y0 ;move X/Y to min endstops
M117 Homing Z ...
G28 Z0 ;move Z to min endstops
G1 Z15.0 F120 ;move the platform down 15mm
M117 Heating ...
M109 S205
M117 Start cleaning ...
G92 E0 ;zero the extruded length
G1 F200 E10 ;extrude 10mm of feed stock
G92 E0 ;zero the extruded length again
M117 Intro line ...
G1 Z2.0 F3000 ; Move Z Axis up little to prevent scratching of Heat Bed
G1 X0.1 Y20 Z0.1 F5000.0 ; Move to start position
G1 X0.1 Y200.0 Z0.1 F1500.0 E15 ; Draw the first line
G1 X0.4 Y200.0 Z0.1 F5000.0 ; Move to side a little
G1 X0.4 Y20 Z0.3 F1500.0 E30 ; Draw the second line
G92 E0 ; Reset Extruder
G1 E-1 F500 ; Retract filiment by 1 mm
G1 Z2.0 F3000 ; Move Z Axis up little to prevent scratching of Heat Bed
G1 X5 Y20 Z0.3 F120 ; Move over to prevent blob squish
G1 F120
G92 E0 ; Reset Extruder
M117 Printing...

G92 E0
G92 E0
G1 F1800 E-5
;LAYER_COUNT:296
;LAYER:0
M107
G0 F3600 X99.066 Y100.54 Z0.2
;TYPE:SKIRT
G1 F1800 E0
G1 F1350 X99.644 Y100.002 E0.02626
G1 X100.535 Y99.354 E0.06291
G1 X101.265 Y98.909 E0.09134
G1 X101.707 Y98.647 E0.10843
G1 X102.068 Y98.407 E0.12285
G1 X102.675 Y98.041 E0.14643
G1 X103.14 Y97.789 E0.16402
G1 X104.157 Y97.329 E0.20114
G1 X104.626 Y97.156 E0.21777
G1 X105.379 Y96.921 E0.244
G1 X106.153 Y96.763 E0.27028
G1 X106.939 Y96.684 E0.29655
G1 X107.72 Y96.684 E0.32253
G1 X107.996 Y96.698 E0.33172
G1 X108.782 Y96.778 E0.358
G1 X109.555 Y96.937 E0.38425
G1 X110.309 Y97.173 E0.41052
G1 X110.774 Y97.363 E0.42723
G1 X111.158 Y97.534 E0.44121
G1 X111.862 Y97.891 E0.46747
G1 X112.409 Y98.235 E0.48896
G1 X112.701 Y98.436 E0.50075
G1 X113.14 Y98.714 E0.51803
G1 X113.785 Y99.169 E0.54428
G1 X114.381 Y99.688 E0.57057
G1 X114.921 Y100.264 E0.59683
G1 X115.24 Y100.681 E0.61429
G1 X115.877 Y101.167 E0.64094
G1 X116.544 Y101.803 E0.67159
G1 X116.841 Y102.122 E0.68609
G1 X117.349 Y102.726 E0.71234
G1 X117.793 Y103.379 E0.7386
G1 X118.17 Y104.073 E0.76487
G1 X118.474 Y104.802 E0.79114
G1 X118.717 Y105.617 E0.81943
G1 X118.789 Y105.917 E0.82969
G1 X118.934 Y106.693 E0.85595
G1 X119 Y107.48 E0.88222
G1 X118.974 Y108.25 E0.90784
G1 X119.682 Y108.513 E0.93296
G1 X120.391 Y108.862 E0.95924
G1 X121.06 Y109.281 E0.9855
G1 X121.937 Y109.993 E1.02307
G1 X121.987 Y110.04 E1.02535
G1 X122.535 Y110.609 E1.05163
G1 X123.021 Y111.231 E1.07788
G1 X123.443 Y111.898 E1.10413
G1 X123.795 Y112.605 E1.1304
G1 X124.073 Y113.344 E1.15666
G1 X124.276 Y114.108 E1.18296
G1 X124.4 Y114.887 E1.20919
G1 X124.445 Y115.676 E1.23548
G1 X124.41 Y116.465 E1.26174
G1 X124.295 Y117.246 E1.288
G1 X124.102 Y118.012 E1.31427
G1 X123.832 Y118.754 E1.34054
G1 X123.489 Y119.465 E1.36679
G1 X123.075 Y120.138 E1.39307
G1 X122.596 Y120.766 E1.41934
G1 X122.056 Y121.341 E1.44558
G1 X121.46 Y121.86 E1.47186
G1 X120.815 Y122.315 E1.49812
G1 X120.127 Y122.703 E1.52439
G1 X119.403 Y123.019 E1.55066
G1 X118.651 Y123.261 E1.57694
G1 X117.879 Y123.425 E1.60319
G1 X117.094 Y123.51 E1.62945
G1 X116.304 Y123.516 E1.65572
G1 X115.518 Y123.441 E1.68199
G1 X114.743 Y123.288 E1.70826
G1 X113.988 Y123.057 E1.73452
G1 X113.26 Y122.75 E1.7608
G1 X112.318 Y122.213 E1.79686
G1 X112.261 Y122.175 E1.79914
G1 X111.627 Y121.704 E1.82541
G1 X111.044 Y121.172 E1.85166
G1 X110.518 Y120.583 E1.87793
G1 X110.054 Y119.944 E1.90419
G1 X109.935 Y119.74 E1.91205
G1 X109.695 Y119.794 E1.92023
G1 X108.917 Y119.929 E1.94649
G1 X108.068 Y119.994 E1.97481
G1 X107.701 Y120.03 E1.98708
G1 X106.912 Y120.066 E2.01335
G1 X106.124 Y120.022 E2.0396
G1 X105.02 Y119.823 E2.07691
G1 X104.515 Y119.694 E2.09424
G1 X103.415 Y119.324 E2.13284
G1 X102.943 Y119.125 E2.14988
G1 X102.232 Y118.782 E2.17614
G1 X101.473 Y118.309 E2.20588
G1 X100.823 Y117.822 E2.2329
G1 X100.302 Y117.504 E2.2532
G1 X99.652 Y117.01 E2.28035
G1 X99.431 Y116.823 E2.28998
G1 X98.854 Y116.283 E2.31626
G1 X98.336 Y115.688 E2.3425
G1 X97.88 Y115.043 E2.36878
G1 X97.492 Y114.356 E2.39502
G1 X97.211 Y113.715 E2.4183
G1 X96.9 Y113.212 E2.43797
G1 X96.484 Y112.33 E2.4704
G1 X96.315 Y111.905 E2.48561
G1 X96.061 Y111.158 E2.51185
G1 X95.883 Y110.388 E2.53814
G1 X95.785 Y109.605 E2.56439
G1 X95.766 Y108.815 E2.59067
G1 X95.827 Y108.028 E2.61692
G1 X95.967 Y107.251 E2.64318
G1 X96.13 Y106.609 E2.66521
G1 X96.473 Y105.507 E2.7036
G1 X96.683 Y104.975 E2.72262
G1 X96.898 Y104.497 E2.74006
G1 X96.909 Y104.448 E2.74173
G1 X97.127 Y103.689 E2.76799
G1 X97.42 Y102.956 E2.79425
G1 X97.93 Y102.023 E2.82961
G1 X98.087 Y101.777 E2.83932
G1 X98.545 Y101.133 E2.8656
G1 X99.066 Y100.54 E2.89186
G0 F3600 X99.381 Y100.79
G1 F1350 X99.947 Y100.27 E2.91742
G1 X100.747 Y99.694 E2.95021
G1 X101.46 Y99.258 E2.978
G1 X102.289 Y98.74 E3.01052
G1 X102.865 Y98.393 E3.03288
G1 X103.33 Y98.141 E3.05047
G1 X104.295 Y97.704 E3.08571
G1 X104.764 Y97.531 E3.10233
G1 X105.499 Y97.303 E3.12793
G1 X106.253 Y97.152 E3.15351
G1 X107.019 Y97.08 E3.17909
G1 X107.7 Y97.084 E3.20175
G1 X107.976 Y97.098 E3.21094
G1 X108.741 Y97.176 E3.23651
G1 X109.494 Y97.334 E3.2621
G1 X110.226 Y97.569 E3.28767
G1 X110.995 Y97.899 E3.31551
G1 X111.681 Y98.248 E3.34111
G1 X112.182 Y98.565 E3.36082
G1 X112.47 Y98.763 E3.37245
G1 X112.926 Y99.052 E3.3904
G1 X113.554 Y99.496 E3.41599
G1 X114.132 Y100.004 E3.44158
G1 X114.654 Y100.568 E3.46714
G1 X114.964 Y100.982 E3.48434
G1 X115.04 Y101.029 E3.48731
G1 X115.649 Y101.498 E3.51288
G1 X116.251 Y102.076 E3.54064
G1 X116.548 Y102.395 E3.55513
G1 X117.042 Y102.984 E3.5807
G1 X117.472 Y103.621 E3.60626
G1 X117.834 Y104.3 E3.63186
G1 X118.124 Y105.013 E3.65746
G1 X118.328 Y105.71 E3.68161
G1 X118.4 Y106.01 E3.69187
G1 X118.54 Y106.766 E3.71745
G1 X118.601 Y107.533 E3.74304
G1 X118.568 Y108.465 E3.77406
G1 X118.56 Y108.551 E3.77693
G1 X119.049 Y108.695 E3.79388
G1 X119.761 Y108.987 E3.81948
G1 X120.438 Y109.352 E3.84506
G1 X121.074 Y109.785 E3.87065
G1 X121.663 Y110.284 E3.89633
G1 X121.713 Y110.331 E3.89861
G1 X122.246 Y110.886 E3.9242
G1 X122.717 Y111.494 E3.94978
G1 X123.124 Y112.147 E3.97537
G1 X123.46 Y112.839 E4.00096
G1 X123.722 Y113.562 E4.02654
G1 X123.908 Y114.308 E4.05211
G1 X124.016 Y115.07 E4.07771
G1 X124.044 Y115.838 E4.10327
G1 X123.992 Y116.606 E4.12887
G1 X123.861 Y117.364 E4.15445
G1 X123.652 Y118.104 E4.18003
G1 X123.367 Y118.818 E4.2056
G1 X123.009 Y119.499 E4.23119
G1 X122.583 Y120.139 E4.25676
G1 X122.092 Y120.732 E4.28237
G1 X121.543 Y121.27 E4.30793
G1 X120.941 Y121.749 E4.33352
G1 X120.292 Y122.162 E4.3591
G1 X119.604 Y122.506 E4.38469
G1 X118.884 Y122.776 E4.41026
G1 X118.14 Y122.97 E4.43584
G1 X117.379 Y123.086 E4.46144
G1 X116.611 Y123.123 E4.48701
G1 X115.843 Y123.079 E4.5126
G1 X115.084 Y122.956 E4.53817
G1 X114.342 Y122.755 E4.56374
G1 X113.624 Y122.478 E4.58934
G1 X112.939 Y122.128 E4.61492
G1 X112.483 Y121.842 E4.63283
G1 X111.866 Y121.383 E4.6584
G1 X111.3 Y120.862 E4.68399
G1 X110.792 Y120.285 E4.70956
G1 X110.345 Y119.659 E4.73514
G1 X110.132 Y119.282 E4.74954
G1 X109.607 Y119.404 E4.76747
G1 X108.849 Y119.535 E4.79306
G1 X108.035 Y119.596 E4.82021
G1 X107.663 Y119.632 E4.83264
G1 X106.894 Y119.666 E4.85824
G1 X106.127 Y119.62 E4.88379
G1 X105.119 Y119.436 E4.91788
G1 X104.614 Y119.307 E4.93521
G1 X103.57 Y118.956 E4.97184
G1 X103.098 Y118.757 E4.98888
G1 X102.406 Y118.422 E5.01445
G1 X101.704 Y117.982 E5.04201
G1 X101.048 Y117.49 E5.06928
G1 X100.51 Y117.162 E5.09024
G1 X99.91 Y116.705 E5.11532
G1 X99.689 Y116.518 E5.12495
G1 X99.128 Y115.991 E5.15055
G1 X98.626 Y115.409 E5.17612
G1 X98.186 Y114.778 E5.2017
G1 X97.814 Y114.105 E5.22728
G1 X97.579 Y113.55 E5.24732
G1 X97.232 Y112.984 E5.26941
G1 X96.856 Y112.182 E5.29887
G1 X96.687 Y111.757 E5.31408
G1 X96.44 Y111.029 E5.33965
G1 X96.27 Y110.279 E5.36523
G1 X96.179 Y109.515 E5.39082
G1 X96.168 Y108.746 E5.4164
G1 X96.237 Y107.98 E5.44198
G1 X96.385 Y107.225 E5.46757
G1 X96.519 Y106.699 E5.48562
G1 X96.845 Y105.654 E5.52203
G1 X97.055 Y105.122 E5.54105
G1 X97.278 Y104.627 E5.55911
G1 X97.298 Y104.539 E5.56211
G1 X97.512 Y103.8 E5.5877
G1 X97.8 Y103.087 E5.61328
G1 X98.267 Y102.238 E5.6455
G1 X98.424 Y101.992 E5.65521
G1 X98.871 Y101.366 E5.68079
G1 X99.381 Y100.79 E5.70638
G0 F3600 X99.695 Y101.041
G1 F1350 X100.25 Y100.539 E5.73127
G1 X100.958 Y100.033 E5.76022
G1 X101.656 Y99.607 E5.78741
G1 X102.115 Y99.337 E5.80513
G1 X102.511 Y99.073 E5.82096
G1 X103.056 Y98.745 E5.84211
G1 X103.521 Y98.493 E5.8597
G1 X104.433 Y98.08 E5.893
G1 X104.902 Y97.907 E5.90963
G1 X105.617 Y97.686 E5.93452
G1 X106.351 Y97.542 E5.9594
G1 X107.097 Y97.478 E5.9843
G1 X107.68 Y97.483 E6.00369
G1 X107.956 Y97.497 E6.01288
G1 X108.7 Y97.575 E6.03776
G1 X109.431 Y97.731 E6.06262
G1 X110.449 Y98.093 E6.09856
G1 X110.833 Y98.264 E6.11254
G1 X111.499 Y98.605 E6.13743
G1 X111.955 Y98.894 E6.15538
G1 X112.239 Y99.089 E6.16684
G1 X112.712 Y99.389 E6.18547
G1 X113.322 Y99.823 E6.21037
G1 X113.882 Y100.319 E6.23525
G1 X114.386 Y100.872 E6.26014
G1 X114.685 Y101.28 E6.27696
G1 X114.829 Y101.369 E6.28259
G1 X115.42 Y101.828 E6.30748
G1 X115.958 Y102.348 E6.33237
G1 X116.255 Y102.667 E6.34686
G1 X116.735 Y103.241 E6.37175
G1 X117.151 Y103.863 E6.39664
G1 X117.498 Y104.526 E6.42153
G1 X117.772 Y105.222 E6.44641
G1 X117.939 Y105.803 E6.46651
G1 X118.011 Y106.103 E6.47677
G1 X118.146 Y106.839 E6.50166
G1 X118.202 Y107.585 E6.52654
G1 X118.17 Y108.426 E6.55454
G1 X118.124 Y108.855 E6.56889
G1 X118.437 Y108.923 E6.57954
G1 X119.148 Y109.158 E6.60445
G1 X119.829 Y109.468 E6.62933
G1 X120.473 Y109.848 E6.6542
G1 X121.072 Y110.295 E6.67906
G1 X121.439 Y110.623 E6.69543
G1 X121.956 Y111.163 E6.7203
G1 X122.413 Y111.756 E6.7452
G1 X122.803 Y112.394 E6.77007
G1 X123.123 Y113.07 E6.79494
G1 X123.369 Y113.777 E6.81984
G1 X123.538 Y114.506 E6.84473
G1 X123.629 Y115.248 E6.8696
G1 X123.64 Y115.996 E6.89448
G1 X123.571 Y116.741 E6.91936
G1 X123.422 Y117.474 E6.94424
G1 X123.197 Y118.187 E6.96911
G1 X122.896 Y118.873 E6.99402
G1 X122.525 Y119.522 E7.01889
G1 X122.086 Y120.127 E7.04375
G1 X121.585 Y120.683 E7.06864
G1 X121.027 Y121.182 E7.09354
G1 X120.42 Y121.618 E7.1184
G1 X119.769 Y121.987 E7.14329
G1 X119.083 Y122.285 E7.16816
G1 X118.368 Y122.508 E7.19307
G1 X117.635 Y122.653 E7.21792
G1 X116.889 Y122.719 E7.24283
G1 X116.142 Y122.705 E7.26768
G1 X115.399 Y122.611 E7.29259
G1 X114.671 Y122.439 E7.31747
G1 X113.966 Y122.19 E7.34234
G1 X113.291 Y121.867 E7.36723
G1 X112.762 Y121.547 E7.38779
G1 X112.705 Y121.509 E7.39007
G1 X112.106 Y121.062 E7.41493
G1 X111.558 Y120.553 E7.43981
G1 X111.067 Y119.988 E7.4647
G1 X110.639 Y119.374 E7.4896
G1 X110.333 Y118.817 E7.51073
G1 X109.518 Y119.014 E7.53862
G1 X108.781 Y119.14 E7.56349
G1 X107.972 Y119.199 E7.59047
G1 X107.624 Y119.233 E7.6021
G1 X106.877 Y119.266 E7.62697
G1 X106.13 Y119.218 E7.65186
G1 X105.218 Y119.048 E7.68272
G1 X104.713 Y118.919 E7.70006
G1 X103.726 Y118.587 E7.73469
G1 X103.254 Y118.388 E7.75173
G1 X102.581 Y118.061 E7.77661
G1 X101.935 Y117.656 E7.80197
G1 X101.279 Y117.164 E7.82925
G1 X100.719 Y116.821 E7.85109
G1 X100.168 Y116.4 E7.87415
G1 X99.947 Y116.213 E7.88378
G1 X99.403 Y115.7 E7.90865
G1 X98.916 Y115.131 E7.93356
G1 X98.493 Y114.515 E7.95841
G1 X98.138 Y113.856 E7.98331
G1 X97.948 Y113.39 E8.00005
G1 X97.563 Y112.757 E8.02469
G1 X97.227 Y112.035 E8.05118
G1 X97.058 Y111.61 E8.06639
G1 X96.82 Y110.901 E8.09126
G1 X96.658 Y110.17 E8.11617
G1 X96.575 Y109.427 E8.14103
G1 X96.571 Y108.679 E8.16591
G1 X96.648 Y107.935 E8.19079
G1 X96.804 Y107.203 E8.21568
G1 X96.909 Y106.789 E8.22989
G1 X97.217 Y105.801 E8.26431
G1 X97.427 Y105.269 E8.28333
G1 X97.66 Y104.752 E8.30219
G1 X97.688 Y104.63 E8.30636
G1 X97.896 Y103.911 E8.33125
G1 X98.18 Y103.219 E8.35613
G1 X98.604 Y102.453 E8.38525
G1 X98.761 Y102.207 E8.39496
G1 X99.197 Y101.599 E8.41984
G1 X99.695 Y101.041 E8.44472
G0 F3600 X100.008 Y101.293
G1 F1350 X100.551 Y100.81 E8.46889
G1 X101.17 Y100.372 E8.49411
G1 X101.851 Y99.956 E8.52065
G1 X102.37 Y99.647 E8.54074
G1 X102.733 Y99.406 E8.55523
G1 X103.246 Y99.096 E8.57517
G1 X103.711 Y98.844 E8.59276
G1 X104.572 Y98.455 E8.62418
G1 X105.041 Y98.282 E8.64081
G1 X105.735 Y98.068 E8.66496
G1 X106.449 Y97.932 E8.68914
G1 X107.173 Y97.876 E8.71329
G1 X107.935 Y97.896 E8.73864
G1 X108.658 Y97.973 E8.76283
G1 X109.367 Y98.129 E8.78697
G1 X110.286 Y98.459 E8.81945
G1 X110.67 Y98.63 E8.83343
G1 X111.316 Y98.961 E8.85757
G1 X112.038 Y99.436 E8.88632
G1 X112.498 Y99.727 E8.90442
G1 X113.09 Y100.149 E8.9286
G1 X113.631 Y100.633 E8.95275
G1 X114.116 Y101.174 E8.97691
G1 X114.405 Y101.578 E8.99343
G1 X114.618 Y101.71 E9.00177
G1 X115.19 Y102.158 E9.02593
G1 X115.666 Y102.621 E9.04802
G1 X115.963 Y102.94 E9.06252
G1 X116.427 Y103.498 E9.08665
G1 X116.828 Y104.103 E9.11079
G1 X117.16 Y104.75 E9.13498
G1 X117.419 Y105.428 E9.15912
G1 X117.622 Y106.197 E9.18557
G1 X117.752 Y106.911 E9.20971
G1 X117.803 Y107.636 E9.23389
G1 X117.772 Y108.387 E9.25889
G1 X117.671 Y109.172 E9.28521
G1 X117.85 Y109.196 E9.29122
G1 X118.555 Y109.374 E9.3154
G1 X119.235 Y109.627 E9.33953
G1 X119.884 Y109.954 E9.3637
G1 X120.493 Y110.35 E9.38786
G1 X121.115 Y110.867 E9.41477
G1 X121.165 Y110.914 E9.41705
G1 X121.666 Y111.44 E9.44121
G1 X122.107 Y112.018 E9.46539
G1 X122.481 Y112.64 E9.48953
G1 X122.784 Y113.3 E9.51368
G1 X123.013 Y113.99 E9.53786
G1 X123.165 Y114.7 E9.56201
G1 X123.238 Y115.423 E9.58618
G1 X123.231 Y116.149 E9.61033
G1 X123.145 Y116.87 E9.63448
G1 X122.979 Y117.577 E9.65864
G1 X122.737 Y118.262 E9.6828
G1 X122.421 Y118.916 E9.70696
G1 X122.035 Y119.532 E9.73114
G1 X121.584 Y120.101 E9.75528
G1 X121.073 Y120.617 E9.77944
G1 X120.509 Y121.074 E9.80358
G1 X119.897 Y121.466 E9.82776
G1 X119.246 Y121.789 E9.85193
G1 X118.564 Y122.038 E9.87607
G1 X117.858 Y122.21 E9.90024
G1 X117.138 Y122.305 E9.9244
G1 X116.412 Y122.319 E9.94855
G1 X115.689 Y122.253 E9.9727
G1 X114.977 Y122.109 E9.99686
G1 X114.285 Y121.887 E10.02103
G1 X113.622 Y121.59 E10.04519
G1 X112.984 Y121.215 E10.06981
G1 X112.927 Y121.177 E10.07208
G1 X112.346 Y120.741 E10.09624
G1 X111.816 Y120.244 E10.12041
G1 X111.344 Y119.692 E10.14457
G1 X110.935 Y119.092 E10.16872
G1 X110.595 Y118.45 E10.19288
G1 X110.553 Y118.343 E10.1967
G1 X109.84 Y118.53 E10.22122
G1 X109.43 Y118.623 E10.2352
G1 X108.36 Y118.775 E10.27115
G1 X107.586 Y118.835 E10.29697
G1 X106.86 Y118.865 E10.32114
G1 X106.135 Y118.816 E10.34531
G1 X105.317 Y118.661 E10.373
G1 X104.812 Y118.532 E10.39033
G1 X103.881 Y118.219 E10.423
G1 X103.409 Y118.02 E10.44004
G1 X102.756 Y117.701 E10.46421
G1 X102.165 Y117.329 E10.48744
G1 X101.502 Y116.832 E10.51499
G1 X100.929 Y116.479 E10.53738
G1 X100.427 Y116.094 E10.55842
G1 X100.206 Y115.907 E10.56805
G1 X99.678 Y115.408 E10.59221
G1 X99.208 Y114.854 E10.61638
G1 X98.802 Y114.252 E10.64053
G1 X98.465 Y113.609 E10.66467
G1 X98.27 Y113.153 E10.68117
G1 X97.896 Y112.531 E10.70531
G1 X97.599 Y111.887 E10.7289
G1 X97.43 Y111.462 E10.74411
G1 X97.199 Y110.773 E10.76828
G1 X97.045 Y110.063 E10.79244
G1 X96.971 Y109.341 E10.81658
G1 X96.976 Y108.614 E10.84076
G1 X97.06 Y107.893 E10.8649
G1 X97.184 Y107.408 E10.88155
G1 X97.177 Y107.406 E10.8818
G1 X97.299 Y106.88 E10.89976
G1 X97.589 Y105.948 E10.93222
G1 X97.799 Y105.416 E10.95124
G1 X98.039 Y104.883 E10.97068
G1 X98.077 Y104.72 E10.97625
G1 X98.281 Y104.023 E11.00041
G1 X98.56 Y103.353 E11.02455
G1 X98.941 Y102.668 E11.05062
G1 X99.098 Y102.422 E11.06032
G1 X99.522 Y101.832 E11.08449
G1 X100.008 Y101.293 E11.10863
G0 F3600 X100.321 Y101.546
G1 F1350 X100.851 Y101.082 E11.13205
G1 X101.382 Y100.712 E11.15358
G1 X102.047 Y100.305 E11.17951
G1 X102.595 Y99.979 E11.20072
G1 X102.955 Y99.739 E11.21511
G1 X103.437 Y99.448 E11.23384
G1 X103.902 Y99.196 E11.25143
G1 X104.71 Y98.83 E11.28093
G1 X105.179 Y98.657 E11.29756
G1 X105.853 Y98.451 E11.321
G1 X106.545 Y98.323 E11.3444
