;FLAVOR:Marlin
;TIME:1055
;Filament used: 0.970848m
;Layer height: 0.2
;MINX:86.092
;MINY:86.087
;MINZ:0.2
;MAXX:134.624
;MAXY:134.626
;MAXZ:10
;Generated with Cura_SteamEngine 4.6.2
M104 S200
M105
M109 S200
M82 ;absolute extrusion mode
G21 ;metric values
G90 ;absolute positioning
M82 ;set extruder to absolute mode
M107 ;start with the fan off
G28 X0 Y0 ;move X/Y to min endstops
G28 Z0 ;move Z to min endstops
G1 Z15.0 F100 ;move the platform down 15mm
G92 E0 ;zero the extruded length
G1 F200 E3 ;extrude 3mm of feed stock
G92 E0 ;zero the extruded length again
G1 F100
G0 Y20 F100
M117 Printing...
G5
G92 E0
G92 E0
G1 F2400 E-6
;LAYER_COUNT:50
;LAYER:0
M106 S255
M204 S3000
M205 X10 Y10
G1 F600 Z0.275
G0 F3000 X103.768 Y87.363 Z0.275
M204 S1800
M205 X8 Y8
;TYPE:SKIRT
G1 F600 Z0.2
G1 F2400 E0
G1 X104.388 Y87.558 E0.03026
G1 X104.979 Y87.828 E0.06052
G1 X105.532 Y88.168 E0.09075
G1 X106.04 Y88.574 E0.12103
G1 X106.493 Y89.039 E0.15126
G1 X106.94 Y89.637 E0.18602
G1 X107.442 Y90.42 E0.22933
G1 X107.904 Y91.164 E0.27011
G1 X109.404 Y93.436 E0.39688
G1 X110.916 Y95.587 E0.51931
G1 X112.54 Y97.767 E0.64589
G1 X114.189 Y99.853 E0.76971
G1 X115.909 Y101.908 E0.89449
G1 X117.696 Y103.922 E1.01987
G1 X119.52 Y105.866 E1.14399
G1 X121.415 Y107.775 E1.26924
G1 X123.347 Y109.614 E1.39345
G1 X125.321 Y111.389 E1.51706
G1 X127.401 Y113.155 E1.64411
G1 X129.468 Y114.812 E1.76747
G1 X130.346 Y115.472 E1.81861
G1 X131.443 Y116.315 E1.88304
G1 X131.933 Y116.742 E1.9133
G1 X132.366 Y117.226 E1.94354
G1 X132.737 Y117.759 E1.97378
G1 X133.04 Y118.334 E2.00404
G1 X133.269 Y118.942 E2.0343
G1 X133.423 Y119.573 E2.06454
G1 X133.497 Y120.218 E2.09477
G1 X133.492 Y120.868 E2.12504
G1 X133.407 Y121.512 E2.15529
G1 X133.24 Y122.153 E2.18613
G1 X132.329 Y124.948 E2.32302
G1 X132.024 Y125.739 E2.36249
G1 X131.785 Y126.268 E2.38952
G1 X131.47 Y126.836 E2.41976
G1 X131.088 Y127.362 E2.45004
G1 X130.414 Y128.078 E2.49582
G1 X129.027 Y129.439 E2.58631
G1 X128.554 Y129.929 E2.61802
G1 X127.778 Y130.714 E2.66942
G1 X127.293 Y131.147 E2.69969
G1 X126.76 Y131.517 E2.7299
G1 X126.306 Y131.762 E2.75393
G1 X125.615 Y132.08 E2.78935
G1 X125.077 Y132.285 E2.81615
G1 X123.517 Y132.804 E2.89271
G1 X122.122 Y133.254 E2.96096
G1 X121.493 Y133.414 E2.99118
G1 X120.848 Y133.497 E3.02147
G1 X120.199 Y133.499 E3.05169
G1 X119.554 Y133.422 E3.08193
G1 X118.923 Y133.266 E3.1122
G1 X118.316 Y133.034 E3.14246
G1 X117.743 Y132.729 E3.17268
G1 X117.211 Y132.356 E3.20294
G1 X116.729 Y131.921 E3.23317
G1 X116.306 Y131.432 E3.26328
G1 X114.519 Y129.091 E3.40041
G1 X112.839 Y127.016 E3.52473
G1 X111.094 Y124.983 E3.64949
G1 X109.31 Y123.019 E3.77304
G1 X107.435 Y121.069 E3.899
G1 X105.519 Y119.184 E4.02416
G1 X103.56 Y117.367 E4.14857
G1 X101.564 Y115.616 E4.27221
G1 X99.475 Y113.884 E4.39857
G1 X97.385 Y112.249 E4.52213
G1 X95.21 Y110.646 E4.64794
G1 X93.032 Y109.134 E4.7714
G1 X90.78 Y107.662 E4.89668
G1 X90.308 Y107.369 E4.92254
G1 X89.642 Y106.942 E4.95938
G1 X89.118 Y106.558 E4.98963
G1 X88.645 Y106.113 E5.01987
G1 X88.23 Y105.613 E5.05013
G1 X87.879 Y105.066 E5.08039
G1 X87.599 Y104.481 E5.11059
G1 X87.392 Y103.865 E5.14085
G1 X87.263 Y103.228 E5.17112
G1 X87.212 Y102.478 E5.20612
G1 X87.22 Y100.282 E5.30837
G1 X87.216 Y99.525 E5.34362
G1 X87.253 Y98.877 E5.37385
G1 X87.369 Y98.238 E5.40409
G1 X87.611 Y97.495 E5.44047
G1 X88.016 Y96.591 E5.4866
G1 X88.328 Y96.02 E5.5169
G1 X88.77 Y95.403 E5.55224
G1 X89.506 Y94.528 E5.60548
G1 X90.008 Y93.974 E5.64029
G1 X91.222 Y92.696 E5.72237
G1 X91.809 Y92.106 E5.76112
G1 X92.816 Y91.111 E5.82704
G1 X94.282 Y89.728 E5.92089
G1 X94.922 Y89.166 E5.96055
G1 X95.463 Y88.722 E5.99314
G1 X95.991 Y88.344 E6.02337
G1 X96.435 Y88.094 E6.0471
G1 X96.91 Y87.865 E6.07165
G1 X97.389 Y87.656 E6.09599
G1 X98 Y87.433 E6.12628
G1 X98.633 Y87.287 E6.15652
G1 X99.487 Y87.215 E6.19643
G1 X102.481 Y87.207 E6.33585
G1 X103.129 Y87.245 E6.36607
G1 X103.768 Y87.363 E6.39633
M204 S3000
M205 X10 Y10
G0 F3000 X103.835 Y86.803
M204 S1800
M205 X8 Y8
G1 F2400 X104.489 Y86.998 E6.42811
G1 X105.117 Y87.269 E6.45996
G1 X105.708 Y87.61 E6.49173
G1 X106.256 Y88.019 E6.52357
G1 X106.752 Y88.489 E6.55539
G1 X107.19 Y89.013 E6.58719
G1 X107.913 Y90.118 E6.64868
G1 X108.376 Y90.863 E6.68952
G1 X109.854 Y93.1 E6.81437
G1 X111.38 Y95.272 E6.93797
G1 X112.981 Y97.421 E7.06275
G1 X114.628 Y99.505 E7.18644
G1 X116.345 Y101.556 E7.31099
G1 X118.093 Y103.526 E7.43363
G1 X119.93 Y105.485 E7.55868
G1 X121.785 Y107.353 E7.68126
G1 X123.73 Y109.204 E7.80629
G1 X125.737 Y111.009 E7.93197
G1 X127.734 Y112.704 E8.05394
G1 X129.813 Y114.371 E8.17803
G1 X130.683 Y115.025 E8.22871
G1 X131.784 Y115.871 E8.29336
G1 X132.301 Y116.318 E8.32519
G1 X132.761 Y116.823 E8.35699
G1 X133.16 Y117.378 E8.38882
G1 X133.491 Y117.976 E8.42065
G1 X133.75 Y118.608 E8.45245
G1 X133.933 Y119.266 E8.48425
G1 X134.038 Y119.941 E8.51606
G1 X134.064 Y120.624 E8.54789
G1 X134.009 Y121.305 E8.5797
G1 X133.876 Y121.975 E8.61151
G1 X133.66 Y122.668 E8.64531
G1 X132.861 Y125.121 E8.76544
G1 X132.544 Y125.947 E8.80664
G1 X132.29 Y126.508 E8.83531
G1 X131.962 Y127.107 E8.86711
G1 X131.565 Y127.663 E8.89892
G1 X131.189 Y128.087 E8.92531
G1 X130.814 Y128.47 E8.95027
G1 X129.426 Y129.832 E9.04082
G1 X128.957 Y130.318 E9.07227
G1 X128.176 Y131.108 E9.124
G1 X127.668 Y131.565 E9.15581
G1 X127.11 Y131.959 E9.18762
G1 X126.548 Y132.267 E9.21746
G1 X125.822 Y132.6 E9.25466
G1 X125.254 Y132.816 E9.28295
G1 X123.694 Y133.335 E9.35951
G1 X122.294 Y133.787 E9.42801
G1 X121.633 Y133.958 E9.4598
G1 X120.956 Y134.05 E9.49162
G1 X120.273 Y134.063 E9.52342
G1 X119.593 Y133.997 E9.55524
G1 X118.925 Y133.851 E9.58708
G1 X118.279 Y133.628 E9.6189
G1 X117.664 Y133.331 E9.6507
G1 X117.087 Y132.965 E9.68252
G1 X116.557 Y132.533 E9.71436
G1 X116.081 Y132.043 E9.74617
G1 X114.069 Y129.425 E9.89991
G1 X112.423 Y127.392 E10.02171
G1 X110.669 Y125.348 E10.14713
G1 X108.888 Y123.386 E10.27052
G1 X107.035 Y121.46 E10.39497
G1 X105.141 Y119.597 E10.51867
G1 X103.188 Y117.785 E10.64273
G1 X101.196 Y116.038 E10.7661
G1 X99.131 Y114.326 E10.891
G1 X97.049 Y112.698 E11.01407
G1 X94.893 Y111.109 E11.13878
G1 X92.708 Y109.592 E11.26264
G1 X90.463 Y108.123 E11.38757
G1 X90.006 Y107.84 E11.4126
G1 X89.34 Y107.413 E11.44944
G1 X88.787 Y107.012 E11.48124
G1 X88.285 Y106.548 E11.51308
G1 X87.841 Y106.029 E11.54488
G1 X87.46 Y105.462 E11.57669
G1 X87.149 Y104.854 E11.60849
G1 X86.91 Y104.214 E11.6403
G1 X86.748 Y103.55 E11.67212
G1 X86.664 Y102.872 E11.70394
G1 X86.656 Y99.528 E11.85965
G1 X86.693 Y98.846 E11.89145
G1 X86.809 Y98.173 E11.92325
G1 X87.093 Y97.282 E11.9668
G1 X87.509 Y96.353 E12.01419
G1 X87.835 Y95.752 E12.04603
G1 X88.145 Y95.301 E12.07151
G1 X88.536 Y94.801 E12.10107
G1 X89.08 Y94.164 E12.14007
G1 X89.595 Y93.596 E12.17578
G1 X90.816 Y92.31 E12.25835
G1 X91.413 Y91.71 E12.29776
G1 X92.422 Y90.713 E12.36381
G1 X93.897 Y89.321 E12.45825
G1 X94.555 Y88.743 E12.49903
G1 X95.109 Y88.288 E12.53241
G1 X95.663 Y87.888 E12.56423
G1 X96.184 Y87.594 E12.59209
G1 X96.686 Y87.351 E12.61806
G1 X97.165 Y87.142 E12.64239
G1 X97.807 Y86.906 E12.67424
G1 X98.471 Y86.747 E12.70603
G1 X99.485 Y86.655 E12.75344
G1 X102.479 Y86.647 E12.89286
G1 X103.162 Y86.685 E12.92471
G1 X103.835 Y86.803 E12.95653
M204 S3000
M205 X10 Y10
G0 F3000 X133.064 Y126.155
M204 S1800
M205 X8 Y8
G1 F2400 X132.796 Y126.749 E12.98687
G1 X132.454 Y127.376 E13.02013
G1 X132.043 Y127.962 E13.05346
G1 X131.589 Y128.478 E13.08546
G1 X131.214 Y128.861 E13.11042
G1 X129.825 Y130.226 E13.2011
G1 X129.36 Y130.707 E13.23225
G1 X128.574 Y131.502 E13.28431
G1 X128.043 Y131.981 E13.31761
G1 X127.463 Y132.399 E13.3509
G1 X126.79 Y132.772 E13.38673
G1 X126.03 Y133.121 E13.42567
G1 X125.43 Y133.348 E13.45554
G1 X123.87 Y133.867 E13.53209
G1 X122.466 Y134.32 E13.60079
G1 X121.774 Y134.501 E13.6341
G1 X121.066 Y134.603 E13.6674
G1 X120.351 Y134.626 E13.70071
G1 X119.638 Y134.569 E13.73402
G1 X118.936 Y134.433 E13.76732
G1 X118.253 Y134.22 E13.80063
G1 X117.599 Y133.931 E13.83392
G1 X116.98 Y133.571 E13.86727
G1 X116.406 Y133.145 E13.90055
G1 X115.883 Y132.657 E13.93386
G1 X115.416 Y132.111 E13.96731
G1 X113.663 Y129.814 E14.10186
G1 X111.961 Y127.713 E14.22777
G1 X110.275 Y125.748 E14.34833
G1 X108.465 Y123.755 E14.47369
G1 X106.634 Y121.851 E14.59669
G1 X104.764 Y120.012 E14.71882
G1 X102.814 Y118.203 E14.84267
G1 X100.827 Y116.46 E14.96575
G1 X98.791 Y114.772 E15.0889
G1 X96.67 Y113.112 E15.21431
G1 X94.584 Y111.576 E15.33494
G1 X92.393 Y110.054 E15.45916
G1 X90.182 Y108.609 E15.58215
G1 X89.704 Y108.312 E15.60836
G1 X89.038 Y107.885 E15.64519
G1 X88.458 Y107.466 E15.67851
G1 X87.929 Y106.984 E15.71184
G1 X87.457 Y106.447 E15.74513
G1 X87.047 Y105.861 E15.77843
G1 X86.706 Y105.232 E15.81175
G1 X86.437 Y104.569 E15.84506
G1 X86.243 Y103.881 E15.87835
G1 X86.128 Y103.175 E15.91165
G1 X86.092 Y102.474 E15.94434
G1 X86.1 Y100.278 E16.04659
G1 X86.096 Y99.531 E16.08138
G1 X86.132 Y98.817 E16.11467
G1 X86.248 Y98.111 E16.14798
G1 X86.442 Y97.422 E16.18131
G1 X86.655 Y96.875 E16.20865
G1 X87.002 Y96.116 E16.24751
G1 X87.341 Y95.486 E16.28082
G1 X87.699 Y94.962 E16.31037
G1 X88.11 Y94.438 E16.34138
G1 X88.654 Y93.801 E16.38039
G1 X89.181 Y93.218 E16.41698
G1 X90.411 Y91.924 E16.50011
G1 X91.041 Y91.292 E16.54166
G1 X92.028 Y90.315 E16.60633
G1 X93.511 Y88.915 E16.7013
G1 X94.188 Y88.32 E16.74326
G1 X94.756 Y87.854 E16.77747
G1 X95.335 Y87.434 E16.81078
G1 X95.934 Y87.093 E16.84288
G1 X96.463 Y86.838 E16.87022
G1 X96.942 Y86.629 E16.89456
G1 X97.612 Y86.38 E16.92784
G1 X98.306 Y86.208 E16.96113
G1 X99.015 Y86.113 E16.99444
G1 X102.478 Y86.087 E17.1557
G1 X103.192 Y86.125 E17.18899
G1 X103.898 Y86.243 E17.22232
G1 X104.586 Y86.438 E17.25562
G1 X105.248 Y86.709 E17.28893
G1 X105.875 Y87.052 E17.32221
G1 X106.46 Y87.464 E17.35553
G1 X106.996 Y87.937 E17.38881
G1 X107.476 Y88.468 E17.42214
G1 X107.883 Y89.033 E17.45457
G1 X108.385 Y89.816 E17.49788
G1 X108.858 Y90.577 E17.5396
G1 X110.318 Y92.787 E17.66293
G1 X111.839 Y94.951 E17.7861
G1 X113.426 Y97.081 E17.90978
G1 X115.052 Y99.14 E18.03195
G1 X116.763 Y101.183 E18.15604
G1 X118.524 Y103.168 E18.2796
G1 X120.323 Y105.085 E18.40201
G1 X122.173 Y106.948 E18.52427
G1 X124.131 Y108.813 E18.65018
G1 X126.078 Y110.563 E18.77208
G1 X128.089 Y112.271 E18.89493
G1 X130.17 Y113.939 E19.01912
G1 X131.019 Y114.577 E19.06857
G1 X132.126 Y115.427 E19.13356
G1 X132.668 Y115.894 E19.16687
G1 X133.154 Y116.419 E19.20019
G1 X133.579 Y116.994 E19.23348
G1 X133.937 Y117.613 E19.26678
G1 X134.223 Y118.269 E19.3001
G1 X134.435 Y118.952 E19.3334
G1 X134.569 Y119.655 E19.36673
G1 X134.624 Y120.368 E19.40002
G1 X134.599 Y121.083 E19.43334
G1 X134.494 Y121.79 E19.46662
G1 X134.304 Y122.503 E19.50098
G1 X133.393 Y125.295 E19.63773
G1 X133.064 Y126.155 E19.68061
M204 S3000
M205 X10 Y10
G1 F2400 E13.68061
;MESH:fig_1.stl
G0 F3000 X127.822 Y123.814
G0 X126.949 Y123.455
G0 X126.619 Y123.594
M204 S1800
M205 X8 Y8
;TYPE:WALL-OUTER
G1 F2400 E19.68061
G1 F1500 X126.623 Y123.447 E19.68745
G1 X126.683 Y121.418 E19.78197
G1 X126.968 Y123.457 E19.81218
G1 X126.856 Y123.702 E19.82035
G1 X126.795 Y123.835 E19.82431
G1 X126.492 Y124.054 E19.83954
G1 X126.371 Y123.976 E19.84625
G1 X125.921 Y123.682 E19.87128
G1 X126.436 Y123.617 E19.87987
G1 X126.619 Y123.594 E19.88415
M204 S3000
M205 X10 Y10
G0 F3000 X126.623 Y123.447
G0 X126.624 Y123.394
G1 F2400 E13.88415
G0 F3000 X126.724 Y123.397
G0 X126.684 Y121.437
G0 X126.702 Y120.605
G0 X126.726 Y120.639
M204 S1800
M205 X8 Y8
G1 F2400 E19.88415
G1 F1500 X126.729 Y120.623 E19.8849
G1 X126.795 Y120.63 E19.88799
G1 X126.73 Y120.649 E19.88814
G1 X126.706 Y120.656
G1 X126.726 Y120.639
M204 S3000
M205 X10 Y10
G0 F3000 X126.729 Y120.623
G0 X126.795 Y120.63
G0 X126.73 Y120.649
G0 X126.706 Y120.656
G0 X126.726 Y120.639
G1 F2400 E13.88814
G0 F3000 X126.702 Y120.605
G0 X125.756 Y120.88
G0 X125.416 Y121.988
G0 X124.484 Y125.422
G0 X123.687 Y125.94
G0 X123.595 Y126.62
M204 S1800
M205 X8 Y8
G1 F2400 E19.88814
G1 F1500 X123.618 Y126.438 E19.89668
G1 X123.683 Y125.921 E19.92094
G1 X123.976 Y126.372 E19.93034
G1 X124.054 Y126.492 E19.9351
G1 X123.836 Y126.794 E19.94812
G1 X123.703 Y126.855 E19.95227
G1 X123.456 Y126.968 E19.96225
G1 X121.417 Y126.683 E20.05811
G1 X123.446 Y126.625 E20.0868
G1 X123.595 Y126.62 E20.08928
M204 S3000
M205 X10 Y10
G0 F3000 X123.618 Y126.438
G0 X123.62 Y126.422
G1 F2400 E14.08928
G0 F3000 X123.718 Y126.434
G0 X121.432 Y126.684
G0 X120.599 Y126.726
G0 X120.641 Y126.726
M204 S1800
M205 X8 Y8
G1 F2400 E20.08928
G1 F1500 X120.655 Y126.705 E20.09046
G1 X120.647 Y126.735 E20.09063
G1 X120.63 Y126.792 E20.0934
G1 X120.623 Y126.729 E20.09361
G1 X120.641 Y126.726
M204 S3000
M205 X10 Y10
G0 F3000 X120.655 Y126.705
G0 X120.647 Y126.735
G0 X120.63 Y126.792
G0 X120.623 Y126.729
G0 X120.641 Y126.726
G0 X120.643 Y126.723
G0 X121.972 Y126.714
G1 F2400 E14.09361
G0 F3000 X121.986 Y126.714
G0 X121.404 Y125.739
G0 X94.24 Y101.381
G0 X93.293 Y101.326
G0 X93.327 Y99.403
G0 X93.405 Y99.464
M204 S1800
M205 X8 Y8
G1 F2400 E20.09361
G1 F1500 X93.295 Y101.345 E20.18134
G1 X92.782 Y99.521 E20.26957
G1 X92.909 Y99.24 E20.28393
G1 X93.039 Y98.953 E20.2986
G1 X93.433 Y98.482 E20.32719
G1 X93.543 Y98.716 E20.3303
G1 X93.805 Y99.275 E20.35905
G1 X93.831 Y99.329 E20.36184
G1 X93.405 Y99.464 E20.37617
M204 S3000
M205 X10 Y10
G0 F3000 X93.394 Y99.663
G0 X93.256 Y99.196
M204 S1800
M205 X8 Y8
;TYPE:SKIN
G1 F1500 X93.375 Y99.032 E20.37824
M204 S3000
M205 X10 Y10
G0 F3000 X93.223 Y99.354
G1 F2400 E14.37824
G0 F3000 X93.431 Y98.501
G0 X95.377 Y96.418
G0 X96.332 Y96.332
G0 X96.402 Y96.402
M204 S1800
M205 X8 Y8
;TYPE:WALL-OUTER
G1 F2400 E20.37824
G1 F1500 X96.301 Y96.877 E20.40085
G1 X96.197 Y96.827
G1 X95.715 Y96.593 E20.4258
G1 X95.358 Y96.421 E20.44425
G1 X95.641 Y96.143 E20.45517
G1 X95.894 Y95.894 E20.47169
G1 X96.143 Y95.641 E20.48822
G1 X96.421 Y95.358 E20.5067
G1 X96.593 Y95.715 E20.5176
G1 X96.826 Y96.196 E20.54249
G1 X96.877 Y96.301 E20.54792
G1 X96.402 Y96.402 E20.56343
M204 S3000
M205 X10 Y10
G0 F3000 X96.361 Y96.597
G0 X96.032 Y96.315
M204 S1800
M205 X8 Y8
;TYPE:SKIN
G1 F1500 X96.128 Y96.128 E20.56858
G1 X96.314 Y96.032 E20.57371
M204 S3000
M205 X10 Y10
G0 F3000 X96.091 Y95.962
G1 F2400 E14.57371
G0 F3000 X98.501 Y93.431
G0 X99.402 Y93.323
G0 X99.463 Y93.402
M204 S1800
M205 X8 Y8
;TYPE:WALL-OUTER
G1 F2400 E20.57371
G1 F1500 X99.329 Y93.831 E20.59464
G1 X99.274 Y93.805
G1 X98.716 Y93.543 E20.62335
G1 X98.482 Y93.433 E20.63539
G1 X98.952 Y93.04 E20.655
G1 X99.24 Y92.91 E20.66971
G1 X99.522 Y92.782 E20.68413
G1 X101.385 Y93.306 E20.77425
G1 X99.463 Y93.402 E20.86386
M204 S3000
M205 X10 Y10
G0 F3000 X99.404 Y93.593
G0 X99.196 Y93.256
M204 S1800
M205 X8 Y8
;TYPE:SKIN
G1 F1500 X99.032 Y93.376 E20.86586
M204 S3000
M205 X10 Y10
G0 F3000 X99.355 Y93.224
G1 F2400 E14.86586
;MESH:NONMESH
G0 F600 X99.355 Y93.224 Z0.4
G0 F3000 X98.914 Y94.681
G0 X97.213 Y100.313
;TIME_ELAPSED:21.335827
;LAYER:1
M204 S1800
M205 X8 Y8
;TYPE:WALL-INNER
;MESH:fig_1.stl
G1 F2400 E20.86586
G1 F2250 X97.226 Y100.25 E20.868
G1 X97.756 Y97.756 E20.9528
G1 X100.247 Y97.227 E21.0375
G1 X100.311 Y97.213 E21.03968
G1 X100.193 Y96.97 E21.04539
G1 X100.802 Y95.022 E21.11328
G1 X102.937 Y94.916 E21.18437
G1 X103.185 Y94.666 E21.19609
G1 X105.347 Y94.39 E21.26858
G1 X105.545 Y94.365 E21.27522
G1 X105.52 Y94.167 E21.2795
G1 X105.46 Y93.701 E21.29513
G1 X105.444 Y93.583 E21.29909
G1 X105.765 Y93.661 E21.30609
G1 X106.961 Y92.621 E21.3588
G1 X108.52 Y92.685 E21.4107
G1 X109.636 Y92.595 E21.44794
G1 X111.342 Y92.601 E21.50468
G1 X112.99 Y93.14 E21.56235
G1 X114.196 Y93.105 E21.60248
G1 X116.104 Y94.44 E21.67993
G1 X117.092 Y94.634 E21.71342
G1 X117.775 Y95.13 E21.74149
G1 X120.004 Y95.693 E21.81796
G1 X121.642 Y97.245 E21.89301
G1 X122.812 Y98.241 E21.94411
G1 X124.569 Y100.061 E22.02825
G1 X125.66 Y102.665 E22.12216
G1 X125.904 Y102.892 E22.13324
G1 X125.876 Y103.158 E22.14214
G1 X127.62 Y105.813 E22.24779
G1 X127.692 Y107.882 E22.31665
G1 X127.986 Y108.679 E22.3449
G1 X128.001 Y111.034 E22.42323
G1 X128.031 Y111.512 E22.43916
G1 X127.976 Y113.791 E22.51498
G1 X127.787 Y114.33 E22.53398
