;FLAVOR:Marlin
;TIME:2092
;Filament used: 0.674487m
;Layer height: 0.1
;MINX:90.913
;MINY:90.909
;MINZ:0.2
;MAXX:129.082
;MAXY:129.083
;MAXZ:15.6
;Generated with Cura_SteamEngine master
M104 S190
M105
M109 S190
M82 ;absolute extrusion mode
G21 ;metric values
G90 ;absolute positioning
M82 ;set extruder to absolute mode
M107 ;start with the fan off
G28 X0 Y0 ;move X/Y to min endstops
G28 Z0 ;move Z to min endstops
G1 Z15.0 F100 ;move the platform down 15mm
G92 E0 ;zero the extruded length
G1 F200 E3 ;extrude 3mm of feed stock
G92 E0 ;zero the extruded length again
G1 F100
G0 Y20 F100
M117 Printing...
G5
G92 E0
G92 E0
G1 F2400 E-6
;LAYER_COUNT:155
;LAYER:0
M106 S255
M204 S3000
M205 X10 Y10
G0 F3000 X111.04 Y92.063 Z0.2
M204 S1800
M205 X8 Y8
;TYPE:SKIRT
G1 F2400 E0
G1 X112.082 Y92.154 E0.0487
G1 X113.356 Y92.357 E0.10878
G1 X114.414 Y92.584 E0.15916
G1 X115.229 Y92.807 E0.19851
G1 X116.604 Y93.29 E0.26637
G1 X117.911 Y93.87 E0.33295
G1 X118.505 Y94.169 E0.36392
G1 X119.034 Y94.464 E0.39212
G1 X119.72 Y94.882 E0.42953
G1 X120.243 Y95.234 E0.45888
G1 X121.146 Y95.917 E0.5116
G1 X121.88 Y96.522 E0.55589
G1 X122.786 Y97.386 E0.61419
G1 X123.492 Y98.136 E0.66215
G1 X124.194 Y98.979 E0.71323
G1 X124.667 Y99.619 E0.75029
G1 X125.279 Y100.559 E0.80252
G1 X125.77 Y101.394 E0.84762
G1 X126.062 Y101.94 E0.87645
G1 X126.347 Y102.545 E0.9076
G1 X126.671 Y103.316 E0.94654
G1 X126.9 Y103.919 E0.97657
G1 X127.232 Y104.919 E1.02564
G1 X127.525 Y106.03 E1.07914
G1 X127.689 Y106.831 E1.11721
G1 X127.812 Y107.628 E1.15476
G1 X127.942 Y109.052 E1.22134
G1 X127.962 Y110.438 E1.28589
G1 X127.864 Y111.91 E1.35458
G1 X127.785 Y112.582 E1.38609
G1 X127.694 Y113.147 E1.41274
G1 X127.54 Y113.917 E1.4493
G1 X127.389 Y114.533 E1.47883
G1 X127.012 Y115.781 E1.53954
G1 X126.841 Y116.273 E1.56379
G1 X126.556 Y116.992 E1.59981
G1 X126.311 Y117.543 E1.62789
G1 X125.681 Y118.77 E1.69211
G1 X124.91 Y120.023 E1.76062
G1 X124.519 Y120.592 E1.79276
G1 X124.184 Y121.036 E1.81866
G1 X123.698 Y121.633 E1.85451
G1 X123.162 Y122.237 E1.89211
G1 X122.779 Y122.634 E1.9178
G1 X121.723 Y123.615 E1.98491
G1 X120.534 Y124.555 E2.05549
G1 X120.017 Y124.922 E2.08501
G1 X119.551 Y125.224 E2.11087
G1 X118.863 Y125.634 E2.14816
G1 X118.368 Y125.903 E2.1744
G1 X117.369 Y126.378 E2.2259
G1 X116.7 Y126.663 E2.25976
G1 X115.935 Y126.951 E2.29783
G1 X115.056 Y127.24 E2.34091
G1 X114.416 Y127.42 E2.37187
G1 X113.883 Y127.547 E2.39738
G1 X113.213 Y127.68 E2.42919
G1 X111.801 Y127.874 E2.49556
G1 X110.242 Y127.964 E2.56827
G1 X109.253 Y127.954 E2.61432
G1 X108.665 Y127.919 E2.64175
G1 X108.147 Y127.873 E2.66597
G1 X106.843 Y127.688 E2.7273
G1 X106.219 Y127.57 E2.75687
G1 X105.515 Y127.398 E2.79061
G1 X104.466 Y127.093 E2.84148
G1 X103.674 Y126.819 E2.8805
G1 X102.318 Y126.24 E2.94916
G1 X101.234 Y125.675 E3.00608
G1 X100.344 Y125.149 E3.05422
G1 X99.057 Y124.248 E3.12737
G1 X98.137 Y123.498 E3.18264
G1 X97.494 Y122.906 E3.22334
G1 X96.939 Y122.345 E3.26009
G1 X96.522 Y121.885 E3.289
G1 X95.701 Y120.877 E3.34953
G1 X95.067 Y119.997 E3.40004
G1 X94.602 Y119.268 E3.4403
G1 X94.19 Y118.547 E3.47897
G1 X93.931 Y118.046 E3.50523
G1 X93.453 Y116.983 E3.5595
G1 X93.218 Y116.4 E3.58877
G1 X92.871 Y115.421 E3.63714
G1 X92.527 Y114.163 E3.69786
G1 X92.361 Y113.424 E3.73313
G1 X92.236 Y112.724 E3.76624
G1 X92.154 Y112.109 E3.79513
G1 X92.078 Y111.301 E3.83292
G1 X92.039 Y110.54 E3.86841
G1 X92.033 Y109.592 E3.91255
G1 X92.073 Y108.717 E3.95334
G1 X92.151 Y107.897 E3.99169
G1 X92.262 Y107.11 E4.0287
G1 X92.386 Y106.442 E4.06034
G1 X92.674 Y105.242 E4.1178
G1 X93.079 Y103.983 E4.17938
G1 X93.446 Y103.017 E4.2275
G1 X94.096 Y101.644 E4.29823
G1 X94.745 Y100.52 E4.35867
G1 X95.303 Y99.665 E4.40621
G1 X95.668 Y99.156 E4.43538
G1 X96.015 Y98.713 E4.46158
G1 X96.562 Y98.067 E4.501
G1 X97.102 Y97.484 E4.538
G1 X97.555 Y97.036 E4.56767
G1 X98.51 Y96.188 E4.62713
G1 X99.733 Y95.259 E4.69865
G1 X100.715 Y94.625 E4.75308
G1 X101.616 Y94.11 E4.8014
G1 X102.748 Y93.567 E4.85986
G1 X103.364 Y93.308 E4.89098
G1 X104.398 Y92.929 E4.94226
G1 X105.55 Y92.599 E4.99806
G1 X106.532 Y92.371 E5.045
G1 X107.147 Y92.256 E5.07413
G1 X107.7 Y92.176 E5.10015
G1 X108.552 Y92.088 E5.14004
G1 X109.321 Y92.042 E5.17591
G1 X110.11 Y92.029 E5.21265
G1 X111.04 Y92.063 E5.25598
M204 S3000
M205 X10 Y10
G0 F3000 X111.089 Y91.505
M204 S1800
M205 X8 Y8
G1 F2400 X112.131 Y91.596 E5.30469
G1 X112.627 Y91.661 E5.32798
G1 X113.452 Y91.805 E5.36698
G1 X114.534 Y92.037 E5.41851
G1 X115.384 Y92.269 E5.45953
G1 X116.794 Y92.763 E5.5291
G1 X117.261 Y92.954 E5.5526
G1 X118.145 Y93.361 E5.59791
G1 X118.777 Y93.679 E5.63086
G1 X119.306 Y93.974 E5.65906
G1 X120.015 Y94.406 E5.69772
G1 X120.56 Y94.772 E5.72829
G1 X121.487 Y95.473 E5.78241
G1 X122.238 Y96.092 E5.82772
G1 X123.178 Y96.986 E5.88813
G1 X123.902 Y97.754 E5.93727
G1 X124.628 Y98.626 E5.99011
G1 X125.121 Y99.291 E6.02866
G1 X125.75 Y100.257 E6.08233
G1 X126.254 Y101.112 E6.12855
G1 X126.567 Y101.697 E6.15944
G1 X126.863 Y102.328 E6.19189
G1 X127.187 Y103.099 E6.23084
G1 X127.425 Y103.723 E6.26193
G1 X127.764 Y104.744 E6.31203
G1 X128.068 Y105.894 E6.36742
G1 X128.239 Y106.723 E6.40683
G1 X128.366 Y107.547 E6.44565
G1 X128.5 Y109.005 E6.51383
G1 X128.522 Y110.438 E6.58056
G1 X128.423 Y111.953 E6.65126
G1 X128.338 Y112.671 E6.68493
G1 X128.247 Y113.236 E6.71157
G1 X128.089 Y114.03 E6.74927
G1 X127.932 Y114.671 E6.78
G1 X127.548 Y115.946 E6.842
G1 X127.368 Y116.464 E6.86754
G1 X127.075 Y117.201 E6.90447
G1 X126.82 Y117.775 E6.93372
G1 X126.177 Y119.028 E6.9993
G1 X125.383 Y120.323 E7.07003
G1 X124.966 Y120.929 E7.10428
G1 X124.631 Y121.373 E7.13018
G1 X124.13 Y121.989 E7.16715
G1 X123.578 Y122.611 E7.20588
G1 X123.179 Y123.026 E7.23268
G1 X122.101 Y124.027 E7.30118
G1 X121.715 Y124.352 E7.32468
G1 X120.876 Y124.998 E7.37399
G1 X120.321 Y125.392 E7.40568
G1 X119.855 Y125.694 E7.43154
G1 X119.147 Y126.117 E7.46994
G1 X118.631 Y126.397 E7.49728
G1 X117.606 Y126.886 E7.55016
G1 X116.916 Y127.179 E7.58506
G1 X116.129 Y127.476 E7.62423
G1 X115.228 Y127.773 E7.66841
G1 X114.546 Y127.965 E7.7014
G1 X114.013 Y128.092 E7.72691
G1 X113.317 Y128.23 E7.75995
G1 X111.874 Y128.429 E7.82778
G1 X110.267 Y128.523 E7.90274
G1 X109.24 Y128.514 E7.95056
G1 X108.615 Y128.477 E7.97971
G1 X108.097 Y128.431 E8.00393
G1 X106.76 Y128.242 E8.0668
G1 X106.091 Y128.116 E8.0985
G1 X105.359 Y127.936 E8.1336
G1 X104.31 Y127.631 E8.18447
G1 X103.485 Y127.346 E8.22511
G1 X102.094 Y126.754 E8.29551
G1 X101.644 Y126.534 E8.31883
G1 X100.967 Y126.167 E8.35469
G1 X100.057 Y125.629 E8.40391
G1 X98.73 Y124.703 E8.47926
G1 X97.778 Y123.928 E8.53642
G1 X97.11 Y123.314 E8.57867
G1 X96.538 Y122.736 E8.61654
G1 X96.104 Y122.259 E8.64656
G1 X95.265 Y121.228 E8.70846
G1 X94.61 Y120.32 E8.76059
G1 X94.127 Y119.564 E8.80237
G1 X93.702 Y118.821 E8.84222
G1 X93.432 Y118.3 E8.86955
G1 X92.941 Y117.209 E8.92526
G1 X92.697 Y116.607 E8.9555
G1 X92.343 Y115.605 E9.00499
G1 X91.985 Y114.304 E9.06782
G1 X91.814 Y113.545 E9.10405
G1 X91.681 Y112.798 E9.13938
G1 X91.599 Y112.183 E9.16827
G1 X91.52 Y111.35 E9.20723
G1 X91.48 Y110.564 E9.24388
G1 X91.473 Y109.593 E9.28909
G1 X91.514 Y108.686 E9.33137
G1 X91.594 Y107.84 E9.37094
G1 X91.707 Y107.029 E9.40907
G1 X91.836 Y106.335 E9.44194
G1 X92.13 Y105.109 E9.50064
G1 X92.548 Y103.804 E9.56445
G1 X92.923 Y102.816 E9.61366
G1 X93.128 Y102.348 E9.63745
G1 X93.593 Y101.398 E9.6867
G1 X94.264 Y100.233 E9.7493
G1 X94.836 Y99.356 E9.79806
G1 X95.228 Y98.811 E9.82932
G1 X95.575 Y98.368 E9.85552
G1 X96.137 Y97.703 E9.89606
G1 X96.694 Y97.101 E9.93425
G1 X97.164 Y96.635 E9.96507
G1 X98.14 Y95.767 E10.02589
G1 X99.399 Y94.809 E10.09955
G1 X100.419 Y94.15 E10.1561
G1 X101.34 Y93.622 E10.20553
G1 X102.513 Y93.059 E10.26612
G1 X103.151 Y92.791 E10.29834
G1 X104.208 Y92.403 E10.35077
G1 X105.403 Y92.058 E10.40869
G1 X106.408 Y91.825 E10.45673
G1 X107.067 Y91.702 E10.48794
G1 X107.62 Y91.622 E10.51396
G1 X108.498 Y91.53 E10.55507
G1 X109.291 Y91.483 E10.59206
G1 X110.104 Y91.469 E10.62992
G1 X111.089 Y91.505 E10.67582
M204 S3000
M205 X10 Y10
G0 F3000 X111.138 Y90.947
M204 S1800
M205 X8 Y8
G1 F2400 X112.18 Y91.038 E10.72452
G1 X112.723 Y91.109 E10.75002
G1 X113.548 Y91.253 E10.78902
G1 X114.654 Y91.49 E10.84169
G1 X115.539 Y91.731 E10.8844
G1 X116.983 Y92.236 E10.95563
G1 X117.496 Y92.446 E10.98144
G1 X118.38 Y92.853 E11.02675
G1 X119.05 Y93.19 E11.06168
G1 X119.579 Y93.485 E11.08988
G1 X120.309 Y93.93 E11.12969
G1 X120.877 Y94.311 E11.16154
G1 X121.827 Y95.029 E11.21699
G1 X122.596 Y95.661 E11.26334
G1 X122.986 Y96.014 E11.28783
G1 X123.57 Y96.587 E11.32593
G1 X124.311 Y97.372 E11.37619
G1 X125.063 Y98.273 E11.43084
G1 X125.574 Y98.963 E11.47082
G1 X126.222 Y99.954 E11.52595
G1 X126.738 Y100.831 E11.57334
G1 X127.071 Y101.453 E11.60619
G1 X127.379 Y102.112 E11.64006
G1 X127.703 Y102.883 E11.679
G1 X127.949 Y103.528 E11.71115
G1 X128.296 Y104.57 E11.76229
G1 X128.611 Y105.758 E11.81952
G1 X128.788 Y106.615 E11.86026
G1 X128.92 Y107.466 E11.90036
G1 X129.058 Y108.958 E11.97013
G1 X129.081 Y109.491 E11.99498
G1 X129.082 Y110.437 E12.03903
G1 X129.063 Y110.939 E12.06242
G1 X128.981 Y111.997 E12.11183
G1 X128.891 Y112.76 E12.1476
G1 X128.8 Y113.325 E12.17425
G1 X128.637 Y114.143 E12.21309
G1 X128.475 Y114.808 E12.24496
G1 X128.083 Y116.111 E12.30832
G1 X127.895 Y116.654 E12.33508
G1 X127.595 Y117.41 E12.37295
G1 X127.33 Y118.007 E12.40337
G1 X126.674 Y119.287 E12.47034
G1 X126.407 Y119.752 E12.49531
G1 X125.857 Y120.622 E12.54323
G1 X125.413 Y121.267 E12.5797
G1 X125.078 Y121.711 E12.6056
G1 X124.563 Y122.345 E12.64363
G1 X123.995 Y122.986 E12.68351
G1 X123.58 Y123.418 E12.7114
G1 X122.48 Y124.44 E12.78132
G1 X122.056 Y124.796 E12.8071
G1 X121.217 Y125.442 E12.8564
G1 X120.626 Y125.862 E12.89017
G1 X120.16 Y126.164 E12.91602
G1 X119.431 Y126.599 E12.95555
G1 X118.895 Y126.892 E12.984
G1 X117.843 Y127.393 E13.03825
G1 X117.132 Y127.696 E13.07424
G1 X116.323 Y128.001 E13.1145
G1 X115.4 Y128.305 E13.15975
G1 X114.675 Y128.51 E13.19483
G1 X114.142 Y128.637 E13.22035
G1 X113.421 Y128.78 E13.25457
G1 X111.947 Y128.984 E13.32386
G1 X111.401 Y129.033 E13.34939
G1 X110.292 Y129.083 E13.40108
G1 X109.228 Y129.073 E13.45063
G1 X108.728 Y129.047 E13.47394
G1 X108.048 Y128.989 E13.50572
G1 X106.678 Y128.796 E13.57014
G1 X105.964 Y128.661 E13.60398
G1 X105.202 Y128.474 E13.64051
G1 X104.153 Y128.169 E13.69138
G1 X103.295 Y127.873 E13.73364
G1 X101.87 Y127.267 E13.80575
G1 X101.377 Y127.026 E13.8313
G1 X100.7 Y126.659 E13.86716
G1 X99.77 Y126.11 E13.91745
G1 X99.321 Y125.816 E13.94244
G1 X98.404 Y125.158 E13.99499
G1 X97.419 Y124.358 E14.05408
G1 X96.727 Y123.722 E14.09784
G1 X96.137 Y123.127 E14.13686
G1 X95.687 Y122.632 E14.16801
G1 X94.828 Y121.579 E14.23129
G1 X94.152 Y120.643 E14.28505
G1 X93.652 Y119.861 E14.32827
G1 X93.214 Y119.095 E14.36936
G1 X92.932 Y118.553 E14.39781
G1 X92.428 Y117.435 E14.45491
G1 X92.177 Y116.813 E14.48614
G1 X91.814 Y115.789 E14.53673
G1 X91.663 Y115.292 E14.56092
G1 X91.443 Y114.444 E14.60171
G1 X91.267 Y113.666 E14.63886
G1 X91.171 Y113.156 E14.66302
G1 X91.044 Y112.257 E14.7053
G1 X90.962 Y111.399 E14.74543
G1 X90.92 Y110.589 E14.7832
G1 X90.913 Y109.594 E14.82953
G1 X90.955 Y108.655 E14.8733
G1 X91.037 Y107.783 E14.91408
G1 X91.153 Y106.948 E14.95334
G1 X91.287 Y106.228 E14.98744
G1 X91.586 Y104.976 E15.04738
G1 X91.739 Y104.451 E15.07284
G1 X92.018 Y103.625 E15.11344
G1 X92.401 Y102.614 E15.16378
G1 X92.625 Y102.101 E15.18984
G1 X93.09 Y101.151 E15.23909
G1 X93.342 Y100.685 E15.26376
G1 X93.783 Y99.946 E15.30384
G1 X94.369 Y99.048 E15.35377
G1 X94.787 Y98.465 E15.38717
G1 X95.134 Y98.022 E15.41337
G1 X95.711 Y97.339 E15.455
G1 X96.286 Y96.717 E15.49445
G1 X96.772 Y96.234 E15.52635
G1 X97.771 Y95.346 E15.58859
G1 X98.176 Y95.019 E15.61283
G1 X99.065 Y94.359 E15.66439
G1 X99.493 Y94.068 E15.68849
G1 X100.123 Y93.675 E15.72306
G1 X101.064 Y93.135 E15.77358
G1 X101.536 Y92.893 E15.79828
G1 X102.279 Y92.55 E15.83638
G1 X102.938 Y92.273 E15.86967
G1 X104.018 Y91.876 E15.92325
G1 X104.519 Y91.718 E15.94771
G1 X105.257 Y91.518 E15.98332
G1 X106.283 Y91.279 E16.03237
G1 X106.987 Y91.148 E16.06571
G1 X107.54 Y91.068 E16.09173
G1 X108.444 Y90.973 E16.13406
G1 X109.262 Y90.924 E16.17221
G1 X110.099 Y90.909 E16.2112
G1 X111.138 Y90.947 E16.25961
M204 S3000
M205 X10 Y10
G1 F2400 E10.25961
;MESH:Sample_Skeleton.stl
G0 F3000 X113.41 Y97.079
G0 X113.052 Y98.56
G0 X119.541 Y116.017
M204 S1800
M205 X8 Y8
;TYPE:WALL-INNER
G1 F2400 E16.25961
G1 F1260 X119.257 Y116.481 E16.28494
G1 X118.974 Y116.867 E16.30723
G1 X118.669 Y117.247 E16.32992
G1 X118.336 Y117.629 E16.35351
G1 X118.002 Y117.979 E16.37604
G1 X117.66 Y118.307 E16.39811
G1 X117.261 Y118.658 E16.42285
G1 X116.893 Y118.953 E16.44481
G1 X116.496 Y119.246 E16.46779
G1 X116.064 Y119.534 E16.49196
G1 X115.643 Y119.789 E16.51488
G1 X115.246 Y120.009 E16.53602
G1 X114.81 Y120.224 E16.55865
G1 X114.344 Y120.429 E16.58236
G1 X113.907 Y120.602 E16.60424
G1 X113.502 Y120.742 E16.6242
G1 X113.008 Y120.891 E16.64822
G1 X112.46 Y121.029 E16.67454
G1 X111.965 Y121.126 E16.69803
G1 X111.486 Y121.2 E16.72059
G1 X110.985 Y121.255 E16.74406
G1 X110.512 Y121.286 E16.76614
G1 X109.997 Y121.3 E16.79012
G1 X109.512 Y121.288 E16.81272
G1 X108.773 Y121.233 E16.84722
G1 X108.343 Y121.178 E16.86741
G1 X107.862 Y121.096 E16.89013
G1 X107.316 Y120.977 E16.91615
G1 X106.852 Y120.853 E16.93851
G1 X106.392 Y120.708 E16.96097
G1 X105.95 Y120.549 E16.98284
G1 X105.529 Y120.376 E17.00404
G1 X105.006 Y120.135 E17.03085
G1 X104.62 Y119.935 E17.05109
G1 X104.211 Y119.704 E17.07297
G1 X103.81 Y119.453 E17.095
G1 X103.428 Y119.19 E17.11659
G1 X102.982 Y118.855 E17.14256
G1 X102.549 Y118.495 E17.16879
G1 X102.188 Y118.164 E17.19159
G1 X101.837 Y117.813 E17.21471
G1 X101.506 Y117.453 E17.23748
G1 X101.22 Y117.112 E17.2582
G1 X100.941 Y116.752 E17.27941
G1 X100.608 Y116.28 E17.30631
G1 X100.386 Y115.937 E17.32533
G1 X100.082 Y115.415 E17.35346
G1 X99.88 Y115.028 E17.37379
G1 X99.685 Y114.611 E17.39522
G1 X99.484 Y114.131 E17.41945
G1 X99.33 Y113.715 E17.44011
G1 X99.185 Y113.27 E17.4619
G1 X99.054 Y112.798 E17.48471
G1 X98.952 Y112.366 E17.50538
G1 X98.872 Y111.96 E17.52465
G1 X98.792 Y111.421 E17.55002
G1 X98.739 Y110.918 E17.57357
G1 X98.71 Y110.403 E17.59759
G1 X98.703 Y109.778 E17.6267
G1 X98.724 Y109.251 E17.65126
G1 X98.768 Y108.761 E17.67416
G1 X98.835 Y108.254 E17.69798
G1 X98.927 Y107.744 E17.72211
G1 X99.022 Y107.321 E17.7423
G1 X99.147 Y106.851 E17.76494
G1 X99.286 Y106.409 E17.78652
G1 X99.461 Y105.925 E17.81048
G1 X99.647 Y105.469 E17.83341
G1 X99.856 Y105.023 E17.85635
G1 X100.096 Y104.562 E17.88055
G1 X100.313 Y104.185 E17.9008
G1 X100.575 Y103.77 E17.92366
G1 X100.869 Y103.344 E17.94776
G1 X101.129 Y103.001 E17.9678
G1 X101.514 Y102.539 E17.9958
G1 X101.825 Y102.199 E18.01726
G1 X102.186 Y101.837 E18.04106
G1 X102.534 Y101.518 E18.06305
G1 X102.894 Y101.214 E18.08499
G1 X103.233 Y100.951 E18.10497
G1 X103.68 Y100.634 E18.13048
G1 X104.029 Y100.409 E18.14982
G1 X104.472 Y100.146 E18.17381
G1 X104.879 Y99.926 E18.19535
G1 X105.301 Y99.725 E18.21712
G1 X105.75 Y99.53 E18.23991
G1 X106.149 Y99.375 E18.25984
G1 X106.568 Y99.234 E18.28043
G1 X107.075 Y99.086 E18.30502
G1 X107.5 Y98.98 E18.32542
G1 X107.936 Y98.889 E18.34616
G1 X108.504 Y98.8 E18.37293
G1 X108.972 Y98.747 E18.39486
G1 X109.467 Y98.715 E18.41796
G1 X109.995 Y98.701 E18.44255
G1 X110.502 Y98.712 E18.46616
G1 X110.978 Y98.743 E18.48838
G1 X111.489 Y98.798 E18.51231
G1 X111.929 Y98.868 E18.53305
G1 X112.454 Y98.971 E18.55797
G1 X112.905 Y99.08 E18.57957
G1 X113.379 Y99.218 E18.60256
G1 X113.837 Y99.371 E18.62504
G1 X114.255 Y99.53 E18.64587
G1 X114.723 Y99.736 E18.66968
G1 X115.095 Y99.915 E18.6889
G1 X115.646 Y100.212 E18.71805
G1 X116.045 Y100.452 E18.73973
G1 X116.442 Y100.716 E18.76193
G1 X116.881 Y101.038 E18.78728
G1 X117.221 Y101.31 E18.80755
G1 X117.601 Y101.639 E18.83096
G1 X117.96 Y101.98 E18.85401
G1 X118.253 Y102.282 E18.87361
G1 X118.583 Y102.652 E18.89669
G1 X118.899 Y103.038 E18.91992
G1 X119.234 Y103.488 E18.94604
G1 X119.514 Y103.904 E18.96939
G1 X119.763 Y104.311 E18.99161
