;FLAVOR:Marlin
;TIME:2102
;Filament used: 0.69319m
;Layer height: 0.1
;MINX:93.103
;MINY:93.102
;MINZ:0.2
;MAXX:126.898
;MAXY:126.899
;MAXZ:15.6
;Generated with Cura_SteamEngine master
M104 S190
M105
M109 S190
M82 ;absolute extrusion mode
G21 ;metric values
G90 ;absolute positioning
M82 ;set extruder to absolute mode
M107 ;start with the fan off
G28 X0 Y0 ;move X/Y to min endstops
G28 Z0 ;move Z to min endstops
G1 Z15.0 F100 ;move the platform down 15mm
G92 E0 ;zero the extruded length
G1 F200 E3 ;extrude 3mm of feed stock
G92 E0 ;zero the extruded length again
G1 F100
G0 Y20 F100
M117 Printing...
G5
G92 E0
G92 E0
G1 F2400 E-6
;LAYER_COUNT:155
;LAYER:0
M106 S255
M204 S3000
M205 X10 Y10
G0 F3000 X98.243 Y97.861 Z0.2
M204 S1800
M205 X8 Y8
;TYPE:SKIRT
G1 F2400 E0
G1 X98.776 Y97.367 E0.03384
G1 X99.303 Y96.918 E0.06608
G1 X99.837 Y96.499 E0.09768
G1 X100.457 Y96.055 E0.13319
G1 X101.032 Y95.678 E0.16521
G1 X101.619 Y95.327 E0.19706
G1 X102.23 Y94.993 E0.22948
G1 X102.919 Y94.658 E0.26515
G1 X103.53 Y94.389 E0.29624
G1 X104.15 Y94.145 E0.32726
G1 X104.826 Y93.912 E0.36056
G1 X105.509 Y93.708 E0.39375
G1 X106.174 Y93.539 E0.4257
G1 X106.84 Y93.398 E0.4574
G1 X107.646 Y93.266 E0.49543
G1 X108.407 Y93.177 E0.53111
G1 X109.128 Y93.124 E0.56477
G1 X109.888 Y93.102 E0.60017
G1 X110.642 Y93.113 E0.63529
G1 X111.378 Y93.158 E0.66962
G1 X112.112 Y93.233 E0.70398
G1 X112.833 Y93.34 E0.73792
G1 X113.556 Y93.48 E0.77221
G1 X114.284 Y93.654 E0.80706
G1 X114.946 Y93.841 E0.8391
G1 X115.649 Y94.073 E0.87357
G1 X116.302 Y94.319 E0.90606
G1 X116.965 Y94.604 E0.93966
G1 X117.572 Y94.893 E0.97097
G1 X118.314 Y95.288 E1.01011
G1 X118.95 Y95.665 E1.04454
G1 X119.59 Y96.085 E1.08018
G1 X120.194 Y96.522 E1.11489
G1 X120.744 Y96.957 E1.14755
G1 X121.303 Y97.437 E1.18186
G1 X121.822 Y97.923 E1.21496
G1 X122.31 Y98.422 E1.24746
G1 X122.768 Y98.93 E1.27931
G1 X123.23 Y99.487 E1.31301
G1 X123.767 Y100.202 E1.35465
G1 X124.189 Y100.822 E1.38957
G1 X124.55 Y101.405 E1.4215
G1 X124.885 Y102 E1.4533
G1 X125.25 Y102.719 E1.49084
G1 X125.543 Y103.369 E1.52404
G1 X125.807 Y104.024 E1.55693
G1 X126.037 Y104.672 E1.58894
G1 X126.245 Y105.344 E1.6217
G1 X126.424 Y106.028 E1.65462
G1 X126.614 Y106.914 E1.69682
G1 X126.749 Y107.757 E1.73657
G1 X126.833 Y108.505 E1.77162
G1 X126.88 Y109.185 E1.80336
G1 X126.898 Y109.902 E1.83675
G1 X126.889 Y110.589 E1.86875
G1 X126.849 Y111.305 E1.90214
G1 X126.784 Y111.967 E1.93311
G1 X126.671 Y112.764 E1.97059
G1 X126.543 Y113.455 E2.00332
G1 X126.376 Y114.168 E2.03742
G1 X126.164 Y114.926 E2.07407
G1 X125.948 Y115.591 E2.10662
G1 X125.642 Y116.396 E2.14673
G1 X125.346 Y117.077 E2.1813
G1 X125.037 Y117.713 E2.21423
G1 X124.697 Y118.34 E2.24744
G1 X124.277 Y119.007 E2.28414
G1 X123.995 Y119.465 E2.30919
G1 X123.478 Y120.195 E2.35084
G1 X123.027 Y120.765 E2.38468
G1 X122.523 Y121.347 E2.42053
G1 X122.029 Y121.87 E2.45403
G1 X121.514 Y122.369 E2.48742
G1 X120.926 Y122.892 E2.52407
G1 X120.356 Y123.354 E2.55823
G1 X119.778 Y123.783 E2.59175
G1 X119.159 Y124.202 E2.62656
G1 X118.539 Y124.583 E2.66044
G1 X117.907 Y124.936 E2.69415
G1 X117.236 Y125.271 E2.72907
G1 X116.599 Y125.557 E2.76158
G1 X115.958 Y125.814 E2.79374
G1 X115.294 Y126.047 E2.82651
G1 X114.597 Y126.26 E2.86045
G1 X113.795 Y126.468 E2.89903
G1 X113.014 Y126.628 E2.93615
G1 X112.3 Y126.741 E2.96981
G1 X111.574 Y126.825 E3.00384
G1 X110.852 Y126.877 E3.03755
G1 X110.103 Y126.899 E3.07244
G1 X109.377 Y126.887 E3.10625
G1 X108.315 Y126.813 E3.15582
G1 X107.586 Y126.726 E3.19
G1 X106.888 Y126.611 E3.22294
G1 X106.101 Y126.444 E3.26041
G1 X105.363 Y126.25 E3.29594
G1 X104.682 Y126.041 E3.32911
G1 X104.027 Y125.809 E3.36146
G1 X103.36 Y125.539 E3.39497
G1 X102.647 Y125.214 E3.43146
G1 X102.035 Y124.903 E3.46342
G1 X101.393 Y124.541 E3.49774
G1 X100.825 Y124.191 E3.52881
G1 X100.238 Y123.793 E3.56183
G1 X99.588 Y123.309 E3.59957
G1 X98.959 Y122.793 E3.63745
G1 X98.398 Y122.288 E3.6726
G1 X97.861 Y121.757 E3.70776
G1 X97.358 Y121.214 E3.74223
G1 X96.907 Y120.683 E3.77467
G1 X96.489 Y120.149 E3.80625
G1 X96.035 Y119.514 E3.8426
G1 X95.65 Y118.924 E3.8754
G1 X95.242 Y118.231 E3.91285
G1 X94.901 Y117.591 E3.94661
G1 X94.592 Y116.941 E3.98013
G1 X94.316 Y116.289 E4.01309
G1 X94.076 Y115.654 E4.0447
G1 X93.844 Y114.954 E4.07904
G1 X93.657 Y114.295 E4.11094
G1 X93.502 Y113.653 E4.14169
G1 X93.373 Y113.023 E4.17164
G1 X93.247 Y112.209 E4.20999
G1 X93.168 Y111.476 E4.24432
G1 X93.117 Y110.701 E4.28049
G1 X93.103 Y109.764 E4.32412
G1 X93.128 Y109.012 E4.35916
G1 X93.19 Y108.257 E4.39443
G1 X93.289 Y107.478 E4.431
G1 X93.415 Y106.753 E4.46526
G1 X93.571 Y106.042 E4.49916
G1 X93.742 Y105.387 E4.53068
G1 X93.958 Y104.686 E4.56483
G1 X94.196 Y104.016 E4.59794
G1 X94.492 Y103.286 E4.63462
G1 X94.803 Y102.612 E4.66919
G1 X95.132 Y101.967 E4.7029
G1 X95.492 Y101.336 E4.73673
G1 X95.843 Y100.773 E4.76762
G1 X96.277 Y100.138 E4.80344
G1 X96.694 Y99.582 E4.8358
G1 X97.221 Y98.944 E4.87433
G1 X97.726 Y98.385 E4.90941
G1 X98.243 Y97.861 E4.94369
M204 S3000
M205 X10 Y10
G0 F3000 X98.64 Y98.256
M204 S1800
M205 X8 Y8
G1 F2400 X99.155 Y97.779 E4.97637
G1 X99.664 Y97.346 E5.00749
G1 X100.18 Y96.941 E5.03803
G1 X100.781 Y96.511 E5.07244
G1 X101.336 Y96.148 E5.10332
G1 X101.904 Y95.809 E5.13413
G1 X102.496 Y95.486 E5.16553
G1 X103.161 Y95.163 E5.19995
G1 X103.752 Y94.903 E5.23002
G1 X104.353 Y94.667 E5.26008
G1 X105.005 Y94.442 E5.2922
G1 X105.666 Y94.245 E5.32432
G1 X106.309 Y94.082 E5.3552
G1 X106.953 Y93.946 E5.38585
G1 X107.733 Y93.819 E5.42265
G1 X108.469 Y93.733 E5.45715
G1 X109.166 Y93.683 E5.48969
G1 X109.901 Y93.662 E5.52393
G1 X110.631 Y93.673 E5.55793
G1 X111.34 Y93.716 E5.591
G1 X112.053 Y93.79 E5.62438
G1 X112.746 Y93.894 E5.65701
G1 X113.447 Y94.029 E5.69025
G1 X114.151 Y94.198 E5.72397
G1 X114.791 Y94.379 E5.75494
G1 X115.47 Y94.604 E5.78824
G1 X116.102 Y94.842 E5.81969
G1 X116.741 Y95.117 E5.85208
G1 X117.329 Y95.398 E5.88243
G1 X118.048 Y95.781 E5.92036
G1 X118.662 Y96.145 E5.9536
G1 X119.281 Y96.552 E5.98809
G1 X119.863 Y96.974 E6.02157
G1 X120.394 Y97.394 E6.05309
G1 X120.936 Y97.86 E6.08638
G1 X121.437 Y98.33 E6.11836
G1 X121.908 Y98.812 E6.14974
G1 X122.35 Y99.303 E6.18051
G1 X122.797 Y99.842 E6.21311
G1 X123.317 Y100.536 E6.25349
G1 X123.725 Y101.134 E6.2872
G1 X124.072 Y101.697 E6.318
G1 X124.396 Y102.273 E6.34877
G1 X124.75 Y102.97 E6.38517
G1 X125.031 Y103.596 E6.41712
G1 X125.286 Y104.231 E6.44899
G1 X125.508 Y104.857 E6.47991
G1 X125.709 Y105.507 E6.51159
G1 X125.881 Y106.166 E6.54331
G1 X126.066 Y107.029 E6.58441
G1 X126.196 Y107.841 E6.6227
G1 X126.276 Y108.564 E6.65657
G1 X126.321 Y109.22 E6.68719
G1 X126.338 Y109.913 E6.71947
G1 X126.329 Y110.58 E6.75053
G1 X126.29 Y111.27 E6.78271
G1 X126.227 Y111.91 E6.81265
G1 X126.117 Y112.683 E6.84901
G1 X125.993 Y113.35 E6.8806
G1 X125.832 Y114.038 E6.9135
G1 X125.625 Y114.772 E6.94901
G1 X125.416 Y115.415 E6.9805
G1 X125.12 Y116.195 E7.01934
G1 X124.834 Y116.851 E7.05267
G1 X124.534 Y117.466 E7.08453
G1 X124.206 Y118.071 E7.11657
G1 X123.785 Y118.737 E7.15326
G1 X123.518 Y119.171 E7.17699
G1 X123.026 Y119.865 E7.2166
G1 X122.59 Y120.415 E7.24928
G1 X122.101 Y120.978 E7.28401
G1 X121.624 Y121.484 E7.31639
G1 X121.127 Y121.964 E7.34856
G1 X120.556 Y122.471 E7.38412
G1 X120.006 Y122.916 E7.41706
G1 X119.446 Y123.332 E7.44954
G1 X118.848 Y123.737 E7.48317
G1 X118.249 Y124.104 E7.51588
G1 X117.636 Y124.445 E7.54855
G1 X116.989 Y124.768 E7.58222
G1 X116.372 Y125.045 E7.61371
G1 X115.752 Y125.293 E7.64481
G1 X115.112 Y125.517 E7.67638
G1 X114.436 Y125.724 E7.7093
G1 X113.657 Y125.926 E7.74677
G1 X112.907 Y126.078 E7.78241
G1 X112.215 Y126.187 E7.81503
G1 X111.513 Y126.268 E7.84793
G1 X110.815 Y126.318 E7.88052
G1 X110.089 Y126.339 E7.91434
G1 X109.389 Y126.327 E7.94694
G1 X108.356 Y126.255 E7.99515
G1 X107.657 Y126.17 E8.02794
G1 X106.981 Y126.058 E8.05985
G1 X106.221 Y125.897 E8.09602
G1 X105.509 Y125.709 E8.13031
G1 X104.849 Y125.506 E8.16246
G1 X104.217 Y125.282 E8.19369
G1 X103.574 Y125.022 E8.22598
G1 X102.881 Y124.705 E8.26147
G1 X102.292 Y124.405 E8.29225
G1 X101.67 Y124.055 E8.32548
G1 X101.121 Y123.716 E8.35552
G1 X100.555 Y123.332 E8.38737
G1 X99.924 Y122.862 E8.42401
G1 X99.317 Y122.363 E8.4606
G1 X98.776 Y121.874 E8.49456
G1 X98.257 Y121.361 E8.52854
G1 X97.77 Y120.835 E8.56191
G1 X97.336 Y120.323 E8.59317
G1 X96.931 Y119.806 E8.62375
G1 X96.492 Y119.191 E8.65893
G1 X96.12 Y118.62 E8.69067
G1 X95.726 Y117.95 E8.72686
G1 X95.397 Y117.331 E8.7595
G1 X95.1 Y116.704 E8.79181
G1 X94.833 Y116.073 E8.82371
G1 X94.6 Y115.458 E8.85433
G1 X94.376 Y114.781 E8.88754
G1 X94.196 Y114.145 E8.91832
G1 X94.047 Y113.524 E8.94805
G1 X93.922 Y112.912 E8.97714
G1 X93.801 Y112.128 E9.01408
G1 X93.725 Y111.418 E9.04733
G1 X93.676 Y110.668 E9.08232
G1 X93.663 Y109.759 E9.12466
G1 X93.688 Y109.034 E9.15843
G1 X93.748 Y108.306 E9.19245
G1 X93.845 Y107.552 E9.22785
G1 X93.966 Y106.852 E9.26093
G1 X94.117 Y106.164 E9.29372
G1 X94.283 Y105.532 E9.32415
G1 X94.492 Y104.854 E9.35719
G1 X94.723 Y104.206 E9.38922
G1 X95.01 Y103.5 E9.42471
G1 X95.31 Y102.85 E9.45804
G1 X95.63 Y102.224 E9.49078
G1 X95.977 Y101.616 E9.52338
G1 X96.317 Y101.071 E9.55329
G1 X96.738 Y100.457 E9.58795
G1 X97.14 Y99.921 E9.61915
G1 X97.651 Y99.303 E9.65649
G1 X98.139 Y98.763 E9.69038
G1 X98.64 Y98.256 E9.72357
M204 S3000
M205 X10 Y10
G0 F3000 X99.036 Y98.652
M204 S1800
M205 X8 Y8
G1 F2400 X99.533 Y98.192 E9.75511
G1 X100.025 Y97.774 E9.78517
G1 X100.524 Y97.384 E9.81466
G1 X101.105 Y96.968 E9.84793
G1 X101.641 Y96.618 E9.87774
G1 X102.189 Y96.291 E9.90745
G1 X102.763 Y95.978 E9.9379
G1 X103.403 Y95.668 E9.97101
G1 X103.975 Y95.417 E10.0001
G1 X104.556 Y95.189 E10.02916
G1 X105.185 Y94.972 E10.06014
G1 X105.824 Y94.783 E10.09117
G1 X106.444 Y94.626 E10.12095
G1 X107.067 Y94.494 E10.1506
G1 X107.82 Y94.372 E10.18612
G1 X108.531 Y94.29 E10.21945
G1 X109.203 Y94.242 E10.25082
G1 X109.915 Y94.222 E10.28399
G1 X110.62 Y94.233 E10.31682
G1 X111.302 Y94.275 E10.34864
G1 X111.993 Y94.346 E10.38098
G1 X112.66 Y94.447 E10.4124
G1 X113.338 Y94.579 E10.44456
G1 X114.018 Y94.742 E10.47712
G1 X114.637 Y94.917 E10.50707
G1 X115.291 Y95.134 E10.53916
G1 X115.902 Y95.365 E10.56957
G1 X116.517 Y95.631 E10.60077
G1 X117.086 Y95.902 E10.63012
G1 X117.783 Y96.274 E10.66691
G1 X118.373 Y96.625 E10.69888
G1 X118.971 Y97.018 E10.7322
G1 X119.532 Y97.425 E10.76447
G1 X120.045 Y97.832 E10.79496
G1 X120.569 Y98.283 E10.82715
G1 X121.052 Y98.736 E10.85799
G1 X121.505 Y99.201 E10.88822
G1 X121.933 Y99.676 E10.91799
G1 X122.364 Y100.197 E10.94948
G1 X122.868 Y100.87 E10.98863
G1 X123.26 Y101.446 E11.02107
G1 X123.594 Y101.988 E11.05071
G1 X123.907 Y102.546 E11.08051
G1 X124.249 Y103.221 E11.11574
G1 X124.519 Y103.822 E11.14642
G1 X124.766 Y104.438 E11.17732
G1 X124.979 Y105.041 E11.2071
G1 X125.173 Y105.669 E11.23771
G1 X125.339 Y106.305 E11.26831
G1 X125.518 Y107.145 E11.30831
G1 X125.642 Y107.926 E11.34513
G1 X125.719 Y108.623 E11.37778
G1 X125.762 Y109.256 E11.40732
G1 X125.778 Y109.925 E11.43849
G1 X125.77 Y110.57 E11.46852
G1 X125.731 Y111.235 E11.49954
G1 X125.67 Y111.854 E11.5285
G1 X125.563 Y112.601 E11.56364
G1 X125.443 Y113.244 E11.5941
G1 X125.287 Y113.907 E11.62581
G1 X125.087 Y114.617 E11.66016
G1 X124.884 Y115.239 E11.69063
G1 X124.597 Y115.993 E11.72819
G1 X124.322 Y116.624 E11.76025
G1 X124.032 Y117.218 E11.79102
G1 X123.715 Y117.801 E11.82193
G1 X123.334 Y118.402 E11.85506
G1 X123.041 Y118.878 E11.88109
G1 X122.573 Y119.534 E11.91861
G1 X122.153 Y120.065 E11.95013
G1 X121.68 Y120.609 E11.9837
G1 X121.218 Y121.097 E12.01499
G1 X120.74 Y121.56 E12.04598
G1 X120.186 Y122.051 E12.08045
G1 X119.656 Y122.479 E12.11217
G1 X119.115 Y122.881 E12.14356
G1 X118.536 Y123.271 E12.17606
G1 X117.958 Y123.625 E12.20762
G1 X117.366 Y123.955 E12.23918
G1 X116.742 Y124.266 E12.27165
G1 X116.145 Y124.533 E12.3021
G1 X115.546 Y124.773 E12.33215
G1 X114.93 Y124.988 E12.36253
G1 X114.274 Y125.188 E12.39446
G1 X113.519 Y125.383 E12.43077
G1 X112.799 Y125.529 E12.46498
G1 X112.13 Y125.634 E12.49651
G1 X111.451 Y125.711 E12.52833
G1 X110.778 Y125.759 E12.55975
G1 X110.075 Y125.779 E12.5925
G1 X109.402 Y125.767 E12.62384
G1 X108.398 Y125.696 E12.67071
G1 X107.729 Y125.615 E12.70209
G1 X107.075 Y125.506 E12.73296
G1 X106.34 Y125.349 E12.76796
G1 X105.655 Y125.169 E12.80094
G1 X105.015 Y124.971 E12.83213
G1 X104.406 Y124.755 E12.86222
G1 X103.787 Y124.504 E12.89332
G1 X103.116 Y124.197 E12.92768
G1 X102.548 Y123.908 E12.95736
G1 X101.947 Y123.568 E12.98951
G1 X101.417 Y123.241 E13.01851
G1 X100.872 Y122.87 E13.04921
G1 X100.26 Y122.414 E13.08475
G1 X99.675 Y121.932 E13.12004
G1 X99.154 Y121.461 E13.15274
G1 X98.653 Y120.965 E13.18557
G1 X98.183 Y120.456 E13.21783
G1 X97.765 Y119.963 E13.24793
G1 X97.374 Y119.462 E13.27752
G1 X96.949 Y118.867 E13.31157
G1 X96.591 Y118.317 E13.34213
G1 X96.21 Y117.668 E13.37717
G1 X95.893 Y117.071 E13.40864
G1 X95.607 Y116.466 E13.4398
G1 X95.35 Y115.858 E13.47054
G1 X95.125 Y115.262 E13.5002
G1 X94.909 Y114.607 E13.53232
G1 X94.736 Y113.995 E13.56193
G1 X94.592 Y113.395 E13.59067
G1 X94.471 Y112.802 E13.61885
G1 X94.356 Y112.046 E13.65445
G1 X94.282 Y111.36 E13.68658
G1 X94.235 Y110.634 E13.72046
G1 X94.223 Y109.754 E13.76144
G1 X94.248 Y109.057 E13.79392
G1 X94.306 Y108.356 E13.82667
G1 X94.4 Y107.625 E13.86099
G1 X94.518 Y106.951 E13.89285
G1 X94.664 Y106.287 E13.92451
G1 X94.824 Y105.676 E13.95392
G1 X95.027 Y105.022 E13.9858
G1 X95.249 Y104.396 E14.01673
G1 X95.528 Y103.713 E14.05109
G1 X95.817 Y103.088 E14.08315
G1 X96.128 Y102.481 E14.11491
G1 X96.461 Y101.897 E14.14621
G1 X96.791 Y101.37 E14.17516
G1 X97.199 Y100.775 E14.20876
G1 X97.586 Y100.259 E14.23879
G1 X98.081 Y99.661 E14.27494
G1 X98.552 Y99.142 E14.30757
G1 X99.036 Y98.652 E14.33964
M204 S3000
M205 X10 Y10
G0 F3000 X99.433 Y99.047
M204 S1800
M205 X8 Y8
G1 F2400 X99.912 Y98.605 E14.36999
G1 X100.386 Y98.202 E14.39896
G1 X100.867 Y97.826 E14.42739
G1 X101.429 Y97.425 E14.45954
G1 X101.945 Y97.088 E14.48824
G1 X102.474 Y96.773 E14.51691
G1 X103.029 Y96.471 E14.54633
G1 X103.645 Y96.173 E14.57819
G1 X104.198 Y95.931 E14.6063
G1 X104.758 Y95.711 E14.63431
G1 X105.365 Y95.503 E14.66419
G1 X105.981 Y95.32 E14.69412
G1 X106.579 Y95.169 E14.72283
G1 X107.181 Y95.043 E14.75147
G1 X107.907 Y94.926 E14.78572
G1 X108.593 Y94.847 E14.81787
G1 X109.24 Y94.801 E14.84807
G1 X109.928 Y94.782 E14.88012
G1 X110.609 Y94.792 E14.91183
G1 X111.265 Y94.834 E14.94244
G1 X111.934 Y94.903 E14.97376
G1 X112.573 Y95 E15.00386
G1 X113.229 Y95.128 E15.03498
G1 X113.886 Y95.286 E15.06644
G1 X114.482 Y95.455 E15.09529
G1 X115.112 Y95.665 E15.12621
G1 X115.701 Y95.888 E15.15554
G1 X116.293 Y96.144 E15.18557
G1 X116.843 Y96.407 E15.21396
G1 X117.518 Y96.767 E15.24958
G1 X118.084 Y97.105 E15.28028
G1 X118.662 Y97.485 E15.31249
G1 X119.2 Y97.877 E15.34348
G1 X119.695 Y98.269 E15.37288
G1 X120.202 Y98.706 E15.40405
G1 X120.666 Y99.143 E15.43373
G1 X121.103 Y99.591 E15.46287
G1 X121.515 Y100.049 E15.49156
G1 X121.931 Y100.552 E15.52195
G1 X122.419 Y101.204 E15.55987
G1 X122.795 Y101.759 E15.59109
G1 X123.116 Y102.28 E15.61958
G1 X123.418 Y102.819 E15.64835
G1 X123.748 Y103.471 E15.68238
G1 X124.007 Y104.049 E15.71187
G1 X124.246 Y104.645 E15.74177
G1 X124.451 Y105.225 E15.77042
G1 X124.637 Y105.832 E15.79998
G1 X124.796 Y106.444 E15.82942
G1 X124.97 Y107.26 E15.86827
G1 X125.088 Y108.01 E15.90363
G1 X125.162 Y108.682 E15.93511
G1 X125.203 Y109.291 E15.96353
G1 X125.218 Y109.936 E15.99357
G1 X125.21 Y110.561 E16.02268
G1 X125.172 Y111.2 E16.05248
G1 X125.113 Y111.797 E16.08042
G1 X125.009 Y112.52 E16.11443
G1 X124.893 Y113.139 E16.14375
G1 X124.743 Y113.777 E16.17427
G1 X124.549 Y114.463 E16.20747
G1 X124.353 Y115.063 E16.23686
G1 X124.075 Y115.791 E16.27315
G1 X123.81 Y116.398 E16.30399
G1 X123.53 Y116.971 E16.33368
G1 X123.224 Y117.532 E16.36344
G1 X122.836 Y118.142 E16.3971
G1 X122.564 Y118.584 E16.42127
G1 X122.121 Y119.204 E16.45675
G1 X121.715 Y119.716 E16.48718
G1 X121.259 Y120.24 E16.51952
G1 X120.813 Y120.711 E16.54973
G1 X120.352 Y121.156 E16.57956
G1 X119.816 Y121.63 E16.61288
G1 X119.306 Y122.042 E16.64341
