;FLAVOR:Marlin
;TIME:1650
;Filament used: 1.22392m
;Layer height: 0.2
;MINX:90.2
;MINY:97.288
;MINZ:0.2
;MAXX:129.8
;MAXY:122.85
;MAXZ:14
;Generated with Cura_SteamEngine 4.2.1
M104 S190
M105
M109 S190
M82 ;absolute extrusion mode
G21 ;metric values
G90 ;absolute positioning
M82 ;set extruder to absolute mode
M107 ;start with the fan off
G28 X0 Y0 ;move X/Y to min endstops
G28 Z0 ;move Z to min endstops
G1 Z15.0 F120 ;move the platform down 15mm
G92 E0 ;zero the extruded length
G1 F200 E3 ;extrude 3mm of feed stock
G92 E0 ;zero the extruded length again
G1 F120
M117 Printing...
G5
M141 S28
G92 E0
G92 E0
G1 F1800 E-10
;LAYER_COUNT:70
;LAYER:0
M107
G0 F6000 X90.27 Y119.293 Z0.2
;TYPE:SUPPORT
G1 F1800 E0
G1 F1500 X95.34 Y119.293 E0.21922
G1 X95.34 Y120.073 E0.25294
G1 X94.849 Y120.073 E0.27417
G1 X94.393 Y120.422 E0.299
G1 X94.063 Y121.644 E0.35373
G1 X93.317 Y122.392 E0.39941
G1 X92.293 Y122.664 E0.44522
G1 X91.286 Y122.396 E0.49028
G1 X90.542 Y121.652 E0.53577
G1 X90.282 Y120.671 E0.57965
G1 X90.27 Y119.293 E0.63924
G0 F6000 X90.678 Y119.551
G1 F1500 X90.678 Y121.159 E0.70876
G0 F6000 X90.532 Y120.015
G1 F1500 X94.499 Y120.015 E0.88029
G0 F6000 X93.345 Y119.551
G1 F1500 X93.345 Y122 E0.98618
G0 F6000 X124.66 Y120.073
G1 F1500 X124.66 Y119.293 E1.01991
G1 X129.738 Y119.293 E1.23947
G1 X129.74 Y120.575 E1.2949
G1 X129.456 Y121.656 E1.34323
G1 X128.71 Y122.396 E1.38866
G1 X127.686 Y122.666 E1.43445
G1 X126.69 Y122.399 E1.47904
G1 X125.939 Y121.647 E1.52499
G1 X125.591 Y120.418 E1.58022
G1 X125.134 Y120.073 E1.60498
G1 X124.66 Y120.073 E1.62547
G0 F6000 X125.349 Y119.911
G1 F1500 X125.349 Y119.551 E1.64104
G0 F6000 X125.486 Y120.015
G1 F1500 X129.48 Y120.015 E1.81373
G0 F6000 X128.016 Y119.551
G1 F1500 X128.016 Y122.313 E1.93315
G0 F6000 X124.2 Y120.133
;TYPE:SUPPORT-INTERFACE
G1 F1500 X95.8 Y120.133 E3.16112
G1 X95.8 Y119.233 E3.20003
G1 X124.2 Y119.233 E4.428
G1 X124.2 Y120.133 E4.46691
G1 F1800 E-5.53309
;MESH:fengzui(1).stl
G0 F6000 X124.2 Y117.533
G0 X91.864 Y113.078
;TYPE:WALL-INNER
G1 F1800 E4.46691
G1 F1500 X97.758 Y112.985 E4.72179
G1 X98.398 Y112.984 E4.74946
G1 X105.28 Y112.742 E5.04721
G1 X106.027 Y112.724 E5.07952
G1 X113.636 Y112.553 E5.4086
G1 X121.254 Y112.367 E5.73809
G1 X122.511 Y112.282 E5.79256
G1 X127.862 Y112.228 E6.02394
G1 X127.974 Y112.828 E6.05033
G1 X128.191 Y113.53 E6.0821
G1 X128.192 Y116.774 E6.22237
G1 X128.192 Y117.033 E6.23356
G1 X127.933 Y117.033 E6.24081
G1 X91.809 Y117.033 E7.80274
G1 X91.808 Y113.436 E7.95827
G1 X91.864 Y113.078 E7.97394
G0 F6000 X91.288 Y113.395
G1 F1500 X91.417 Y112.565 E8.01026
G1 X97.75 Y112.465 E8.28412
G1 X98.388 Y112.464 E8.3117
G1 X105.262 Y112.222 E8.60911
G1 X106.015 Y112.204 E8.64168
G1 X113.624 Y112.033 E8.97076
G1 X121.23 Y111.847 E9.29973
G1 X122.488 Y111.762 E9.35424
G1 X128.275 Y111.704 E9.60448
G1 X128.299 Y111.735 E9.60617
G1 X128.48 Y112.703 E9.64875
G1 X128.711 Y113.45 E9.68256
G1 X128.712 Y117.294 E9.84877
G1 X128.712 Y117.553 E9.85996
G1 X128.453 Y117.553 E9.86721
G1 X91.289 Y117.553 E11.47411
G1 X91.288 Y113.395 E11.65389
G0 F6000 X91.387 Y113.402
G0 X90.971 Y112.052
;TYPE:WALL-OUTER
G1 F1500 X97.742 Y111.945 E11.9467
G1 X98.378 Y111.944 E11.9742
G1 X105.244 Y111.702 E12.27125
G1 X106.003 Y111.684 E12.30408
G1 X113.612 Y111.513 E12.63316
G1 X121.206 Y111.327 E12.96161
G1 X122.465 Y111.242 E13.01617
G1 X128.531 Y111.181 E13.27847
G1 X128.787 Y111.518 E13.29677
G1 X128.986 Y112.578 E13.3434
G1 X129.231 Y113.371 E13.37929
G1 X129.232 Y117.813 E13.57135
G1 X129.232 Y118.073 E13.58259
G1 X128.972 Y118.073 E13.58987
G1 X90.769 Y118.073 E15.2417
G1 X90.768 Y113.354 E15.44574
G1 X90.971 Y112.052 E15.50271
G0 F6000 X91.171 Y112.049
G0 X91.454 Y112.663
G0 X91.501 Y112.67
G0 X92.318 Y113.581
;TYPE:SKIN
G1 F1500 X97.766 Y113.495 E15.73831
G1 X98.408 Y113.494 E15.76606
G1 X105.298 Y113.252 E16.06416
G1 X106.039 Y113.234 E16.09621
G1 X113.648 Y113.063 E16.42529
G1 X121.278 Y112.877 E16.7553
G1 X122.517 Y112.792 E16.80899
G1 X127.439 Y112.742 E17.02182
G1 X127.478 Y112.95 E17.03097
G1 X127.681 Y113.606 E17.06066
G1 X127.682 Y116.523 E17.18679
G1 X92.319 Y116.523 E18.71582
G1 X92.318 Y113.581 E18.84303
G0 F6000 X92.731 Y116.263
G1 F1500 X92.576 Y116.109 E18.85248
G0 F6000 X92.576 Y115.373
G1 F1500 X93.466 Y116.263 E18.9069
G0 F6000 X94.202 Y116.263
G1 F1500 X92.575 Y114.637 E19.00635
G0 F6000 X92.575 Y113.902
G1 F1500 X94.937 Y116.263 E19.15076
G0 F6000 X95.672 Y116.263
G1 F1500 X93.233 Y113.824 E19.2999
G0 F6000 X93.957 Y113.813
G1 F1500 X96.408 Y116.263 E19.44974
G0 F6000 X97.143 Y116.263
G1 F1500 X94.68 Y113.801 E19.60032
G0 F6000 X95.404 Y113.789
G1 F1500 X97.879 Y116.263 E19.75163
G0 F6000 X98.614 Y116.263
G1 F1500 X96.129 Y113.778 E19.90358
G0 F6000 X96.853 Y113.767
G1 F1500 X99.349 Y116.263 E20.05621
G0 F6000 X100.085 Y116.263
G1 F1500 X97.577 Y113.755 E20.20956
G0 F6000 X98.309 Y113.752
G1 F1500 X100.82 Y116.263 E20.36311
G0 F6000 X101.556 Y116.263
G1 F1500 X99.022 Y113.73 E20.51803
G0 F6000 X99.733 Y113.705
G1 F1500 X102.291 Y116.263 E20.67444
G0 F6000 X103.026 Y116.263
G1 F1500 X100.443 Y113.68 E20.83239
G0 F6000 X101.153 Y113.655
G1 F1500 X103.762 Y116.263 E20.99189
G0 F6000 X104.497 Y116.263
G1 F1500 X101.864 Y113.63 E21.15289
G0 F6000 X102.574 Y113.605
G1 F1500 X105.233 Y116.263 E21.31546
G0 F6000 X105.968 Y116.263
G1 F1500 X103.284 Y113.58 E21.47955
G0 F6000 X103.995 Y113.555
G1 F1500 X106.703 Y116.263 E21.64514
G0 F6000 X107.439 Y116.263
G1 F1500 X104.705 Y113.53 E21.81228
G0 F6000 X105.417 Y113.506
G1 F1500 X108.174 Y116.263 E21.98087
G0 F6000 X108.91 Y116.263
G1 F1500 X106.136 Y113.489 E22.15049
G0 F6000 X106.855 Y113.473
G1 F1500 X109.645 Y116.263 E22.3211
G0 F6000 X110.381 Y116.264
G1 F1500 X107.574 Y113.457 E22.49274
G0 F6000 X108.293 Y113.441
G1 F1500 X111.116 Y116.264 E22.66536
G0 F6000 X111.852 Y116.264
G1 F1500 X109.013 Y113.425 E22.83896
G0 F6000 X109.732 Y113.409
G1 F1500 X112.587 Y116.264 E23.01354
G0 F6000 X113.323 Y116.264
G1 F1500 X110.451 Y113.393 E23.18912
G0 F6000 X111.17 Y113.376
G1 F1500 X114.058 Y116.264 E23.36572
G0 F6000 X114.793 Y116.264
G1 F1500 X111.889 Y113.36 E23.54329
G0 F6000 X112.609 Y113.344
G1 F1500 X115.529 Y116.264 E23.72185
G0 F6000 X116.264 Y116.264
G1 F1500 X113.328 Y113.328 E23.90138
G0 F6000 X114.047 Y113.311
G1 F1500 X117 Y116.264 E24.08195
G0 F6000 X117.735 Y116.264
G1 F1500 X114.764 Y113.294 E24.26359
G0 F6000 X115.482 Y113.276
G1 F1500 X118.47 Y116.264 E24.4463
G0 F6000 X119.206 Y116.264
G1 F1500 X116.2 Y113.259 E24.63008
G0 F6000 X116.918 Y113.241
G1 F1500 X119.941 Y116.264 E24.81493
G0 F6000 X120.676 Y116.264
G1 F1500 X117.636 Y113.224 E25.00082
G0 F6000 X118.354 Y113.207
G1 F1500 X121.412 Y116.264 E25.18778
G0 F6000 X122.147 Y116.264
G1 F1500 X119.072 Y113.189 E25.37581
G0 F6000 X119.79 Y113.171
G1 F1500 X122.883 Y116.264 E25.56494
G0 F6000 X123.618 Y116.264
G1 F1500 X120.507 Y113.154 E25.75514
G0 F6000 X121.226 Y113.137
G1 F1500 X124.353 Y116.264 E25.94635
G0 F6000 X125.089 Y116.264
G1 F1500 X121.916 Y113.091 E26.14037
G0 F6000 X122.608 Y113.048
G1 F1500 X125.824 Y116.264 E26.33702
G0 F6000 X126.56 Y116.264
G1 F1500 X123.337 Y113.041 E26.5341
G0 F6000 X124.065 Y113.034
G1 F1500 X127.295 Y116.264 E26.73161
G0 F6000 X127.423 Y115.657
G1 F1500 X124.793 Y113.026 E26.89246
G0 F6000 X125.521 Y113.019
G1 F1500 X127.423 Y114.921 E27.00876
G0 F6000 X127.423 Y114.186
G1 F1500 X126.248 Y113.011 E27.08061
G0 F6000 X126.977 Y113.004
G1 F1500 X127.335 Y113.362 E27.1025
G1 F1800 E17.1025
;MESH:NONMESH
G0 F2400 X127.335 Y113.362 Z0.4
G0 F6000 X91.303 Y117.539
G0 X90.678 Y119.033
;TIME_ELAPSED:32.223290
;LAYER:1
M106 S255
;TYPE:SUPPORT
G1 F1800 E27.1025
G1 X90.678 Y122.156 E27.20638
G0 F7200 X93.345 Y122.653
G1 F1800 X93.345 Y119.033 E27.32678
G0 F7200 X125.349 Y119.033
G1 F1800 X125.349 Y120.56 E27.37757
G0 F7200 X128.016 Y119.033
G1 F1800 X128.016 Y122.85 E27.50452
G0 F7200 X123.8 Y119.733
;TYPE:SUPPORT-INTERFACE
G1 F1200 X96.2 Y119.733 E28.4225
G1 X96.2 Y119.633 E28.42583
G1 X123.8 Y119.633 E29.34381
G1 X123.8 Y119.733 E29.34713
G0 F7200 X124.2 Y120.133
G1 F1200 X95.8 Y120.133 E30.29172
G1 X95.8 Y119.233 E30.32165
G1 X124.2 Y119.233 E31.26624
G1 X124.2 Y120.133 E31.29618
G1 F1800 E21.29618
;MESH:fengzui(1).stl
G0 F7200 X124.2 Y117.713
G0 X91.854 Y112.101
;TYPE:WALL-INNER
G1 F1800 E31.29618
G1 X93.554 Y112.06 E31.35273
G1 X98.287 Y111.891 E31.51025
G1 X98.627 Y111.875 E31.52158
G1 X103.287 Y111.655 E31.67674
G1 X105.748 Y111.599 E31.75861
;TYPE:WALL-INNER
;BRIDGE
G1 F600 X111.454 Y111.308 E31.85363
;TYPE:WALL-INNER
G1 F1800 X113.174 Y111.269 E31.91085
;TYPE:WALL-INNER
;BRIDGE
G1 F600 X119.724 Y110.916 E32.01994
;TYPE:WALL-INNER
G1 F1800 X120.555 Y110.896 E32.04758
G1 X121.91 Y110.802 E32.09276
;TYPE:WALL-INNER
;BRIDGE
G1 F600 X127.086 Y110.546 E32.17894
;TYPE:WALL-INNER
G1 F1800 X127.634 Y111.13 E32.20558
G1 X127.924 Y111.439 E32.21967
G1 X128.392 Y113.322 E32.28421
G1 X128.413 Y113.448 E32.28846
G1 X128.414 Y116.734 E32.39775
G1 X128.414 Y116.933 E32.40437
G1 X128.215 Y116.933 E32.40865
G1 X91.587 Y116.933 E33.6269
G1 X91.586 Y113.352 E33.74601
G1 X91.607 Y113.01 E33.7574
G1 X91.796 Y112.344 E33.78043
G1 X91.854 Y112.101 E33.78874
G0 F7200 X91.409 Y112.243
G1 F1800 X91.471 Y111.984 E33.7976
G1 X91.536 Y111.709 E33.80699
G1 X93.542 Y111.66 E33.87373
G1 X98.27 Y111.491 E34.03109
;TYPE:WALL-INNER
;BRIDGE
G1 F600 X103.268 Y111.255 E34.1143
;TYPE:WALL-INNER
G1 F1800 X105.733 Y111.199 E34.19631
;TYPE:WALL-INNER
;BRIDGE
G1 F600 X111.445 Y110.908 E34.29142
;TYPE:WALL-INNER
G1 F1800 X113.159 Y110.869 E34.34844
;TYPE:WALL-INNER
;BRIDGE
G1 F600 X119.714 Y110.516 E34.45761
;TYPE:WALL-INNER
G1 F1800 X120.536 Y110.496 E34.48496
G1 X121.89 Y110.403 E34.5301
;TYPE:WALL-INNER
;BRIDGE
G1 F600 X127.229 Y110.138 E34.619
;TYPE:WALL-INNER
G1 F1800 X127.348 Y110.24 E34.62421
G1 X128.178 Y111.125 E34.66456
G1 X128.286 Y111.24 E34.66981
G1 X128.779 Y113.225 E34.73784
G1 X128.787 Y113.256 E34.7389
G1 X128.813 Y113.412 E34.74416
G1 X128.814 Y117.134 E34.86796
G1 X128.814 Y117.333 E34.87458
G1 X128.615 Y117.333 E34.87886
G1 X91.187 Y117.333 E36.12372
G1 X91.186 Y113.345 E36.25636
G1 X91.211 Y112.941 E36.26982
G1 X91.409 Y112.243 E36.29395
G0 F7200 X91.022 Y112.142
G1 F1800 X91.058 Y111.99 E36.29915
G1 X91.219 Y111.317 E36.32217
G1 X93.53 Y111.26 E36.39905
G1 X98.253 Y111.091 E36.55624
;TYPE:WALL-INNER
;BRIDGE
G1 F600 X103.249 Y110.855 E36.63942
;TYPE:WALL-INNER
G1 F1800 X105.718 Y110.799 E36.72156
;TYPE:WALL-INNER
;BRIDGE
G1 F600 X111.436 Y110.508 E36.81677
;TYPE:WALL-INNER
G1 F1800 X113.144 Y110.469 E36.87359
;TYPE:WALL-INNER
;BRIDGE
G1 F600 X119.704 Y110.116 E36.98285
;TYPE:WALL-INNER
G1 F1800 X120.518 Y110.096 E37.00993
G1 X121.87 Y110.004 E37.055
;TYPE:WALL-INNER
;BRIDGE
G1 F600 X127.368 Y109.73 E37.14655
;TYPE:WALL-INNER
G1 F1800 X127.628 Y109.953 E37.15794
G1 X128.613 Y111.003 E37.20582
G1 X128.652 Y111.055 E37.20798
G1 X128.673 Y111.143 E37.21099
G1 X128.719 Y111.329 E37.21737
G1 X129.174 Y113.159 E37.28009
G1 X129.182 Y113.19 E37.28115
G1 X129.213 Y113.376 E37.28742
G1 X129.214 Y117.534 E37.42572
G1 X129.214 Y117.733 E37.43234
G1 X129.015 Y117.733 E37.43662
G1 X90.787 Y117.733 E38.70809
G1 X90.786 Y113.345 E38.85403
G1 X90.815 Y112.872 E38.86979
G1 X91.022 Y112.142 E38.89503
G0 F7200 X91.118 Y112.167
G0 X90.902 Y110.925
;TYPE:WALL-OUTER
G1 F1800 X93.518 Y110.86 E38.98207
G1 X98.236 Y110.691 E39.13909
G1 X103.23 Y110.455 E39.30537
G1 X105.703 Y110.399 E39.38765
;TYPE:WALL-OUTER
;BRIDGE
G1 F600 X111.427 Y110.108 E39.48296
;TYPE:WALL-OUTER
G1 F1800 X113.129 Y110.069 E39.53959
;TYPE:WALL-OUTER
;BRIDGE
G1 F600 X119.694 Y109.716 E39.64892
;TYPE:WALL-OUTER
G1 F1800 X120.5 Y109.696 E39.67574
G1 X121.85 Y109.605 E39.72074
;TYPE:WALL-OUTER
;BRIDGE
G1 F600 X127.507 Y109.322 E39.81493
;TYPE:WALL-OUTER
G1 F1800 X127.908 Y109.666 E39.8325
G1 X128.915 Y110.74 E39.88147
G1 X129.02 Y110.876 E39.88719
G1 X129.187 Y111.551 E39.91031
G1 X129.573 Y113.108 E39.96367
G1 X129.613 Y113.345 E39.97166
G1 X129.614 Y117.933 E40.12426
G1 X129.614 Y118.133 E40.13091
G1 X129.414 Y118.133 E40.13522
G1 X90.387 Y118.133 E41.43326
G1 X90.386 Y113.345 E41.59251
G1 X90.419 Y112.803 E41.61057
G1 X90.635 Y112.041 E41.63691
G1 X90.646 Y111.997 E41.63842
G1 X90.902 Y110.925 E41.67508
G0 F7200 X91.102 Y110.921
G0 X91.242 Y111.392
G0 X91.3 Y111.407
G0 X92.162 Y112.484
;TYPE:SKIN
G1 F1500 X93.566 Y112.45 E41.72179
G1 X98.303 Y112.281 E41.87945
G1 X103.305 Y112.045 E42.046
G1 X105.762 Y111.989 E42.12774
G1 X111.474 Y111.698 E42.31797
G1 X113.189 Y111.659 E42.37502
G1 X119.745 Y111.306 E42.59339
G1 X120.573 Y111.286 E42.62094
G1 X120.657 Y111.28 E42.62374
G1 X121.937 Y111.192 E42.66641
G1 X126.925 Y110.945 E42.83252
G1 X127.104 Y111.136 E42.84123
G1 X127.571 Y111.632 E42.86388
G1 X128.009 Y113.396 E42.92434
G1 X128.023 Y113.478 E42.9271
G1 X128.024 Y116.543 E43.02905
G1 X91.977 Y116.543 E44.22797
G1 X91.976 Y113.376 E44.33331
G1 X91.995 Y113.073 E44.34341
G1 X92.162 Y112.484 E44.36377
G0 F7200 X92.676 Y112.667
G1 F1500 X92.189 Y113.154 E44.38668
G0 F7200 X92.174 Y113.735
G1 F1500 X93.255 Y112.654 E44.43752
G0 F7200 X93.838 Y112.637
G1 F1500 X92.174 Y114.3 E44.51577
G0 F7200 X92.174 Y114.865
G1 F1500 X94.424 Y112.616 E44.62158
G0 F7200 X95.011 Y112.595
G1 F1500 X92.174 Y115.431 E44.755
G0 F7200 X92.174 Y115.997
G1 F1500 X95.597 Y112.574 E44.91601
G0 F7200 X96.184 Y112.553
G1 F1500 X92.393 Y116.344 E45.09432
G0 F7200 X92.959 Y116.344
G1 F1500 X96.77 Y112.533 E45.27358
G0 F7200 X97.357 Y112.512
G1 F1500 X93.524 Y116.344 E45.45385
G0 F7200 X94.09 Y116.344
G1 F1500 X97.943 Y112.491 E45.63508
G0 F7200 X98.532 Y112.468
G1 F1500 X94.656 Y116.344 E45.8174
G0 F7200 X95.221 Y116.344
G1 F1500 X99.126 Y112.439 E46.00108
G0 F7200 X99.72 Y112.411
G1 F1500 X95.787 Y116.344 E46.18607
G0 F7200 X96.353 Y116.344
G1 F1500 X100.314 Y112.383 E46.37239
G0 F7200 X100.907 Y112.355
G1 F1500 X96.918 Y116.344 E46.56002
G0 F7200 X97.484 Y116.344
G1 F1500 X101.501 Y112.327 E46.74896
G0 F7200 X102.095 Y112.299
G1 F1500 X98.05 Y116.344 E46.93923
G0 F7200 X98.615 Y116.344
G1 F1500 X102.689 Y112.27 E47.13086
G0 F7200 X103.282 Y112.243
G1 F1500 X99.181 Y116.344 E47.32376
G0 F7200 X99.747 Y116.344
G1 F1500 X103.862 Y112.229 E47.51731
G0 F7200 X104.441 Y112.216
G1 F1500 X100.312 Y116.344 E47.7115
G0 F7200 X100.878 Y116.344
G1 F1500 X105.02 Y112.202 E47.90633
G0 F7200 X105.598 Y112.19
G1 F1500 X101.444 Y116.344 E48.10172
G0 F7200 X102.01 Y116.344
G1 F1500 X106.189 Y112.164 E48.29831
G0 F7200 X106.785 Y112.134
G1 F1500 X102.575 Y116.344 E48.49634
G0 F7200 X103.141 Y116.344
G1 F1500 X107.381 Y112.104 E48.69578
G0 F7200 X107.978 Y112.073
G1 F1500 X103.707 Y116.344 E48.89667
G0 F7200 X104.272 Y116.344
G1 F1500 X108.574 Y112.043 E49.099
G0 F7200 X109.17 Y112.012
G1 F1500 X104.838 Y116.344 E49.30276
G0 F7200 X105.404 Y116.344
G1 F1500 X109.766 Y111.982 E49.50794
G0 F7200 X110.362 Y111.951
G1 F1500 X105.969 Y116.344 E49.71457
G0 F7200 X106.535 Y116.344
G1 F1500 X110.958 Y111.921 E49.92262
G0 F7200 X111.552 Y111.893
G1 F1500 X107.101 Y116.344 E50.13198
G0 F7200 X107.666 Y116.344
G1 F1500 X112.13 Y111.88 E50.34195
G0 F7200 X112.709 Y111.867
G1 F1500 X108.232 Y116.344 E50.55254
G0 F7200 X108.798 Y116.344
G1 F1500 X113.291 Y111.851 E50.76387
G0 F7200 X113.888 Y111.819
G1 F1500 X109.363 Y116.344 E50.97671
G0 F7200 X109.929 Y116.344
G1 F1500 X114.486 Y111.787 E51.19106
G0 F7200 X115.084 Y111.755
G1 F1500 X110.495 Y116.344 E51.40691
G0 F7200 X111.061 Y116.344
G1 F1500 X115.682 Y111.722 E51.6243
G0 F7200 X116.28 Y111.69
G1 F1500 X111.626 Y116.344 E51.84321
